; generated by Slic3r 1.0.0RC1 on 2013-12-30 at 18:51:56

; layer_height = 0.25
; perimeters = 3
; top_solid_layers = 3
; bottom_solid_layers = 3
; fill_density = 0.4
; perimeter_speed = 30
; infill_speed = 60
; travel_speed = 130
; nozzle_diameter = 0.35
; filament_diameter = 1.75
; extrusion_multiplier = 1
; perimeters extrusion width = 0.35mm
; infill extrusion width = 0.39mm
; solid infill extrusion width = 0.39mm
; top infill extrusion width = 0.39mm
; first layer extrusion width = 0.70mm

G21 ; set units to millimeters
M107
M104 S220 ; set temperature
G28 ; home all axes
G1 Z5 F5000 ; lift nozzle

M109 S220 ; wait for temperature to be reached
G90 ; use absolute coordinates
G92 E0
M82 ; use absolute distances for extrusion
G1 F1800.000 E-1.00000
G92 E0
G1 Z0.350 F7800.000
G1 X158.970 Y89.970 F7800.000
G1 E1.00000 F1800.000
G1 X159.870 Y88.870 E1.12924 F540.000
G1 X160.970 Y87.970 E1.25847
G1 X162.230 Y87.300 E1.38823
G1 X163.590 Y86.890 E1.51739
G1 X165.000 Y86.750 E1.64624
G1 X205.000 Y86.750 E5.28342
G1 X206.410 Y86.890 E5.41226
G1 X207.770 Y87.300 E5.54142
G1 X209.030 Y87.970 E5.67118
G1 X210.130 Y88.870 E5.80042
G1 X211.030 Y89.970 E5.92965
G1 X211.700 Y91.230 E6.05942
G1 X212.110 Y92.590 E6.18858
G1 X212.250 Y94.000 E6.31742
G1 X212.250 Y106.000 E7.40857
G1 X212.110 Y107.410 E7.53741
G1 X211.700 Y108.770 E7.66658
G1 X211.030 Y110.030 E7.79634
G1 X210.130 Y111.130 E7.92557
G1 X209.030 Y112.030 E8.05481
G1 X207.770 Y112.700 E8.18457
G1 X206.410 Y113.110 E8.31373
G1 X205.000 Y113.250 E8.44257
G1 X165.000 Y113.250 E12.07976
G1 X163.590 Y113.110 E12.20860
G1 X162.230 Y112.700 E12.33776
G1 X160.970 Y112.030 E12.46752
G1 X159.870 Y111.130 E12.59676
G1 X158.970 Y110.030 E12.72599
G1 X158.300 Y108.770 E12.85575
G1 X157.890 Y107.410 E12.98492
G1 X157.750 Y106.000 E13.11376
G1 X157.750 Y94.000 E14.20491
G1 X157.890 Y92.590 E14.33375
G1 X158.300 Y91.230 E14.46291
G1 X158.926 Y90.053 E14.58415
G1 X159.490 Y90.320 F7800.000
G1 X160.320 Y89.320 E14.70232 F540.000
G1 X161.320 Y88.490 E14.82049
G1 X162.460 Y87.880 E14.93806
G1 X163.710 Y87.500 E15.05686
G1 X165.000 Y87.380 E15.17466
G1 X205.000 Y87.380 E18.81185
G1 X206.290 Y87.500 E18.92965
G1 X207.540 Y87.880 E19.04845
G1 X208.680 Y88.490 E19.16602
G1 X209.680 Y89.320 E19.28419
G1 X210.510 Y90.320 E19.40236
G1 X211.120 Y91.460 E19.51992
G1 X211.500 Y92.710 E19.63872
G1 X211.620 Y94.000 E19.75653
G1 X211.620 Y106.000 E20.84768
G1 X211.500 Y107.290 E20.96549
G1 X211.120 Y108.540 E21.08429
G1 X210.510 Y109.680 E21.20185
G1 X209.680 Y110.680 E21.32002
G1 X208.680 Y111.510 E21.43819
G1 X207.540 Y112.120 E21.55576
G1 X206.290 Y112.500 E21.67456
G1 X205.000 Y112.620 E21.79236
G1 X165.000 Y112.620 E25.42955
G1 X163.710 Y112.500 E25.54735
G1 X162.460 Y112.120 E25.66615
G1 X161.320 Y111.510 E25.78372
G1 X160.320 Y110.680 E25.90189
G1 X159.490 Y109.680 E26.02006
G1 X158.880 Y108.540 E26.13762
G1 X158.500 Y107.290 E26.25642
G1 X158.380 Y106.000 E26.37423
G1 X158.380 Y94.000 E27.46538
G1 X158.500 Y92.710 E27.58319
G1 X158.880 Y91.460 E27.70199
G1 X159.446 Y90.403 E27.81103
G1 F1800.000 E26.81103
G92 E0
G1 X166.600 Y95.600 F7800.000
G1 E1.00000 F1800.000
G1 X203.400 Y95.600 E4.34625 F540.000
G1 X203.400 Y104.400 E5.14647
G1 X166.600 Y104.400 E8.49272
G1 X166.600 Y95.694 E9.28442
G1 X165.975 Y94.975 F7800.000
G1 X204.025 Y94.975 E12.74431 F540.000
G1 X204.025 Y105.025 E13.65817
G1 X165.975 Y105.025 E17.11806
G1 X165.975 Y95.069 E18.02340
G1 X165.350 Y94.350 F7800.000
G1 X204.650 Y94.350 E21.59693 F378.000
G1 X204.650 Y105.650 E22.62444
G1 X165.350 Y105.650 E26.19797
G1 X165.350 Y94.444 E27.21695
G1 X165.891 Y94.662 F7800.000
G1 X167.084 Y103.979 F7800.000
G1 X167.021 Y103.916 E27.22517 F1080.000
G1 X167.021 Y103.022 E27.30734
G1 X167.978 Y103.979 E27.43176
G1 X168.872 Y103.979 E27.51393
G1 X167.021 Y102.128 E27.75457
G1 X167.021 Y101.235 E27.83674
G1 X169.765 Y103.979 E28.19358
G1 X170.659 Y103.979 E28.27575
G1 X167.021 Y100.341 E28.74880
G1 X167.021 Y99.447 E28.83097
G1 X171.553 Y103.979 E29.42023
G1 X172.446 Y103.979 E29.50240
G1 X167.021 Y98.554 E30.20787
G1 X167.021 Y97.660 E30.29004
G1 X173.340 Y103.979 E31.11171
G1 X174.234 Y103.979 E31.19388
G1 X167.021 Y96.766 E32.13176
G1 X167.170 Y96.021 E32.20163
G1 X175.127 Y103.979 E33.23642
G1 X176.021 Y103.979 E33.31859
G1 X168.063 Y96.021 E34.35337
G1 X168.957 Y96.021 E34.43555
G1 X176.915 Y103.979 E35.47033
G1 X177.808 Y103.979 E35.55250
G1 X169.851 Y96.021 E36.58729
G1 X170.744 Y96.021 E36.66946
G1 X178.702 Y103.979 E37.70424
G1 X179.595 Y103.979 E37.78642
G1 X171.638 Y96.021 E38.82120
G1 X172.532 Y96.021 E38.90337
G1 X180.489 Y103.979 E39.93816
G1 X181.383 Y103.979 E40.02033
G1 X173.425 Y96.021 E41.05512
G1 X174.319 Y96.021 E41.13729
G1 X182.276 Y103.979 E42.17207
G1 X183.170 Y103.979 E42.25424
G1 X175.213 Y96.021 E43.28903
G1 X176.106 Y96.021 E43.37120
G1 X184.064 Y103.979 E44.40599
G1 X184.957 Y103.979 E44.48816
G1 X177.000 Y96.021 E45.52294
G1 X177.893 Y96.021 E45.60511
G1 X185.851 Y103.979 E46.63990
G1 X186.745 Y103.979 E46.72207
G1 X178.787 Y96.021 E47.75686
G1 X179.681 Y96.021 E47.83903
G1 X187.638 Y103.979 E48.87381
G1 X188.532 Y103.979 E48.95598
G1 X180.574 Y96.021 E49.99077
G1 X181.468 Y96.021 E50.07294
G1 X189.426 Y103.979 E51.10773
G1 X190.319 Y103.979 E51.18990
G1 X182.362 Y96.021 E52.22468
G1 X183.255 Y96.021 E52.30685
G1 X191.213 Y103.979 E53.34164
G1 X192.107 Y103.979 E53.42381
G1 X184.149 Y96.021 E54.45860
G1 X185.043 Y96.021 E54.54077
G1 X193.000 Y103.979 E55.57555
G1 X193.894 Y103.979 E55.65772
G1 X185.936 Y96.021 E56.69251
G1 X186.830 Y96.021 E56.77468
G1 X194.788 Y103.979 E57.80947
G1 X195.681 Y103.979 E57.89164
G1 X187.724 Y96.021 E58.92642
G1 X188.617 Y96.021 E59.00859
G1 X196.575 Y103.979 E60.04338
G1 X197.468 Y103.979 E60.12555
G1 X189.511 Y96.021 E61.16034
G1 X190.405 Y96.021 E61.24251
G1 X198.362 Y103.979 E62.27729
G1 X199.256 Y103.979 E62.35947
G1 X191.298 Y96.021 E63.39425
G1 X192.192 Y96.021 E63.47642
G1 X200.149 Y103.979 E64.51121
G1 X201.043 Y103.979 E64.59338
G1 X193.085 Y96.021 E65.62816
G1 X193.979 Y96.021 E65.71034
G1 X201.937 Y103.979 E66.74512
G1 X202.830 Y103.979 E66.82729
G1 X194.873 Y96.021 E67.86208
G1 X195.766 Y96.021 E67.94425
G1 X202.979 Y103.234 E68.88213
G1 X202.979 Y102.340 E68.96430
G1 X196.660 Y96.021 E69.78597
G1 X197.554 Y96.021 E69.86814
G1 X202.979 Y101.446 E70.57360
G1 X202.979 Y100.553 E70.65577
G1 X198.447 Y96.021 E71.24503
G1 X199.341 Y96.021 E71.32720
G1 X202.979 Y99.659 E71.80025
G1 X202.979 Y98.765 E71.88242
G1 X200.235 Y96.021 E72.23925
G1 X201.128 Y96.021 E72.32143
G1 X202.979 Y97.872 E72.56206
G1 X202.979 Y96.978 E72.64423
G1 X202.022 Y96.021 E72.76865
G1 X202.916 Y96.021 E72.85082
G1 X202.979 Y96.084 E72.85903
M106 S255
M104 S220 ; set temperature
G1 F1800.000 E71.85903
G92 E0
G1 Z0.600 F7800.000
G1 X204.125 Y94.875 F7800.000
G1 E1.00000 F1800.000
G1 X204.125 Y105.125 E1.37288 F1689.900
G1 X165.875 Y105.125 E2.76435
G1 X165.875 Y94.875 E3.13722
G1 X204.072 Y94.875 E4.52678
G1 X204.475 Y94.525 F7800.000
G1 X204.475 Y105.475 E4.92512 F1689.900
G1 X165.525 Y105.475 E6.34206
G1 X165.525 Y94.525 E6.74040
G1 X204.423 Y94.525 E8.15542
G1 X204.825 Y94.175 F7800.000
G1 X204.825 Y105.825 E8.57923 F1182.930
G1 X165.175 Y105.825 E10.02163
G1 X165.175 Y94.175 E10.44544
G1 X204.773 Y94.175 E11.88593
G1 X204.650 Y94.478 F7800.000
G1 X203.883 Y104.844 F7800.000
G1 X203.844 Y104.883 E11.88811 F3379.799
G1 X203.299 Y104.883 E11.90998
G1 X203.883 Y104.299 E11.94309
G1 X203.883 Y103.753 E11.96495
G1 X202.753 Y104.883 E12.02898
G1 X202.208 Y104.883 E12.05085
G1 X203.883 Y103.208 E12.14580
G1 X203.883 Y102.662 E12.16767
G1 X201.662 Y104.883 E12.29355
G1 X201.117 Y104.883 E12.31541
G1 X203.883 Y102.117 E12.47221
G1 X203.883 Y101.571 E12.49408
G1 X200.571 Y104.883 E12.68180
G1 X200.026 Y104.883 E12.70367
G1 X203.883 Y101.026 E12.92231
G1 X203.883 Y100.481 E12.94418
G1 X199.481 Y104.883 E13.19374
G1 X198.935 Y104.883 E13.21561
G1 X203.883 Y99.935 E13.49610
G1 X203.883 Y99.390 E13.51797
G1 X198.390 Y104.883 E13.82938
G1 X197.844 Y104.883 E13.85124
G1 X203.883 Y98.844 E14.19358
G1 X203.883 Y98.299 E14.21544
G1 X197.299 Y104.883 E14.58870
G1 X196.753 Y104.883 E14.61057
G1 X203.883 Y97.753 E15.01475
G1 X203.883 Y97.208 E15.03661
G1 X196.208 Y104.883 E15.47172
G1 X195.662 Y104.883 E15.49358
G1 X203.883 Y96.662 E15.95961
G1 X203.883 Y96.117 E15.98147
G1 X195.117 Y104.883 E16.47842
G1 X194.572 Y104.883 E16.50029
G1 X203.883 Y95.572 E17.02816
G1 X203.792 Y95.117 E17.04673
G1 X194.026 Y104.883 E17.60036
G1 X193.481 Y104.883 E17.62223
G1 X203.246 Y95.117 E18.17585
G1 X202.701 Y95.117 E18.19772
G1 X192.935 Y104.883 E18.75134
G1 X192.390 Y104.883 E18.77321
G1 X202.155 Y95.117 E19.32683
G1 X201.610 Y95.117 E19.34870
G1 X191.844 Y104.883 E19.90233
G1 X191.299 Y104.883 E19.92419
G1 X201.064 Y95.117 E20.47782
G1 X200.519 Y95.117 E20.49968
G1 X190.753 Y104.883 E21.05331
G1 X190.208 Y104.883 E21.07517
G1 X199.973 Y95.117 E21.62880
G1 X199.428 Y95.117 E21.65067
G1 X189.663 Y104.883 E22.20429
G1 X189.117 Y104.883 E22.22616
G1 X198.883 Y95.117 E22.77978
G1 X198.337 Y95.117 E22.80165
G1 X188.572 Y104.883 E23.35527
G1 X188.026 Y104.883 E23.37714
G1 X197.792 Y95.117 E23.93077
G1 X197.246 Y95.117 E23.95263
G1 X187.481 Y104.883 E24.50626
G1 X186.935 Y104.883 E24.52812
G1 X196.701 Y95.117 E25.08175
G1 X196.155 Y95.117 E25.10361
G1 X186.390 Y104.883 E25.65724
G1 X185.844 Y104.883 E25.67911
G1 X195.610 Y95.117 E26.23273
G1 X195.064 Y95.117 E26.25460
G1 X185.299 Y104.883 E26.80822
G1 X184.754 Y104.883 E26.83009
G1 X194.519 Y95.117 E27.38371
G1 X193.974 Y95.117 E27.40558
G1 X184.208 Y104.883 E27.95921
G1 X183.663 Y104.883 E27.98107
G1 X193.428 Y95.117 E28.53470
G1 X192.883 Y95.117 E28.55656
G1 X183.117 Y104.883 E29.11019
G1 X182.572 Y104.883 E29.13205
G1 X192.337 Y95.117 E29.68568
G1 X191.792 Y95.117 E29.70754
G1 X182.026 Y104.883 E30.26117
G1 X181.481 Y104.883 E30.28304
G1 X191.246 Y95.117 E30.83666
G1 X190.701 Y95.117 E30.85853
G1 X180.935 Y104.883 E31.41215
G1 X180.390 Y104.883 E31.43402
G1 X190.155 Y95.117 E31.98764
G1 X189.610 Y95.117 E32.00951
G1 X179.845 Y104.883 E32.56314
G1 X179.299 Y104.883 E32.58500
G1 X189.065 Y95.117 E33.13863
G1 X188.519 Y95.117 E33.16049
G1 X178.754 Y104.883 E33.71412
G1 X178.208 Y104.883 E33.73598
G1 X187.974 Y95.117 E34.28961
G1 X187.428 Y95.117 E34.31148
G1 X177.663 Y104.883 E34.86510
G1 X177.117 Y104.883 E34.88697
G1 X186.883 Y95.117 E35.44059
G1 X186.337 Y95.117 E35.46246
G1 X176.572 Y104.883 E36.01608
G1 X176.026 Y104.883 E36.03795
G1 X185.792 Y95.117 E36.59158
G1 X185.246 Y95.117 E36.61344
G1 X175.481 Y104.883 E37.16707
G1 X174.936 Y104.883 E37.18893
G1 X184.701 Y95.117 E37.74256
G1 X184.156 Y95.117 E37.76442
G1 X174.390 Y104.883 E38.31805
G1 X173.845 Y104.883 E38.33992
G1 X183.610 Y95.117 E38.89354
G1 X183.065 Y95.117 E38.91541
G1 X173.299 Y104.883 E39.46903
G1 X172.754 Y104.883 E39.49090
G1 X182.519 Y95.117 E40.04452
G1 X181.974 Y95.117 E40.06639
G1 X172.208 Y104.883 E40.62002
G1 X171.663 Y104.883 E40.64188
G1 X181.428 Y95.117 E41.19551
G1 X180.883 Y95.117 E41.21737
G1 X171.117 Y104.883 E41.77100
G1 X170.572 Y104.883 E41.79286
G1 X180.337 Y95.117 E42.34649
G1 X179.792 Y95.117 E42.36836
G1 X170.027 Y104.883 E42.92198
G1 X169.481 Y104.883 E42.94385
G1 X179.247 Y95.117 E43.49747
G1 X178.701 Y95.117 E43.51934
G1 X168.936 Y104.883 E44.07296
G1 X168.390 Y104.883 E44.09483
G1 X178.156 Y95.117 E44.64846
G1 X177.610 Y95.117 E44.67032
G1 X167.845 Y104.883 E45.22395
G1 X167.299 Y104.883 E45.24581
G1 X177.065 Y95.117 E45.79944
G1 X176.519 Y95.117 E45.82130
G1 X166.754 Y104.883 E46.37493
G1 X166.208 Y104.883 E46.39680
G1 X175.974 Y95.117 E46.95042
G1 X175.428 Y95.117 E46.97229
G1 X166.117 Y104.428 E47.50016
G1 X166.117 Y103.883 E47.52202
G1 X174.883 Y95.117 E48.01897
G1 X174.338 Y95.117 E48.04084
G1 X166.117 Y103.338 E48.50686
G1 X166.117 Y102.792 E48.52873
G1 X173.792 Y95.117 E48.96383
G1 X173.247 Y95.117 E48.98569
G1 X166.117 Y102.247 E49.38987
G1 X166.117 Y101.701 E49.41174
G1 X172.701 Y95.117 E49.78500
G1 X172.156 Y95.117 E49.80686
G1 X166.117 Y101.156 E50.14920
G1 X166.117 Y100.610 E50.17106
G1 X171.610 Y95.117 E50.48247
G1 X171.065 Y95.117 E50.50434
G1 X166.117 Y100.065 E50.78483
G1 X166.117 Y99.519 E50.80670
G1 X170.519 Y95.117 E51.05626
G1 X169.974 Y95.117 E51.07813
G1 X166.117 Y98.974 E51.29677
G1 X166.117 Y98.429 E51.31864
G1 X169.429 Y95.117 E51.50636
G1 X168.883 Y95.117 E51.52822
G1 X166.117 Y97.883 E51.68502
G1 X166.117 Y97.338 E51.70689
G1 X168.338 Y95.117 E51.83277
G1 X167.792 Y95.117 E51.85463
G1 X166.117 Y96.792 E51.94958
G1 X166.117 Y96.247 E51.97145
G1 X167.247 Y95.117 E52.03548
G1 X166.701 Y95.117 E52.05735
G1 X166.117 Y95.701 E52.09046
G1 X166.117 Y95.156 E52.11232
G1 X166.156 Y95.117 E52.11451
G1 F1800.000 E51.11451
G92 E0
G1 Z0.850 F7800.000
G1 X165.875 Y94.875 F7800.000
G1 E1.00000 F1800.000
G1 X204.125 Y94.875 E2.39147 F1689.900
G1 X204.125 Y105.125 E2.76435
G1 X165.875 Y105.125 E4.15582
G1 X165.875 Y94.927 E4.52678
G1 X165.525 Y94.525 F7800.000
G1 X204.475 Y94.525 E5.94372 F1689.900
G1 X204.475 Y105.475 E6.34206
G1 X165.525 Y105.475 E7.75899
G1 X165.525 Y94.578 E8.15542
G1 X165.175 Y94.175 F7800.000
G1 X204.825 Y94.175 E9.59782 F1182.930
G1 X204.825 Y105.825 E10.02163
G1 X165.175 Y105.825 E11.46403
G1 X165.175 Y94.228 E11.88593
G1 X165.478 Y94.350 F7800.000
G1 X166.156 Y104.883 F7800.000
G1 X166.117 Y104.844 E11.88811 F3379.799
G1 X166.117 Y104.299 E11.90998
G1 X166.701 Y104.883 E11.94309
G1 X167.247 Y104.883 E11.96495
G1 X166.117 Y103.753 E12.02898
G1 X166.117 Y103.208 E12.05085
G1 X167.792 Y104.883 E12.14580
G1 X168.338 Y104.883 E12.16767
G1 X166.117 Y102.662 E12.29355
G1 X166.117 Y102.117 E12.31541
G1 X168.883 Y104.883 E12.47221
G1 X169.429 Y104.883 E12.49408
G1 X166.117 Y101.571 E12.68180
G1 X166.117 Y101.026 E12.70367
G1 X169.974 Y104.883 E12.92231
G1 X170.519 Y104.883 E12.94418
G1 X166.117 Y100.481 E13.19374
G1 X166.117 Y99.935 E13.21561
G1 X171.065 Y104.883 E13.49610
G1 X171.610 Y104.883 E13.51797
G1 X166.117 Y99.390 E13.82938
G1 X166.117 Y98.844 E13.85124
G1 X172.156 Y104.883 E14.19358
G1 X172.701 Y104.883 E14.21544
G1 X166.117 Y98.299 E14.58870
G1 X166.117 Y97.753 E14.61057
G1 X173.247 Y104.883 E15.01475
G1 X173.792 Y104.883 E15.03661
G1 X166.117 Y97.208 E15.47172
G1 X166.117 Y96.662 E15.49358
G1 X174.338 Y104.883 E15.95961
G1 X174.883 Y104.883 E15.98147
G1 X166.117 Y96.117 E16.47842
G1 X166.117 Y95.572 E16.50029
G1 X175.428 Y104.883 E17.02816
G1 X175.974 Y104.883 E17.05003
G1 X166.208 Y95.117 E17.60365
G1 X166.754 Y95.117 E17.62552
G1 X176.519 Y104.883 E18.17914
G1 X177.065 Y104.883 E18.20101
G1 X167.299 Y95.117 E18.75463
G1 X167.845 Y95.117 E18.77650
G1 X177.610 Y104.883 E19.33013
G1 X178.156 Y104.883 E19.35199
G1 X168.390 Y95.117 E19.90562
G1 X168.936 Y95.117 E19.92748
G1 X178.701 Y104.883 E20.48111
G1 X179.247 Y104.883 E20.50297
G1 X169.481 Y95.117 E21.05660
G1 X170.027 Y95.117 E21.07847
G1 X179.792 Y104.883 E21.63209
G1 X180.337 Y104.883 E21.65396
G1 X170.572 Y95.117 E22.20758
G1 X171.117 Y95.117 E22.22945
G1 X180.883 Y104.883 E22.78307
G1 X181.428 Y104.883 E22.80494
G1 X171.663 Y95.117 E23.35857
G1 X172.208 Y95.117 E23.38043
G1 X181.974 Y104.883 E23.93406
G1 X182.519 Y104.883 E23.95592
G1 X172.754 Y95.117 E24.50955
G1 X173.299 Y95.117 E24.53141
G1 X183.065 Y104.883 E25.08504
G1 X183.610 Y104.883 E25.10690
G1 X173.845 Y95.117 E25.66053
G1 X174.390 Y95.117 E25.68240
G1 X184.156 Y104.883 E26.23602
G1 X184.701 Y104.883 E26.25789
G1 X174.936 Y95.117 E26.81151
G1 X175.481 Y95.117 E26.83338
G1 X185.246 Y104.883 E27.38700
G1 X185.792 Y104.883 E27.40887
G1 X176.026 Y95.117 E27.96250
G1 X176.572 Y95.117 E27.98436
G1 X186.337 Y104.883 E28.53799
G1 X186.883 Y104.883 E28.55985
G1 X177.117 Y95.117 E29.11348
G1 X177.663 Y95.117 E29.13534
G1 X187.428 Y104.883 E29.68897
G1 X187.974 Y104.883 E29.71084
G1 X178.208 Y95.117 E30.26446
G1 X178.754 Y95.117 E30.28633
G1 X188.519 Y104.883 E30.83995
G1 X189.065 Y104.883 E30.86182
G1 X179.299 Y95.117 E31.41544
G1 X179.845 Y95.117 E31.43731
G1 X189.610 Y104.883 E31.99094
G1 X190.155 Y104.883 E32.01280
