; generated by Slic3r 1.0.0RC2 on 2014-01-02 at 20:55:39

; layer_height = 0.25
; perimeters = 3
; top_solid_layers = 3
; bottom_solid_layers = 3
; fill_density = 0.2
; perimeter_speed = 30
; infill_speed = 60
; travel_speed = 130
; nozzle_diameter = 0.35
; filament_diameter = 1.75
; extrusion_multiplier = 1
; perimeters extrusion width = 0.35mm
; infill extrusion width = 0.39mm
; solid infill extrusion width = 0.39mm
; top infill extrusion width = 0.39mm
; first layer extrusion width = 0.70mm

G21 ; set units to millimeters
M107
M104 S220 ; set temperature
G28 ; home all axes
G1 Z5 F5000 ; lift nozzle

M109 S220 ; wait for temperature to be reached
G90 ; use absolute coordinates
G92 E0
M82 ; use absolute distances for extrusion
G1 F1800.000 E-1.00000
G92 E0
G1 Z0.350 F7800.000
G1 X167.720 Y56.990 F7800.000
G1 E1.00000 F1800.000
G1 X168.450 Y55.630 E1.14035 F540.000
G1 X169.430 Y54.430 E1.28123
G1 X170.630 Y53.450 E1.42211
G1 X171.990 Y52.720 E1.56246
G1 X173.460 Y52.280 E1.70199
G1 X175.000 Y52.130 E1.84268
G1 X195.000 Y52.130 E3.66128
G1 X196.540 Y52.280 E3.80197
G1 X198.010 Y52.720 E3.94150
G1 X199.370 Y53.450 E4.08185
G1 X200.570 Y54.430 E4.22273
G1 X201.550 Y55.630 E4.36361
G1 X202.280 Y56.990 E4.50396
G1 X202.720 Y58.460 E4.64349
G1 X202.870 Y60.000 E4.78418
G1 X202.870 Y100.000 E8.42136
G1 X202.720 Y101.540 E8.56206
G1 X202.280 Y103.010 E8.70158
G1 X201.550 Y104.370 E8.84194
G1 X200.570 Y105.570 E8.98282
G1 X199.370 Y106.550 E9.12370
G1 X198.010 Y107.280 E9.26405
G1 X196.540 Y107.720 E9.40357
G1 X195.000 Y107.870 E9.54427
G1 X175.000 Y107.870 E11.36286
G1 X173.460 Y107.720 E11.50355
G1 X171.990 Y107.280 E11.64308
G1 X170.630 Y106.550 E11.78343
G1 X169.430 Y105.570 E11.92431
G1 X168.450 Y104.370 E12.06519
G1 X167.720 Y103.010 E12.20554
G1 X167.280 Y101.540 E12.34507
G1 X167.130 Y100.000 E12.48576
G1 X167.130 Y60.000 E16.12295
G1 X167.280 Y58.460 E16.26364
G1 X167.693 Y57.080 E16.39464
G1 X168.300 Y57.230 F7800.000
G1 X168.970 Y55.970 E16.52441 F540.000
G1 X169.870 Y54.870 E16.65364
G1 X170.970 Y53.970 E16.78288
G1 X172.230 Y53.300 E16.91264
G1 X173.590 Y52.890 E17.04180
G1 X175.000 Y52.750 E17.17064
G1 X195.000 Y52.750 E18.98923
G1 X196.410 Y52.890 E19.11807
G1 X197.770 Y53.300 E19.24724
G1 X199.030 Y53.970 E19.37700
G1 X200.130 Y54.870 E19.50623
G1 X201.030 Y55.970 E19.63547
G1 X201.700 Y57.230 E19.76523
G1 X202.110 Y58.590 E19.89439
G1 X202.250 Y60.000 E20.02323
G1 X202.250 Y100.000 E23.66042
G1 X202.110 Y101.410 E23.78926
G1 X201.700 Y102.770 E23.91842
G1 X201.030 Y104.030 E24.04818
G1 X200.130 Y105.130 E24.17742
G1 X199.030 Y106.030 E24.30665
G1 X197.770 Y106.700 E24.43641
G1 X196.410 Y107.110 E24.56558
G1 X195.000 Y107.250 E24.69442
G1 X175.000 Y107.250 E26.51301
G1 X173.590 Y107.110 E26.64185
G1 X172.230 Y106.700 E26.77101
G1 X170.970 Y106.030 E26.90077
G1 X169.870 Y105.130 E27.03001
G1 X168.970 Y104.030 E27.15924
G1 X168.300 Y102.770 E27.28901
G1 X167.890 Y101.410 E27.41817
G1 X167.750 Y100.000 E27.54701
G1 X167.750 Y60.000 E31.18419
G1 X167.890 Y58.590 E31.31303
G1 X168.273 Y57.320 E31.43367
G1 X168.880 Y57.460 F7800.000
G1 X169.490 Y56.320 E31.55124 F540.000
G1 X170.320 Y55.320 E31.66941
G1 X171.320 Y54.490 E31.78758
G1 X172.460 Y53.880 E31.90514
G1 X173.710 Y53.500 E32.02394
G1 X175.000 Y53.380 E32.14175
G1 X195.000 Y53.380 E33.96034
G1 X196.290 Y53.500 E34.07815
G1 X197.540 Y53.880 E34.19694
G1 X198.680 Y54.490 E34.31451
G1 X199.680 Y55.320 E34.43268
G1 X200.510 Y56.320 E34.55085
G1 X201.120 Y57.460 E34.66842
G1 X201.500 Y58.710 E34.78721
G1 X201.620 Y60.000 E34.90502
G1 X201.620 Y100.000 E38.54220
G1 X201.500 Y101.290 E38.66001
G1 X201.120 Y102.540 E38.77881
G1 X200.510 Y103.680 E38.89637
G1 X199.680 Y104.680 E39.01454
G1 X198.680 Y105.510 E39.13271
G1 X197.540 Y106.120 E39.25028
G1 X196.290 Y106.500 E39.36908
G1 X195.000 Y106.620 E39.48688
G1 X175.000 Y106.620 E41.30548
G1 X173.710 Y106.500 E41.42328
G1 X172.460 Y106.120 E41.54208
G1 X171.320 Y105.510 E41.65965
G1 X170.320 Y104.680 E41.77782
G1 X169.490 Y103.680 E41.89599
G1 X168.880 Y102.540 E42.01355
G1 X168.500 Y101.290 E42.13235
G1 X168.380 Y100.000 E42.25016
G1 X168.380 Y60.000 E45.88734
G1 X168.500 Y58.710 E46.00515
G1 X168.853 Y57.550 E46.11542
G1 F1800.000 E45.11542
G92 E0
G1 X176.600 Y61.600 F7800.000
G1 E1.00000 F1800.000
G1 X193.400 Y61.600 E2.52766 F540.000
G1 X193.400 Y98.400 E5.87391
G1 X176.600 Y98.400 E7.40156
G1 X176.600 Y61.694 E10.73929
G1 X175.975 Y60.975 F7800.000
G1 X194.025 Y60.975 E12.38059 F540.000
G1 X194.025 Y99.025 E15.84048
G1 X175.975 Y99.025 E17.48178
G1 X175.975 Y61.069 E20.93315
G1 X175.350 Y60.350 F7800.000
G1 X194.650 Y60.350 E22.68809 F378.000
G1 X194.650 Y99.650 E26.26162
G1 X175.350 Y99.650 E28.01656
G1 X175.350 Y60.444 E31.58157
G1 X175.891 Y60.662 F7800.000
G1 X192.916 Y62.021 F7800.000
G1 X192.979 Y62.084 E31.58977 F1080.000
G1 X192.979 Y62.977 E31.67180
G1 X192.023 Y62.021 E31.79602
G1 X191.130 Y62.021 E31.87806
G1 X192.979 Y63.870 E32.11829
G1 X192.979 Y64.763 E32.20032
G1 X190.237 Y62.021 E32.55657
G1 X189.344 Y62.021 E32.63861
G1 X192.979 Y65.656 E33.11087
G1 X192.979 Y66.549 E33.19291
G1 X188.451 Y62.021 E33.78119
G1 X187.558 Y62.021 E33.86322
G1 X192.979 Y67.442 E34.56752
G1 X192.979 Y68.335 E34.64955
G1 X186.665 Y62.021 E35.46986
G1 X185.772 Y62.021 E35.55190
G1 X192.979 Y69.228 E36.48823
G1 X192.979 Y70.121 E36.57026
G1 X184.879 Y62.021 E37.62261
G1 X183.987 Y62.021 E37.70464
G1 X192.979 Y71.013 E38.87300
G1 X192.979 Y71.906 E38.95504
G1 X183.094 Y62.021 E40.23942
G1 X182.201 Y62.021 E40.32145
G1 X192.979 Y72.799 E41.72184
G1 X192.979 Y73.692 E41.80388
G1 X181.308 Y62.021 E43.32029
G1 X180.415 Y62.021 E43.40232
G1 X192.979 Y74.585 E45.03475
G1 X192.979 Y75.478 E45.11678
G1 X179.522 Y62.021 E46.86522
G1 X178.629 Y62.021 E46.94726
G1 X192.979 Y76.371 E48.81172
G1 X192.979 Y77.264 E48.89375
G1 X177.736 Y62.021 E50.87422
G1 X177.021 Y62.199 E50.94191
G1 X192.979 Y78.157 E53.01528
G1 X192.979 Y79.050 E53.09731
G1 X177.021 Y63.092 E55.17068
G1 X177.021 Y63.985 E55.25271
G1 X192.979 Y79.943 E57.32608
G1 X192.979 Y80.835 E57.40811
G1 X177.021 Y64.878 E59.48148
G1 X177.021 Y65.771 E59.56351
G1 X192.979 Y81.728 E61.63688
G1 X192.979 Y82.621 E61.71891
G1 X177.021 Y66.664 E63.79228
G1 X177.021 Y67.557 E63.87431
G1 X192.979 Y83.514 E65.94768
G1 X192.979 Y84.407 E66.02971
G1 X177.021 Y68.450 E68.10308
G1 X177.021 Y69.342 E68.18511
G1 X192.979 Y85.300 E70.25848
G1 X192.979 Y86.193 E70.34052
G1 X177.021 Y70.235 E72.41388
G1 X177.021 Y71.128 E72.49592
G1 X192.979 Y87.086 E74.56928
G1 X192.979 Y87.979 E74.65132
G1 X177.021 Y72.021 E76.72468
G1 X177.021 Y72.914 E76.80672
G1 X192.979 Y88.872 E78.88008
G1 X192.979 Y89.765 E78.96212
G1 X177.021 Y73.807 E81.03548
G1 X177.021 Y74.700 E81.11752
G1 X192.979 Y90.657 E83.19088
G1 X192.979 Y91.550 E83.27292
G1 X177.021 Y75.593 E85.34628
G1 X177.021 Y76.486 E85.42832
G1 X192.979 Y92.443 E87.50168
G1 X192.979 Y93.336 E87.58372
G1 X177.021 Y77.379 E89.65708
G1 X177.021 Y78.272 E89.73912
G1 X192.979 Y94.229 E91.81248
G1 X192.979 Y95.122 E91.89452
G1 X177.021 Y79.165 E93.96788
G1 X177.021 Y80.057 E94.04992
G1 X192.979 Y96.015 E96.12328
G1 X192.979 Y96.908 E96.20532
G1 X177.021 Y80.950 E98.27868
G1 X177.021 Y81.843 E98.36072
G1 X192.979 Y97.801 E100.43408
G1 X192.264 Y97.979 E100.50177
G1 X177.021 Y82.736 E102.48225
G1 X177.021 Y83.629 E102.56428
G1 X191.371 Y97.979 E104.42874
G1 X190.478 Y97.979 E104.51078
G1 X177.021 Y84.522 E106.25922
G1 X177.021 Y85.415 E106.34126
G1 X189.585 Y97.979 E107.97369
G1 X188.692 Y97.979 E108.05572
G1 X177.021 Y86.308 E109.57213
G1 X177.021 Y87.201 E109.65417
G1 X187.799 Y97.979 E111.05457
G1 X186.906 Y97.979 E111.13660
G1 X177.021 Y88.094 E112.42098
G1 X177.021 Y88.987 E112.50302
G1 X186.013 Y97.979 E113.67138
G1 X185.121 Y97.979 E113.75342
G1 X177.021 Y89.879 E114.80576
G1 X177.021 Y90.772 E114.88780
G1 X184.228 Y97.979 E115.82413
G1 X183.335 Y97.979 E115.90617
G1 X177.021 Y91.665 E116.72648
G1 X177.021 Y92.558 E116.80852
G1 X182.442 Y97.979 E117.51282
G1 X181.549 Y97.979 E117.59486
G1 X177.021 Y93.451 E118.18314
G1 X177.021 Y94.344 E118.26517
G1 X180.656 Y97.979 E118.73744
G1 X179.763 Y97.979 E118.81948
G1 X177.021 Y95.237 E119.17573
G1 X177.021 Y96.130 E119.25777
G1 X178.870 Y97.979 E119.49800
G1 X177.977 Y97.979 E119.58004
G1 X177.021 Y97.023 E119.70426
G1 X177.021 Y97.916 E119.78629
G1 X177.084 Y97.979 E119.79450
M106 S183
M104 S220 ; set temperature
G1 F1800.000 E118.79450
G92 E0
G1 Z0.600 F7800.000
G1 X175.875 Y99.125 F7800.000
G1 E1.00000 F1800.000
G1 X175.875 Y60.875 E2.39147 F1800
G1 X194.125 Y60.875 E3.05537
G1 X194.125 Y99.125 E4.44684
G1 X175.928 Y99.125 E5.10883
G1 X175.525 Y99.475 F7800.000
G1 X175.525 Y60.525 E6.52577 F1800
G1 X194.475 Y60.525 E7.21514
G1 X194.475 Y99.475 E8.63207
G1 X175.577 Y99.475 E9.31953
G1 X175.175 Y99.825 F7800.000
G1 X175.175 Y60.175 E10.76193 F1260
G1 X194.825 Y60.175 E11.47676
G1 X194.825 Y99.825 E12.91916
G1 X175.227 Y99.825 E13.63208
G1 X175.350 Y99.522 F7800.000
G1 X193.883 Y98.844 F7800.000
G1 X193.844 Y98.883 E13.63430 F3600
G1 X193.295 Y98.883 E13.65645
G1 X193.883 Y98.295 E13.69000
G1 X193.883 Y97.746 E13.71216
G1 X192.746 Y98.883 E13.77704
G1 X192.197 Y98.883 E13.79919
G1 X193.883 Y97.197 E13.89540
G1 X193.883 Y96.648 E13.91756
G1 X191.648 Y98.883 E14.04510
G1 X191.099 Y98.883 E14.06726
G1 X193.883 Y96.099 E14.22614
G1 X193.883 Y95.550 E14.24829
G1 X190.550 Y98.883 E14.43850
G1 X190.001 Y98.883 E14.46066
G1 X193.883 Y95.001 E14.68220
G1 X193.883 Y94.452 E14.70435
G1 X189.452 Y98.883 E14.95723
G1 X188.903 Y98.883 E14.97938
G1 X193.883 Y93.903 E15.26359
G1 X193.883 Y93.354 E15.28575
G1 X188.354 Y98.883 E15.60129
G1 X187.805 Y98.883 E15.62344
G1 X193.883 Y92.805 E15.97031
G1 X193.883 Y92.255 E15.99247
G1 X187.255 Y98.883 E16.37067
G1 X186.706 Y98.883 E16.39283
G1 X193.883 Y91.706 E16.80236
G1 X193.883 Y91.157 E16.82452
G1 X186.157 Y98.883 E17.26539
G1 X185.608 Y98.883 E17.28754
G1 X193.883 Y90.608 E17.75974
G1 X193.883 Y90.059 E17.78190
G1 X185.059 Y98.883 E18.28543
G1 X184.510 Y98.883 E18.30759
G1 X193.883 Y89.510 E18.84245
G1 X193.883 Y88.961 E18.86461
G1 X183.961 Y98.883 E19.43080
G1 X183.412 Y98.883 E19.45296
G1 X193.883 Y88.412 E20.05049
G1 X193.883 Y87.863 E20.07264
G1 X182.863 Y98.883 E20.70151
G1 X182.314 Y98.883 E20.72366
G1 X193.883 Y87.314 E21.38386
G1 X193.883 Y86.765 E21.40601
G1 X181.765 Y98.883 E22.09754
G1 X181.216 Y98.883 E22.11969
G1 X193.883 Y86.216 E22.84255
G1 X193.883 Y85.667 E22.86471
G1 X180.667 Y98.883 E23.61890
G1 X180.118 Y98.883 E23.64106
G1 X193.883 Y85.118 E24.42658
G1 X193.883 Y84.569 E24.44873
G1 X179.569 Y98.883 E25.26559
G1 X179.020 Y98.883 E25.28775
G1 X193.883 Y84.020 E26.13594
G1 X193.883 Y83.471 E26.15809
G1 X178.471 Y98.883 E27.03761
G1 X177.922 Y98.883 E27.05977
G1 X193.883 Y82.922 E27.97062
G1 X193.883 Y82.373 E27.99278
G1 X177.373 Y98.883 E28.93496
G1 X176.824 Y98.883 E28.95712
G1 X193.883 Y81.824 E29.93063
G1 X193.883 Y81.275 E29.95279
G1 X176.275 Y98.883 E30.95764
G1 X176.117 Y98.491 E30.97467
G1 X193.883 Y80.725 E31.98850
G1 X193.883 Y80.176 E32.01066
G1 X176.117 Y97.942 E33.02449
G1 X176.117 Y97.393 E33.04665
G1 X193.883 Y79.627 E34.06048
G1 X193.883 Y79.078 E34.08263
G1 X176.117 Y96.844 E35.09646
G1 X176.117 Y96.295 E35.11862
G1 X193.883 Y78.529 E36.13245
G1 X193.883 Y77.980 E36.15460
G1 X176.117 Y95.746 E37.16843
G1 X176.117 Y95.197 E37.19059
G1 X193.883 Y77.431 E38.20442
G1 X193.883 Y76.882 E38.22657
G1 X176.117 Y94.648 E39.24040
G1 X176.117 Y94.099 E39.26256
G1 X193.883 Y76.333 E40.27639
G1 X193.883 Y75.784 E40.29854
G1 X176.117 Y93.550 E41.31238
G1 X176.117 Y93.001 E41.33453
G1 X193.883 Y75.235 E42.34836
G1 X193.883 Y74.686 E42.37052
G1 X176.117 Y92.452 E43.38435
G1 X176.117 Y91.903 E43.40650
G1 X193.883 Y74.137 E44.42033
G1 X193.883 Y73.588 E44.44249
G1 X176.117 Y91.354 E45.45632
G1 X176.117 Y90.804 E45.47847
G1 X193.883 Y73.039 E46.49230
G1 X193.883 Y72.490 E46.51446
G1 X176.117 Y90.255 E47.52829
G1 X176.117 Y89.706 E47.55044
G1 X193.883 Y71.941 E48.56428
G1 X193.883 Y71.392 E48.58643
G1 X176.117 Y89.157 E49.60026
G1 X176.117 Y88.608 E49.62242
G1 X193.883 Y70.843 E50.63625
G1 X193.883 Y70.294 E50.65840
G1 X176.117 Y88.059 E51.67223
G1 X176.117 Y87.510 E51.69439
G1 X193.883 Y69.745 E52.70822
G1 X193.883 Y69.195 E52.73037
G1 X176.117 Y86.961 E53.74420
G1 X176.117 Y86.412 E53.76636
G1 X193.883 Y68.646 E54.78019
G1 X193.883 Y68.097 E54.80234
G1 X176.117 Y85.863 E55.81618
G1 X176.117 Y85.314 E55.83833
G1 X193.883 Y67.548 E56.85216
G1 X193.883 Y66.999 E56.87432
G1 X176.117 Y84.765 E57.88815
G1 X176.117 Y84.216 E57.91030
G1 X193.883 Y66.450 E58.92413
G1 X193.883 Y65.901 E58.94629
G1 X176.117 Y83.667 E59.96012
G1 X176.117 Y83.118 E59.98227
G1 X193.883 Y65.352 E60.99610
G1 X193.883 Y64.803 E61.01826
G1 X176.117 Y82.569 E62.03209
G1 X176.117 Y82.020 E62.05424
G1 X193.883 Y64.254 E63.06808
G1 X193.883 Y63.705 E63.09023
G1 X176.117 Y81.471 E64.10406
G1 X176.117 Y80.922 E64.12622
G1 X193.883 Y63.156 E65.14005
G1 X193.883 Y62.607 E65.16220
G1 X176.117 Y80.373 E66.17603
G1 X176.117 Y79.824 E66.19819
G1 X193.883 Y62.058 E67.21202
G1 X193.883 Y61.509 E67.23417
G1 X176.117 Y79.275 E68.24800
G1 X176.117 Y78.725 E68.27016
G1 X193.725 Y61.117 E69.27501
G1 X193.176 Y61.117 E69.29716
G1 X176.117 Y78.176 E70.27068
G1 X176.117 Y77.627 E70.29284
G1 X192.627 Y61.117 E71.23502
G1 X192.078 Y61.117 E71.25718
G1 X176.117 Y77.078 E72.16803
G1 X176.117 Y76.529 E72.19018
G1 X191.529 Y61.117 E73.06970
G1 X190.980 Y61.117 E73.09186
G1 X176.117 Y75.980 E73.94005
G1 X176.117 Y75.431 E73.96220
G1 X190.431 Y61.117 E74.77906
G1 X189.882 Y61.117 E74.80121
G1 X176.117 Y74.882 E75.58674
G1 X176.117 Y74.333 E75.60889
G1 X189.333 Y61.117 E76.36308
G1 X188.784 Y61.117 E76.38524
G1 X176.117 Y73.784 E77.10810
G1 X176.117 Y73.235 E77.13025
G1 X188.235 Y61.117 E77.82178
G1 X187.686 Y61.117 E77.84393
G1 X176.117 Y72.686 E78.50413
G1 X176.117 Y72.137 E78.52628
G1 X187.137 Y61.117 E79.15514
G1 X186.588 Y61.117 E79.17730
G1 X176.117 Y71.588 E79.77483
G1 X176.117 Y71.039 E79.79698
G1 X186.039 Y61.117 E80.36318
G1 X185.490 Y61.117 E80.38534
G1 X176.117 Y70.490 E80.92020
G1 X176.117 Y69.941 E80.94236
G1 X184.941 Y61.117 E81.44589
G1 X184.392 Y61.117 E81.46804
G1 X176.117 Y69.392 E81.94024
G1 X176.117 Y68.843 E81.96240
G1 X183.843 Y61.117 E82.40327
G1 X183.294 Y61.117 E82.42542
G1 X176.117 Y68.294 E82.83496
G1 X176.117 Y67.745 E82.85711
G1 X182.745 Y61.117 E83.23531
G1 X182.195 Y61.117 E83.25747
G1 X176.117 Y67.195 E83.60434
G1 X176.117 Y66.646 E83.62649
G1 X181.646 Y61.117 E83.94203
G1 X181.097 Y61.117 E83.96419
G1 X176.117 Y66.097 E84.24839
G1 X176.117 Y65.548 E84.27055
G1 X180.548 Y61.117 E84.52342
G1 X179.999 Y61.117 E84.54558
G1 X176.117 Y64.999 E84.76712
G1 X176.117 Y64.450 E84.78927
G1 X179.450 Y61.117 E84.97948
G1 X178.901 Y61.117 E85.00164
G1 X176.117 Y63.901 E85.16051
G1 X176.117 Y63.352 E85.18267
G1 X178.352 Y61.117 E85.31021
G1 X177.803 Y61.117 E85.33237
G1 X176.117 Y62.803 E85.42858
G1 X176.117 Y62.254 E85.45074
G1 X177.254 Y61.117 E85.51562
G1 X176.705 Y61.117 E85.53777
G1 X176.117 Y61.705 E85.57132
G1 X176.117 Y61.156 E85.59347
G1 X176.156 Y61.117 E85.59569
M106 S183
G1 F1800.000 E84.59569
G92 E0
G1 Z0.850 F7800.000
G1 X175.875 Y60.875 F7800.000
G1 E1.00000 F1800.000
G1 X194.125 Y60.875 E1.66390 F1800
G1 X194.125 Y99.125 E3.05537
G1 X175.875 Y99.125 E3.71928
G1 X175.875 Y60.928 E5.10883
G1 X175.525 Y60.525 F7800.000
G1 X194.475 Y60.525 E5.79820 F1800
G1 X194.475 Y99.475 E7.21514
G1 X175.525 Y99.475 E7.90451
G1 X175.525 Y60.578 E9.31953
G1 X175.175 Y60.175 F7800.000
G1 X194.825 Y60.175 E10.03436 F1260
G1 X194.825 Y99.825 E11.47676
G1 X175.175 Y99.825 E12.19159
G1 X175.175 Y60.227 E13.63208
G1 X175.478 Y60.350 F7800.000
G1 X193.883 Y61.156 F7800.000
G1 X193.844 Y61.117 E13.63430 F3600
G1 X193.295 Y61.117 E13.65645
G1 X193.883 Y61.705 E13.69000
G1 X193.883 Y62.254 E13.71215
G1 X192.746 Y61.117 E13.77703
G1 X192.197 Y61.117 E13.79919
G1 X193.883 Y62.803 E13.89540
G1 X193.883 Y63.352 E13.91756
G1 X191.648 Y61.117 E14.04510
G1 X191.099 Y61.117 E14.06726
