; generated by Slic3r 1.0.0RC1 on 2013-12-31 at 16:40:02

; layer_height = 0.25
; perimeters = 3
; top_solid_layers = 3
; bottom_solid_layers = 3
; fill_density = 0.4
; perimeter_speed = 30
; infill_speed = 60
; travel_speed = 130
; nozzle_diameter = 0.35
; filament_diameter = 1.75
; extrusion_multiplier = 1
; perimeters extrusion width = 0.35mm
; infill extrusion width = 0.39mm
; solid infill extrusion width = 0.39mm
; top infill extrusion width = 0.39mm
; first layer extrusion width = 0.70mm

G21 ; set units to millimeters
M107
M104 S220 ; set temperature
G28 ; home all axes
G1 Z5 F5000 ; lift nozzle

M109 S220 ; wait for temperature to be reached
G90 ; use absolute coordinates
G92 E0
M82 ; use absolute distances for extrusion
G1 F1800.000 E-1.00000
G92 E0
G1 Z0.350 F7800.000
G1 X172.300 Y77.230 F7800.000
G1 E1.00000 F1800.000
G1 X172.970 Y75.970 E1.12976 F540.000
G1 X173.870 Y74.870 E1.25900
G1 X174.970 Y73.970 E1.38823
G1 X176.230 Y73.300 E1.51799
G1 X177.590 Y72.890 E1.64716
G1 X179.000 Y72.750 E1.77600
G1 X191.000 Y72.750 E2.86715
G1 X192.410 Y72.890 E2.99599
G1 X193.770 Y73.300 E3.12515
G1 X195.030 Y73.970 E3.25492
G1 X196.130 Y74.870 E3.38415
G1 X197.030 Y75.970 E3.51339
G1 X197.700 Y77.230 E3.64315
G1 X198.110 Y78.590 E3.77231
G1 X198.250 Y80.000 E3.90115
G1 X198.250 Y120.000 E7.53834
G1 X198.110 Y121.410 E7.66718
G1 X197.700 Y122.770 E7.79634
G1 X197.030 Y124.030 E7.92610
G1 X196.130 Y125.130 E8.05534
G1 X195.030 Y126.030 E8.18457
G1 X193.770 Y126.700 E8.31433
G1 X192.410 Y127.110 E8.44349
G1 X191.000 Y127.250 E8.57234
G1 X179.000 Y127.250 E9.66349
G1 X177.590 Y127.110 E9.79233
G1 X176.230 Y126.700 E9.92149
G1 X174.970 Y126.030 E10.05125
G1 X173.870 Y125.130 E10.18049
G1 X172.970 Y124.030 E10.30973
G1 X172.300 Y122.770 E10.43949
G1 X171.890 Y121.410 E10.56865
G1 X171.750 Y120.000 E10.69749
G1 X171.750 Y80.000 E14.33467
G1 X171.890 Y78.590 E14.46351
G1 X172.273 Y77.320 E14.58415
G1 X172.880 Y77.460 F7800.000
G1 X173.490 Y76.320 E14.70172 F540.000
G1 X174.320 Y75.320 E14.81989
G1 X175.320 Y74.490 E14.93806
G1 X176.460 Y73.880 E15.05563
G1 X177.710 Y73.500 E15.17442
G1 X179.000 Y73.380 E15.29223
G1 X191.000 Y73.380 E16.38338
G1 X192.290 Y73.500 E16.50119
G1 X193.540 Y73.880 E16.61999
G1 X194.680 Y74.490 E16.73756
G1 X195.680 Y75.320 E16.85573
G1 X196.510 Y76.320 E16.97390
G1 X197.120 Y77.460 E17.09146
G1 X197.500 Y78.710 E17.21026
G1 X197.620 Y80.000 E17.32807
G1 X197.620 Y120.000 E20.96525
G1 X197.500 Y121.290 E21.08305
G1 X197.120 Y122.540 E21.20185
G1 X196.510 Y123.680 E21.31942
G1 X195.680 Y124.680 E21.43759
G1 X194.680 Y125.510 E21.55576
G1 X193.540 Y126.120 E21.67333
G1 X192.290 Y126.500 E21.79212
G1 X191.000 Y126.620 E21.90993
G1 X179.000 Y126.620 E23.00108
G1 X177.710 Y126.500 E23.11889
G1 X176.460 Y126.120 E23.23769
G1 X175.320 Y125.510 E23.35525
G1 X174.320 Y124.680 E23.47342
G1 X173.490 Y123.680 E23.59159
G1 X172.880 Y122.540 E23.70916
G1 X172.500 Y121.290 E23.82796
G1 X172.380 Y120.000 E23.94577
G1 X172.380 Y80.000 E27.58295
G1 X172.500 Y78.710 E27.70075
G1 X172.853 Y77.550 E27.81103
G1 F1800.000 E26.81103
G92 E0
G1 X180.600 Y81.600 F7800.000
G1 E1.00000 F1800.000
G1 X189.400 Y81.600 E1.80022 F540.000
G1 X189.400 Y118.400 E5.14647
G1 X180.600 Y118.400 E5.94669
G1 X180.600 Y81.694 E9.28442
G1 X179.975 Y80.975 F7800.000
G1 X190.025 Y80.975 E10.19828 F540.000
G1 X190.025 Y119.025 E13.65817
G1 X179.975 Y119.025 E14.57203
G1 X179.975 Y81.069 E18.02340
G1 X179.350 Y80.350 F7800.000
G1 X190.650 Y80.350 E19.05090 F378.000
G1 X190.650 Y119.650 E22.62444
G1 X179.350 Y119.650 E23.65194
G1 X179.350 Y80.444 E27.21695
G1 X179.891 Y80.662 F7800.000
G1 X188.979 Y82.084 F7800.000
G1 X188.916 Y82.021 E27.22516 F1080.000
G1 X188.022 Y82.021 E27.30733
G1 X188.979 Y82.978 E27.43176
G1 X188.979 Y83.872 E27.51393
G1 X187.128 Y82.021 E27.75456
G1 X186.235 Y82.021 E27.83673
G1 X188.979 Y84.765 E28.19357
G1 X188.979 Y85.659 E28.27574
G1 X185.341 Y82.021 E28.74878
G1 X184.447 Y82.021 E28.83096
G1 X188.979 Y86.553 E29.42021
G1 X188.979 Y87.446 E29.50238
G1 X183.554 Y82.021 E30.20784
G1 X182.660 Y82.021 E30.29002
G1 X188.979 Y88.340 E31.11169
G1 X188.979 Y89.234 E31.19386
G1 X181.766 Y82.021 E32.13174
G1 X181.021 Y82.170 E32.20161
G1 X188.979 Y90.127 E33.23639
G1 X188.979 Y91.021 E33.31856
G1 X181.021 Y83.063 E34.35335
G1 X181.021 Y83.957 E34.43552
G1 X188.979 Y91.915 E35.47030
G1 X188.979 Y92.808 E35.55248
G1 X181.021 Y84.851 E36.58726
G1 X181.021 Y85.744 E36.66943
G1 X188.979 Y93.702 E37.70422
G1 X188.979 Y94.595 E37.78639
G1 X181.021 Y86.638 E38.82117
G1 X181.021 Y87.532 E38.90335
G1 X188.979 Y95.489 E39.93813
G1 X188.979 Y96.383 E40.02030
G1 X181.021 Y88.425 E41.05509
G1 X181.021 Y89.319 E41.13726
G1 X188.979 Y97.276 E42.17205
G1 X188.979 Y98.170 E42.25422
G1 X181.021 Y90.212 E43.28900
G1 X181.021 Y91.106 E43.37117
G1 X188.979 Y99.064 E44.40596
G1 X188.979 Y99.957 E44.48813
G1 X181.021 Y92.000 E45.52292
G1 X181.021 Y92.893 E45.60509
G1 X188.979 Y100.851 E46.63987
G1 X188.979 Y101.745 E46.72204
G1 X181.021 Y93.787 E47.75683
G1 X181.021 Y94.681 E47.83900
G1 X188.979 Y102.638 E48.87379
G1 X188.979 Y103.532 E48.95596
G1 X181.021 Y95.574 E49.99074
G1 X181.021 Y96.468 E50.07291
G1 X188.979 Y104.426 E51.10770
G1 X188.979 Y105.319 E51.18987
G1 X181.021 Y97.362 E52.22466
G1 X181.021 Y98.255 E52.30683
G1 X188.979 Y106.213 E53.34161
G1 X188.979 Y107.107 E53.42378
G1 X181.021 Y99.149 E54.45857
G1 X181.021 Y100.043 E54.54074
G1 X188.979 Y108.000 E55.57553
G1 X188.979 Y108.894 E55.65770
G1 X181.021 Y100.936 E56.69248
G1 X181.021 Y101.830 E56.77465
G1 X188.979 Y109.787 E57.80944
G1 X188.979 Y110.681 E57.89161
G1 X181.021 Y102.724 E58.92640
G1 X181.021 Y103.617 E59.00857
G1 X188.979 Y111.575 E60.04335
G1 X188.979 Y112.468 E60.12553
G1 X181.021 Y104.511 E61.16031
G1 X181.021 Y105.405 E61.24248
G1 X188.979 Y113.362 E62.27727
G1 X188.979 Y114.256 E62.35944
G1 X181.021 Y106.298 E63.39422
G1 X181.021 Y107.192 E63.47640
G1 X188.979 Y115.149 E64.51118
G1 X188.979 Y116.043 E64.59335
G1 X181.021 Y108.085 E65.62814
G1 X181.021 Y108.979 E65.71031
G1 X188.979 Y116.937 E66.74509
G1 X188.979 Y117.830 E66.82727
G1 X181.021 Y109.873 E67.86205
G1 X181.021 Y110.766 E67.94422
G1 X188.234 Y117.979 E68.88210
G1 X187.340 Y117.979 E68.96428
G1 X181.021 Y111.660 E69.78595
G1 X181.021 Y112.554 E69.86812
G1 X186.446 Y117.979 E70.57359
G1 X185.553 Y117.979 E70.65576
G1 X181.021 Y113.447 E71.24501
G1 X181.021 Y114.341 E71.32719
G1 X184.659 Y117.979 E71.80024
G1 X183.765 Y117.979 E71.88241
G1 X181.021 Y115.235 E72.23925
G1 X181.021 Y116.128 E72.32142
G1 X182.872 Y117.979 E72.56205
G1 X181.978 Y117.979 E72.64422
G1 X181.021 Y117.022 E72.76865
G1 X181.021 Y117.916 E72.85082
G1 X181.084 Y117.979 E72.85904
M106 S255
M104 S220 ; set temperature
G1 F1800.000 E71.85904
G92 E0
G1 Z0.600 F7800.000
G1 X179.875 Y119.125 F7800.000
G1 E1.00000 F1800.000
G1 X179.875 Y80.875 E2.39147 F1689.900
G1 X190.125 Y80.875 E2.76435
G1 X190.125 Y119.125 E4.15582
G1 X179.928 Y119.125 E4.52678
G1 X179.525 Y119.475 F7800.000
G1 X179.525 Y80.525 E5.94372 F1689.900
G1 X190.475 Y80.525 E6.34206
G1 X190.475 Y119.475 E7.75899
G1 X179.577 Y119.475 E8.15542
G1 X179.175 Y119.825 F7800.000
G1 X179.175 Y80.175 E9.59782 F1182.930
G1 X190.825 Y80.175 E10.02163
G1 X190.825 Y119.825 E11.46403
G1 X179.227 Y119.825 E11.88593
G1 X179.350 Y119.522 F7800.000
G1 X189.883 Y118.844 F7800.000
G1 X189.844 Y118.883 E11.88811 F3379.799
G1 X189.299 Y118.883 E11.90998
G1 X189.883 Y118.299 E11.94309
G1 X189.883 Y117.753 E11.96495
G1 X188.753 Y118.883 E12.02898
G1 X188.208 Y118.883 E12.05085
G1 X189.883 Y117.208 E12.14580
G1 X189.883 Y116.662 E12.16767
G1 X187.662 Y118.883 E12.29355
G1 X187.117 Y118.883 E12.31541
G1 X189.883 Y116.117 E12.47221
G1 X189.883 Y115.571 E12.49408
G1 X186.571 Y118.883 E12.68180
G1 X186.026 Y118.883 E12.70367
G1 X189.883 Y115.026 E12.92231
G1 X189.883 Y114.481 E12.94418
G1 X185.481 Y118.883 E13.19374
G1 X184.935 Y118.883 E13.21561
G1 X189.883 Y113.935 E13.49610
G1 X189.883 Y113.390 E13.51796
G1 X184.390 Y118.883 E13.82938
G1 X183.844 Y118.883 E13.85124
G1 X189.883 Y112.844 E14.19358
G1 X189.883 Y112.299 E14.21544
G1 X183.299 Y118.883 E14.58870
G1 X182.753 Y118.883 E14.61057
G1 X189.883 Y111.753 E15.01475
G1 X189.883 Y111.208 E15.03661
G1 X182.208 Y118.883 E15.47172
G1 X181.662 Y118.883 E15.49358
G1 X189.883 Y110.662 E15.95961
G1 X189.883 Y110.117 E15.98147
G1 X181.117 Y118.883 E16.47842
G1 X180.572 Y118.883 E16.50029
G1 X189.883 Y109.572 E17.02816
G1 X189.883 Y109.026 E17.05002
G1 X180.117 Y118.792 E17.60365
G1 X180.117 Y118.246 E17.62552
G1 X189.883 Y108.481 E18.17914
G1 X189.883 Y107.935 E18.20101
G1 X180.117 Y117.701 E18.75463
G1 X180.117 Y117.155 E18.77650
G1 X189.883 Y107.390 E19.33012
G1 X189.883 Y106.844 E19.35199
G1 X180.117 Y116.610 E19.90562
G1 X180.117 Y116.064 E19.92748
G1 X189.883 Y106.299 E20.48111
G1 X189.883 Y105.753 E20.50297
G1 X180.117 Y115.519 E21.05660
G1 X180.117 Y114.973 E21.07846
G1 X189.883 Y105.208 E21.63209
G1 X189.883 Y104.663 E21.65396
G1 X180.117 Y114.428 E22.20758
G1 X180.117 Y113.883 E22.22945
G1 X189.883 Y104.117 E22.78307
G1 X189.883 Y103.572 E22.80494
G1 X180.117 Y113.337 E23.35856
G1 X180.117 Y112.792 E23.38043
G1 X189.883 Y103.026 E23.93406
G1 X189.883 Y102.481 E23.95592
G1 X180.117 Y112.246 E24.50955
G1 X180.117 Y111.701 E24.53141
G1 X189.883 Y101.935 E25.08504
G1 X189.883 Y101.390 E25.10690
G1 X180.117 Y111.155 E25.66053
G1 X180.117 Y110.610 E25.68240
G1 X189.883 Y100.844 E26.23602
G1 X189.883 Y100.299 E26.25789
G1 X180.117 Y110.064 E26.81151
G1 X180.117 Y109.519 E26.83338
G1 X189.883 Y99.754 E27.38700
G1 X189.883 Y99.208 E27.40887
G1 X180.117 Y108.974 E27.96250
G1 X180.117 Y108.428 E27.98436
G1 X189.883 Y98.663 E28.53799
G1 X189.883 Y98.117 E28.55985
G1 X180.117 Y107.883 E29.11348
G1 X180.117 Y107.337 E29.13534
G1 X189.883 Y97.572 E29.68897
G1 X189.883 Y97.026 E29.71084
G1 X180.117 Y106.792 E30.26446
G1 X180.117 Y106.246 E30.28633
G1 X189.883 Y96.481 E30.83995
G1 X189.883 Y95.935 E30.86182
G1 X180.117 Y105.701 E31.41544
G1 X180.117 Y105.155 E31.43731
G1 X189.883 Y95.390 E31.99094
G1 X189.883 Y94.845 E32.01280
G1 X180.117 Y104.610 E32.56643
G1 X180.117 Y104.065 E32.58829
G1 X189.883 Y94.299 E33.14192
G1 X189.883 Y93.754 E33.16378
G1 X180.117 Y103.519 E33.71741
G1 X180.117 Y102.974 E33.73928
G1 X189.883 Y93.208 E34.29290
G1 X189.883 Y92.663 E34.31477
G1 X180.117 Y102.428 E34.86839
G1 X180.117 Y101.883 E34.89026
G1 X189.883 Y92.117 E35.44388
G1 X189.883 Y91.572 E35.46575
G1 X180.117 Y101.337 E36.01938
G1 X180.117 Y100.792 E36.04124
G1 X189.883 Y91.026 E36.59487
G1 X189.883 Y90.481 E36.61673
G1 X180.117 Y100.246 E37.17036
G1 X180.117 Y99.701 E37.19222
G1 X189.883 Y89.936 E37.74585
G1 X189.883 Y89.390 E37.76772
G1 X180.117 Y99.156 E38.32134
G1 X180.117 Y98.610 E38.34321
G1 X189.883 Y88.845 E38.89683
G1 X189.883 Y88.299 E38.91870
G1 X180.117 Y98.065 E39.47232
G1 X180.117 Y97.519 E39.49419
G1 X189.883 Y87.754 E40.04782
G1 X189.883 Y87.208 E40.06968
G1 X180.117 Y96.974 E40.62331
G1 X180.117 Y96.428 E40.64517
G1 X189.883 Y86.663 E41.19880
G1 X189.883 Y86.117 E41.22066
G1 X180.117 Y95.883 E41.77429
G1 X180.117 Y95.337 E41.79616
G1 X189.883 Y85.572 E42.34978
G1 X189.883 Y85.027 E42.37165
G1 X180.117 Y94.792 E42.92527
G1 X180.117 Y94.247 E42.94714
G1 X189.883 Y84.481 E43.50076
G1 X189.883 Y83.936 E43.52263
G1 X180.117 Y93.701 E44.07626
G1 X180.117 Y93.156 E44.09812
G1 X189.883 Y83.390 E44.65175
G1 X189.883 Y82.845 E44.67361
G1 X180.117 Y92.610 E45.22724
G1 X180.117 Y92.065 E45.24910
G1 X189.883 Y82.299 E45.80273
G1 X189.883 Y81.754 E45.82460
G1 X180.117 Y91.519 E46.37822
G1 X180.117 Y90.974 E46.40009
G1 X189.883 Y81.208 E46.95371
G1 X189.428 Y81.117 E46.97229
G1 X180.117 Y90.428 E47.50016
G1 X180.117 Y89.883 E47.52202
G1 X188.883 Y81.117 E48.01897
G1 X188.338 Y81.117 E48.04084
G1 X180.117 Y89.338 E48.50686
G1 X180.117 Y88.792 E48.52873
G1 X187.792 Y81.117 E48.96383
G1 X187.247 Y81.117 E48.98570
G1 X180.117 Y88.247 E49.38988
G1 X180.117 Y87.701 E49.41174
G1 X186.701 Y81.117 E49.78500
G1 X186.156 Y81.117 E49.80686
G1 X180.117 Y87.156 E50.14920
G1 X180.117 Y86.610 E50.17106
G1 X185.610 Y81.117 E50.48248
G1 X185.065 Y81.117 E50.50434
G1 X180.117 Y86.065 E50.78483
G1 X180.117 Y85.519 E50.80670
G1 X184.519 Y81.117 E51.05626
G1 X183.974 Y81.117 E51.07813
G1 X180.117 Y84.974 E51.29677
G1 X180.117 Y84.429 E51.31864
G1 X183.429 Y81.117 E51.50636
G1 X182.883 Y81.117 E51.52823
G1 X180.117 Y83.883 E51.68502
G1 X180.117 Y83.338 E51.70689
G1 X182.338 Y81.117 E51.83277
G1 X181.792 Y81.117 E51.85463
G1 X180.117 Y82.792 E51.94959
G1 X180.117 Y82.247 E51.97145
G1 X181.247 Y81.117 E52.03548
G1 X180.701 Y81.117 E52.05735
G1 X180.117 Y81.701 E52.09046
G1 X180.117 Y81.156 E52.11232
G1 X180.156 Y81.117 E52.11451
G1 F1800.000 E51.11451
G92 E0
G1 Z0.850 F7800.000
G1 X179.875 Y80.875 F7800.000
G1 E1.00000 F1800.000
G1 X190.125 Y80.875 E1.37288 F1689.900
G1 X190.125 Y119.125 E2.76435
G1 X179.875 Y119.125 E3.13722
G1 X179.875 Y80.927 E4.52678
G1 X179.525 Y80.525 F7800.000
G1 X190.475 Y80.525 E4.92512 F1689.900
G1 X190.475 Y119.475 E6.34206
G1 X179.525 Y119.475 E6.74040
G1 X179.525 Y80.578 E8.15542
G1 X179.175 Y80.175 F7800.000
G1 X190.825 Y80.175 E8.57923 F1182.930
G1 X190.825 Y119.825 E10.02163
G1 X179.175 Y119.825 E10.44544
G1 X179.175 Y80.228 E11.88593
G1 X179.478 Y80.350 F7800.000
G1 X189.883 Y81.156 F7800.000
G1 X189.844 Y81.117 E11.88811 F3379.799
G1 X189.299 Y81.117 E11.90998
G1 X189.883 Y81.701 E11.94309
G1 X189.883 Y82.247 E11.96495
G1 X188.753 Y81.117 E12.02898
G1 X188.208 Y81.117 E12.05085
G1 X189.883 Y82.792 E12.14580
G1 X189.883 Y83.338 E12.16767
G1 X187.662 Y81.117 E12.29354
G1 X187.117 Y81.117 E12.31541
G1 X189.883 Y83.883 E12.47221
G1 X189.883 Y84.429 E12.49407
G1 X186.571 Y81.117 E12.68179
G1 X186.026 Y81.117 E12.70366
G1 X189.883 Y84.974 E12.92230
G1 X189.883 Y85.519 E12.94417
G1 X185.481 Y81.117 E13.19374
G1 X184.935 Y81.117 E13.21560
G1 X189.883 Y86.065 E13.49609
G1 X189.883 Y86.610 E13.51796
G1 X184.390 Y81.117 E13.82937
G1 X183.844 Y81.117 E13.85124
G1 X189.883 Y87.156 E14.19357
G1 X189.883 Y87.701 E14.21544
G1 X183.299 Y81.117 E14.58869
G1 X182.753 Y81.117 E14.61056
G1 X189.883 Y88.247 E15.01474
G1 X189.883 Y88.792 E15.03660
G1 X182.208 Y81.117 E15.47171
G1 X181.662 Y81.117 E15.49357
G1 X189.883 Y89.338 E15.95960
G1 X189.883 Y89.883 E15.98146
G1 X181.117 Y81.117 E16.47841
G1 X180.572 Y81.117 E16.50028
G1 X189.883 Y90.428 E17.02815
G1 X189.883 Y90.974 E17.05001
G1 X180.117 Y81.208 E17.60364
G1 X180.117 Y81.754 E17.62550
G1 X189.883 Y91.519 E18.17913
G1 X189.883 Y92.065 E18.20099
G1 X180.117 Y82.299 E18.75462
G1 X180.117 Y82.845 E18.77649
G1 X189.883 Y92.610 E19.33011
G1 X189.883 Y93.156 E19.35198
G1 X180.117 Y83.390 E19.90560
G1 X180.117 Y83.936 E19.92747
G1 X189.883 Y93.701 E20.48109
G1 X189.883 Y94.247 E20.50296
G1 X180.117 Y84.481 E21.05659
G1 X180.117 Y85.027 E21.07845
G1 X189.883 Y94.792 E21.63208
G1 X189.883 Y95.337 E21.65394
G1 X180.117 Y85.572 E22.20757
G1 X180.117 Y86.117 E22.22943
G1 X189.883 Y95.883 E22.78306
G1 X189.883 Y96.428 E22.80493
G1 X180.117 Y86.663 E23.35855
G1 X180.117 Y87.208 E23.38042
G1 X189.883 Y96.974 E23.93404
G1 X189.883 Y97.519 E23.95591
G1 X180.117 Y87.754 E24.50953
G1 X180.117 Y88.299 E24.53140
G1 X189.883 Y98.065 E25.08503
G1 X189.883 Y98.610 E25.10689
G1 X180.117 Y88.845 E25.66052
G1 X180.117 Y89.390 E25.68238
G1 X189.883 Y99.156 E26.23601
G1 X189.883 Y99.701 E26.25787
G1 X180.117 Y89.936 E26.81150
G1 X180.117 Y90.481 E26.83337
G1 X189.883 Y100.246 E27.38699
G1 X189.883 Y100.792 E27.40886
G1 X180.117 Y91.026 E27.96248
G1 X180.117 Y91.572 E27.98435
G1 X189.883 Y101.337 E28.53797
G1 X189.883 Y101.883 E28.55984
G1 X180.117 Y92.117 E29.11347
G1 X180.117 Y92.663 E29.13533
G1 X189.883 Y102.428 E29.68896
G1 X189.883 Y102.974 E29.71082
G1 X180.117 Y93.208 E30.26445
G1 X180.117 Y93.754 E30.28631
G1 X189.883 Y103.519 E30.83994
G1 X189.883 Y104.065 E30.86181
G1 X180.117 Y94.299 E31.41543
G1 X180.117 Y94.845 E31.43730
G1 X189.883 Y104.610 E31.99092
G1 X189.883 Y105.155 E32.01279
G1 X180.117 Y95.390 E32.56641
