; generated by Slic3r 1.0.0RC1 on 2013-12-30 at 17:23:01

; layer_height = 0.25
; perimeters = 3
; top_solid_layers = 3
; bottom_solid_layers = 3
; fill_density = 0.4
; perimeter_speed = 30
; infill_speed = 60
; travel_speed = 130
; nozzle_diameter = 0.35
; filament_diameter = 1.75
; extrusion_multiplier = 1
; perimeters extrusion width = 0.35mm
; infill extrusion width = 0.39mm
; solid infill extrusion width = 0.39mm
; top infill extrusion width = 0.39mm
; first layer extrusion width = 0.70mm

G21 ; set units to millimeters
M107
M104 S220 ; set temperature
G28 ; home all axes
G1 Z5 F5000 ; lift nozzle

M109 S220 ; wait for temperature to be reached
G90 ; use absolute coordinates
G92 E0
M82 ; use absolute distances for extrusion
G1 F1800.000 E-1.00000
G92 E0
G1 Z0.350 F7800.000
G1 X152.890 Y28.590 F7800.000
G1 E1.00000 F1800.000
G1 X153.300 Y27.230 E1.12916 F540.000
G1 X153.970 Y25.970 E1.25892
G1 X154.870 Y24.870 E1.38816
G1 X155.970 Y23.970 E1.51739
G1 X157.230 Y23.300 E1.64716
G1 X158.590 Y22.890 E1.77632
G1 X160.000 Y22.750 E1.90516
G1 X200.000 Y22.750 E5.54234
G1 X201.410 Y22.890 E5.67118
G1 X202.770 Y23.300 E5.80034
G1 X204.030 Y23.970 E5.93011
G1 X205.130 Y24.870 E6.05934
G1 X206.030 Y25.970 E6.18858
G1 X206.700 Y27.230 E6.31834
G1 X207.110 Y28.590 E6.44750
G1 X207.250 Y30.000 E6.57634
G1 X207.250 Y70.000 E10.21353
G1 X207.110 Y71.410 E10.34237
G1 X206.700 Y72.770 E10.47153
G1 X206.030 Y74.030 E10.60129
G1 X205.130 Y75.130 E10.73053
G1 X204.030 Y76.030 E10.85976
G1 X202.770 Y76.700 E10.98952
G1 X201.410 Y77.110 E11.11868
G1 X200.000 Y77.250 E11.24753
G1 X160.000 Y77.250 E14.88471
G1 X158.590 Y77.110 E15.01355
G1 X157.230 Y76.700 E15.14271
G1 X155.970 Y76.030 E15.27247
G1 X154.870 Y75.130 E15.40171
G1 X153.970 Y74.030 E15.53094
G1 X153.300 Y72.770 E15.66071
G1 X152.890 Y71.410 E15.78987
G1 X152.750 Y70.000 E15.91871
G1 X152.750 Y30.000 E19.55589
G1 X152.881 Y28.683 E19.67621
G1 X153.500 Y28.710 F7800.000
G1 X153.880 Y27.460 E19.79501 F540.000
G1 X154.490 Y26.320 E19.91257
G1 X155.320 Y25.320 E20.03074
G1 X156.320 Y24.490 E20.14891
G1 X157.460 Y23.880 E20.26648
G1 X158.710 Y23.500 E20.38528
G1 X160.000 Y23.380 E20.50308
G1 X200.000 Y23.380 E24.14027
G1 X201.290 Y23.500 E24.25807
G1 X202.540 Y23.880 E24.37687
G1 X203.680 Y24.490 E24.49444
G1 X204.680 Y25.320 E24.61261
G1 X205.510 Y26.320 E24.73078
G1 X206.120 Y27.460 E24.84834
G1 X206.500 Y28.710 E24.96714
G1 X206.620 Y30.000 E25.08495
G1 X206.620 Y70.000 E28.72213
G1 X206.500 Y71.290 E28.83994
G1 X206.120 Y72.540 E28.95874
G1 X205.510 Y73.680 E29.07630
G1 X204.680 Y74.680 E29.19447
G1 X203.680 Y75.510 E29.31264
G1 X202.540 Y76.120 E29.43021
G1 X201.290 Y76.500 E29.54901
G1 X200.000 Y76.620 E29.66681
G1 X160.000 Y76.620 E33.30400
G1 X158.710 Y76.500 E33.42180
G1 X157.460 Y76.120 E33.54060
G1 X156.320 Y75.510 E33.65817
G1 X155.320 Y74.680 E33.77634
G1 X154.490 Y73.680 E33.89451
G1 X153.880 Y72.540 E34.01207
G1 X153.500 Y71.290 E34.13087
G1 X153.380 Y70.000 E34.24868
G1 X153.380 Y30.000 E37.88586
G1 X153.491 Y28.803 E37.99514
G1 F1800.000 E36.99514
G92 E0
G1 X161.600 Y31.600 F7800.000
G1 E1.00000 F1800.000
G1 X198.400 Y31.600 E4.34625 F540.000
G1 X198.400 Y68.400 E7.69250
G1 X161.600 Y68.400 E11.03875
G1 X161.600 Y31.694 E14.37647
G1 X160.975 Y30.975 F7800.000
G1 X199.025 Y30.975 E17.83636 F540.000
G1 X199.025 Y69.025 E21.29625
G1 X160.975 Y69.025 E24.75614
G1 X160.975 Y31.069 E28.20751
G1 X160.350 Y30.350 F7800.000
G1 X199.650 Y30.350 E31.78104 F378.000
G1 X199.650 Y69.650 E35.35458
G1 X160.350 Y69.650 E38.92811
G1 X160.350 Y30.444 E42.49312
G1 X160.891 Y30.662 F7800.000
G1 X197.979 Y32.084 F7800.000
G1 X197.916 Y32.021 E42.50120 F1080.000
G1 X197.030 Y32.021 E42.58202
G1 X197.979 Y32.970 E42.70439
G1 X197.979 Y33.857 E42.78522
G1 X196.143 Y32.021 E43.02189
G1 X195.257 Y32.021 E43.10272
G1 X197.979 Y34.743 E43.45369
G1 X197.979 Y35.629 E43.53452
G1 X194.371 Y32.021 E43.99979
G1 X193.484 Y32.021 E44.08061
G1 X197.979 Y36.516 E44.66019
G1 X197.979 Y37.402 E44.74101
G1 X192.598 Y32.021 E45.43489
G1 X191.712 Y32.021 E45.51571
G1 X197.979 Y38.288 E46.32389
G1 X197.979 Y39.174 E46.40471
G1 X190.826 Y32.021 E47.32718
G1 X189.939 Y32.021 E47.40801
G1 X197.979 Y40.061 E48.44478
G1 X197.979 Y40.947 E48.52560
G1 X189.053 Y32.021 E49.67668
G1 X188.167 Y32.021 E49.75750
G1 X197.979 Y41.833 E51.02288
G1 X197.979 Y42.719 E51.10370
G1 X187.281 Y32.021 E52.48338
G1 X186.394 Y32.021 E52.56420
G1 X197.979 Y43.606 E54.05817
G1 X197.979 Y44.492 E54.13900
G1 X185.508 Y32.021 E55.74727
G1 X184.622 Y32.021 E55.82809
G1 X197.979 Y45.378 E57.55067
G1 X197.979 Y46.265 E57.63149
G1 X183.735 Y32.021 E59.46836
G1 X182.849 Y32.021 E59.54919
G1 X197.979 Y47.151 E61.50036
G1 X197.979 Y48.037 E61.58118
G1 X181.963 Y32.021 E63.64666
G1 X181.077 Y32.021 E63.72748
G1 X197.979 Y48.923 E65.90726
G1 X197.979 Y49.810 E65.98808
G1 X180.190 Y32.021 E68.28215
G1 X179.304 Y32.021 E68.36297
G1 X197.979 Y50.696 E70.77135
G1 X197.979 Y51.582 E70.85217
G1 X178.418 Y32.021 E73.37484
G1 X177.531 Y32.021 E73.45567
G1 X197.979 Y52.469 E76.09264
G1 X197.979 Y53.355 E76.17346
G1 X176.645 Y32.021 E78.92474
G1 X175.759 Y32.021 E79.00556
G1 X197.979 Y54.241 E81.87113
G1 X197.979 Y55.127 E81.95195
G1 X174.873 Y32.021 E84.93183
G1 X173.986 Y32.021 E85.01265
G1 X197.979 Y56.014 E88.10682
G1 X197.979 Y56.900 E88.18765
G1 X173.100 Y32.021 E91.39612
G1 X172.214 Y32.021 E91.47694
G1 X197.979 Y57.786 E94.79971
G1 X197.979 Y58.673 E94.88054
G1 X171.327 Y32.021 E98.31761
G1 X170.441 Y32.021 E98.39843
G1 X197.979 Y59.559 E101.94980
G1 X197.979 Y60.445 E102.03063
G1 X169.555 Y32.021 E105.69630
G1 X168.669 Y32.021 E105.77712
G1 X197.979 Y61.331 E109.55709
G1 X197.979 Y62.218 E109.63792
G1 X167.782 Y32.021 E113.53219
G1 X166.896 Y32.021 E113.61301
G1 X197.979 Y63.104 E117.62158
G1 X197.979 Y63.990 E117.70241
G1 X166.010 Y32.021 E121.82528
G1 X165.123 Y32.021 E121.90610
G1 X197.979 Y64.877 E126.14327
G1 X197.979 Y65.763 E126.22409
G1 X164.237 Y32.021 E130.57557
G1 X163.351 Y32.021 E130.65639
G1 X197.979 Y66.649 E135.12216
G1 X197.979 Y67.535 E135.20298
G1 X162.465 Y32.021 E139.78305
G1 X162.021 Y32.465 E139.84020
G1 X197.535 Y67.979 E144.42028
G1 X196.649 Y67.979 E144.50110
G1 X162.021 Y33.351 E148.96688
G1 X162.021 Y34.237 E149.04770
G1 X195.763 Y67.979 E153.39918
G1 X194.877 Y67.979 E153.48000
G1 X162.021 Y35.123 E157.71718
G1 X162.021 Y36.010 E157.79800
G1 X193.990 Y67.979 E161.92088
G1 X193.104 Y67.979 E162.00170
G1 X162.021 Y36.896 E166.01028
G1 X162.021 Y37.782 E166.09110
G1 X192.218 Y67.979 E169.98538
G1 X191.331 Y67.979 E170.06620
G1 X162.021 Y38.669 E173.84618
G1 X162.021 Y39.555 E173.92700
G1 X190.445 Y67.979 E177.59268
G1 X189.559 Y67.979 E177.67350
G1 X162.021 Y40.441 E181.22488
G1 X162.021 Y41.327 E181.30570
G1 X188.673 Y67.979 E184.74278
G1 X187.786 Y67.979 E184.82360
G1 X162.021 Y42.214 E188.14638
G1 X162.021 Y43.100 E188.22720
G1 X186.900 Y67.979 E191.43568
G1 X186.014 Y67.979 E191.51650
G1 X162.021 Y43.986 E194.61068
G1 X162.021 Y44.873 E194.69150
G1 X185.127 Y67.979 E197.67138
G1 X184.241 Y67.979 E197.75221
G1 X162.021 Y45.759 E200.61778
G1 X162.021 Y46.645 E200.69861
G1 X183.355 Y67.979 E203.44989
G1 X182.469 Y67.979 E203.53071
G1 X162.021 Y47.531 E206.16769
G1 X162.021 Y48.418 E206.24851
G1 X181.582 Y67.979 E208.77119
G1 X180.696 Y67.979 E208.85201
G1 X162.021 Y49.304 E211.26039
G1 X162.021 Y50.190 E211.34121
G1 X179.810 Y67.979 E213.63529
G1 X178.923 Y67.979 E213.71612
G1 X162.021 Y51.077 E215.89590
G1 X162.021 Y51.963 E215.97672
G1 X178.037 Y67.979 E218.04220
G1 X177.151 Y67.979 E218.12302
G1 X162.021 Y52.849 E220.07420
G1 X162.021 Y53.735 E220.15502
G1 X176.265 Y67.979 E221.99190
G1 X175.378 Y67.979 E222.07272
G1 X162.021 Y54.622 E223.79530
G1 X162.021 Y55.508 E223.87613
G1 X174.492 Y67.979 E225.48441
G1 X173.606 Y67.979 E225.56523
G1 X162.021 Y56.394 E227.05921
G1 X162.021 Y57.280 E227.14003
G1 X172.720 Y67.979 E228.51971
G1 X171.833 Y67.979 E228.60053
G1 X162.021 Y58.167 E229.86592
G1 X162.021 Y59.053 E229.94674
G1 X170.947 Y67.979 E231.09782
G1 X170.061 Y67.979 E231.17864
G1 X162.021 Y59.939 E232.21542
G1 X162.021 Y60.826 E232.29624
G1 X169.174 Y67.979 E233.21873
G1 X168.288 Y67.979 E233.29955
G1 X162.021 Y61.712 E234.10773
G1 X162.021 Y62.598 E234.18855
G1 X167.402 Y67.979 E234.88243
G1 X166.516 Y67.979 E234.96326
G1 X162.021 Y63.484 E235.54284
G1 X162.021 Y64.371 E235.62366
G1 X165.629 Y67.979 E236.08894
G1 X164.743 Y67.979 E236.16976
G1 X162.021 Y65.257 E236.52075
G1 X162.021 Y66.143 E236.60157
G1 X163.857 Y67.979 E236.83825
G1 X162.970 Y67.979 E236.91907
G1 X162.021 Y67.030 E237.04145
G1 X162.021 Y67.916 E237.12228
G1 X162.084 Y67.979 E237.13036
M104 S220 ; set temperature
G1 F1800.000 E236.13036
G92 E0
G1 Z0.600 F7800.000
G1 X160.875 Y69.125 F7800.000
G1 E1.00000 F1800.000
G1 X160.875 Y30.875 E2.39147 F1800
G1 X199.125 Y30.875 E3.78294
G1 X199.125 Y69.125 E5.17441
G1 X160.928 Y69.125 E6.56397
G1 X160.525 Y69.475 F7800.000
G1 X160.525 Y30.525 E7.98090 F1800
G1 X199.475 Y30.525 E9.39783
G1 X199.475 Y69.475 E10.81477
G1 X160.577 Y69.475 E12.22979
G1 X160.175 Y69.825 F7800.000
G1 X160.175 Y30.175 E13.67219 F1260
G1 X199.825 Y30.175 E15.11459
G1 X199.825 Y69.825 E16.55699
G1 X160.227 Y69.825 E17.99748
G1 X160.350 Y69.522 F7800.000
G1 X161.117 Y31.156 F7800.000
G1 X161.156 Y31.117 E17.99967 F3600
G1 X161.703 Y31.117 E18.02164
G1 X161.117 Y31.703 E18.05491
G1 X161.117 Y32.249 E18.07688
G1 X162.249 Y31.117 E18.14122
G1 X162.796 Y31.117 E18.16320
G1 X161.117 Y32.796 E18.25861
G1 X161.117 Y33.343 E18.28058
G1 X163.343 Y31.117 E18.40707
G1 X163.890 Y31.117 E18.42904
G1 X161.117 Y33.890 E18.58660
G1 X161.117 Y34.436 E18.60857
G1 X164.436 Y31.117 E18.79720
G1 X164.983 Y31.117 E18.81917
G1 X161.117 Y34.983 E19.03888
G1 X161.117 Y35.530 E19.06085
G1 X165.530 Y31.117 E19.31163
G1 X166.077 Y31.117 E19.33360
G1 X161.117 Y36.077 E19.61545
G1 X161.117 Y36.624 E19.63742
G1 X166.624 Y31.117 E19.95034
G1 X167.170 Y31.117 E19.97231
G1 X161.117 Y37.170 E20.31631
G1 X161.117 Y37.717 E20.33828
G1 X167.717 Y31.117 E20.71334
G1 X168.264 Y31.117 E20.73532
G1 X161.117 Y38.264 E21.14146
G1 X161.117 Y38.811 E21.16343
G1 X168.811 Y31.117 E21.60064
G1 X169.357 Y31.117 E21.62261
G1 X161.117 Y39.357 E22.09090
G1 X161.117 Y39.904 E22.11287
G1 X169.904 Y31.117 E22.61222
G1 X170.451 Y31.117 E22.63420
G1 X161.117 Y40.451 E23.16463
G1 X161.117 Y40.998 E23.18660
G1 X170.998 Y31.117 E23.74810
G1 X171.544 Y31.117 E23.77007
G1 X161.117 Y41.544 E24.36265
G1 X161.117 Y42.091 E24.38462
G1 X172.091 Y31.117 E25.00827
G1 X172.638 Y31.117 E25.03024
G1 X161.117 Y42.638 E25.68496
G1 X161.117 Y43.185 E25.70693
G1 X173.185 Y31.117 E26.39272
G1 X173.732 Y31.117 E26.41469
G1 X161.117 Y43.732 E27.13156
G1 X161.117 Y44.278 E27.15353
G1 X174.278 Y31.117 E27.90147
G1 X174.825 Y31.117 E27.92344
G1 X161.117 Y44.825 E28.70245
G1 X161.117 Y45.372 E28.72442
G1 X175.372 Y31.117 E29.53451
G1 X175.919 Y31.117 E29.55648
G1 X161.117 Y45.919 E30.39763
G1 X161.117 Y46.465 E30.41961
G1 X176.465 Y31.117 E31.29183
G1 X177.012 Y31.117 E31.31381
G1 X161.117 Y47.012 E32.21711
G1 X161.117 Y47.559 E32.23908
G1 X177.559 Y31.117 E33.17345
G1 X178.106 Y31.117 E33.19542
G1 X161.117 Y48.106 E34.16087
G1 X161.117 Y48.652 E34.18284
G1 X178.652 Y31.117 E35.17936
G1 X179.199 Y31.117 E35.20133
G1 X161.117 Y49.199 E36.22892
G1 X161.117 Y49.746 E36.25089
G1 X179.746 Y31.117 E37.30956
G1 X180.293 Y31.117 E37.33153
G1 X161.117 Y50.293 E38.42127
G1 X161.117 Y50.839 E38.44324
G1 X180.839 Y31.117 E39.56405
G1 X181.386 Y31.117 E39.58602
G1 X161.117 Y51.386 E40.73790
G1 X161.117 Y51.933 E40.75987
G1 X181.933 Y31.117 E41.94283
G1 X182.480 Y31.117 E41.96480
G1 X161.117 Y52.480 E43.17882
G1 X161.117 Y53.027 E43.20080
G1 X183.027 Y31.117 E44.44589
G1 X183.573 Y31.117 E44.46787
G1 X161.117 Y53.573 E45.74404
G1 X161.117 Y54.120 E45.76601
G1 X184.120 Y31.117 E47.07325
G1 X184.667 Y31.117 E47.09523
G1 X161.117 Y54.667 E48.43354
G1 X161.117 Y55.214 E48.45551
G1 X185.214 Y31.117 E49.82490
G1 X185.760 Y31.117 E49.84688
G1 X161.117 Y55.760 E51.24734
G1 X161.117 Y56.307 E51.26931
G1 X186.307 Y31.117 E52.70084
G1 X186.854 Y31.117 E52.72282
G1 X161.117 Y56.854 E54.18542
G1 X161.117 Y57.401 E54.20740
G1 X187.401 Y31.117 E55.70108
G1 X187.947 Y31.117 E55.72305
G1 X161.117 Y57.947 E57.24780
G1 X161.117 Y58.494 E57.26977
G1 X188.494 Y31.117 E58.82560
G1 X189.041 Y31.117 E58.84757
G1 X161.117 Y59.041 E60.43447
G1 X161.117 Y59.588 E60.45644
G1 X189.588 Y31.117 E62.07441
G1 X190.134 Y31.117 E62.09638
G1 X161.117 Y60.134 E63.74542
G1 X161.117 Y60.681 E63.76739
G1 X190.681 Y31.117 E65.44751
G1 X191.228 Y31.117 E65.46948
G1 X161.117 Y61.228 E67.18067
G1 X161.117 Y61.775 E67.20264
G1 X191.775 Y31.117 E68.94490
G1 X192.322 Y31.117 E68.96687
G1 X161.117 Y62.322 E70.74021
G1 X161.117 Y62.868 E70.76218
G1 X192.868 Y31.117 E72.56658
G1 X193.415 Y31.117 E72.58855
G1 X161.117 Y63.415 E74.42403
G1 X161.117 Y63.962 E74.44600
G1 X193.962 Y31.117 E76.31256
G1 X194.509 Y31.117 E76.33453
G1 X161.117 Y64.509 E78.23215
G1 X161.117 Y65.055 E78.25412
G1 X195.055 Y31.117 E80.18282
G1 X195.602 Y31.117 E80.20479
G1 X161.117 Y65.602 E82.16456
G1 X161.117 Y66.149 E82.18653
G1 X196.149 Y31.117 E84.17737
G1 X196.696 Y31.117 E84.19934
G1 X161.117 Y66.696 E86.22126
G1 X161.117 Y67.242 E86.24323
G1 X197.242 Y31.117 E88.29622
G1 X197.789 Y31.117 E88.31819
G1 X161.117 Y67.789 E90.40225
G1 X161.117 Y68.336 E90.42422
G1 X198.336 Y31.117 E92.53935
G1 X198.863 Y31.137 E92.56056
G1 X161.137 Y68.863 E94.70457
G1 X161.664 Y68.883 E94.72577
G1 X198.883 Y31.664 E96.84091
G1 X198.883 Y32.211 E96.86288
G1 X162.211 Y68.883 E98.94694
G1 X162.758 Y68.883 E98.96891
G1 X198.883 Y32.758 E101.02190
G1 X198.883 Y33.304 E101.04387
G1 X163.304 Y68.883 E103.06579
G1 X163.851 Y68.883 E103.08776
G1 X198.883 Y33.851 E105.07860
G1 X198.883 Y34.398 E105.10057
G1 X164.398 Y68.883 E107.06034
G1 X164.945 Y68.883 E107.08231
G1 X198.883 Y34.945 E109.01101
G1 X198.883 Y35.491 E109.03298
G1 X165.491 Y68.883 E110.93061
G1 X166.038 Y68.883 E110.95258
G1 X198.883 Y36.038 E112.81913
G1 X198.883 Y36.585 E112.84110
G1 X166.585 Y68.883 E114.67658
G1 X167.132 Y68.883 E114.69855
G1 X198.883 Y37.132 E116.50296
G1 X198.883 Y37.678 E116.52493
G1 X167.678 Y68.883 E118.29827
G1 X168.225 Y68.883 E118.32024
G1 X198.883 Y38.225 E120.06250
G1 X198.883 Y38.772 E120.08447
G1 X168.772 Y68.883 E121.79566
G1 X169.319 Y68.883 E121.81763
G1 X198.883 Y39.319 E123.49775
G1 X198.883 Y39.865 E123.51972
G1 X169.865 Y68.883 E125.16877
G1 X170.412 Y68.883 E125.19074
G1 X198.883 Y40.412 E126.80871
G1 X198.883 Y40.959 E126.83068
G1 X170.959 Y68.883 E128.41758
G1 X171.506 Y68.883 E128.43955
G1 X198.883 Y41.506 E129.99538
G1 X198.883 Y42.053 E130.01735
G1 X172.053 Y68.883 E131.54210
G1 X172.599 Y68.883 E131.56408
G1 X198.883 Y42.599 E133.05776
G1 X198.883 Y43.146 E133.07973
G1 X173.146 Y68.883 E134.54234
G1 X173.693 Y68.883 E134.56431
G1 X198.883 Y43.693 E135.99584
G1 X198.883 Y44.240 E136.01782
G1 X174.240 Y68.883 E137.41828
G1 X174.786 Y68.883 E137.44025
G1 X198.883 Y44.786 E138.80964
G1 X198.883 Y45.333 E138.83161
G1 X175.333 Y68.883 E140.16993
G1 X175.880 Y68.883 E140.19190
G1 X198.883 Y45.880 E141.49915
G1 X198.883 Y46.427 E141.52112
G1 X176.427 Y68.883 E142.79729
G1 X176.973 Y68.883 E142.81927
G1 X198.883 Y46.973 E144.06437
G1 X198.883 Y47.520 E144.08634
G1 X177.520 Y68.883 E145.30037
G1 X178.067 Y68.883 E145.32234
G1 X198.883 Y48.067 E146.50529
G1 X198.883 Y48.614 E146.52726
G1 X178.614 Y68.883 E147.67915
G1 X179.161 Y68.883 E147.70112
G1 X198.883 Y49.161 E148.82193
G1 X198.883 Y49.707 E148.84390
G1 X179.707 Y68.883 E149.93364
G1 X180.254 Y68.883 E149.95561
G1 X198.883 Y50.254 E151.01428
G1 X198.883 Y50.801 E151.03625
G1 X180.801 Y68.883 E152.06384
G1 X181.348 Y68.883 E152.08581
G1 X198.883 Y51.348 E153.08233
G1 X198.883 Y51.894 E153.10430
G1 X181.894 Y68.883 E154.06975
G1 X182.441 Y68.883 E154.09172
G1 X198.883 Y52.441 E155.02610
G1 X198.883 Y52.988 E155.04807
G1 X182.988 Y68.883 E155.95137
G1 X183.535 Y68.883 E155.97334
G1 X198.883 Y53.535 E156.84557
G1 X198.883 Y54.081 E156.86754
