; generated by Slic3r 1.0.0RC2 on 2014-01-04 at 13:56:03

; layer_height = 0.25
; perimeters = 1
; top_solid_layers = 1
; bottom_solid_layers = 1
; fill_density = 0.1
; perimeter_speed = 30
; infill_speed = 60
; travel_speed = 130
; nozzle_diameter = 0.35
; filament_diameter = 1.75
; extrusion_multiplier = 1
; perimeters extrusion width = 0.35mm
; infill extrusion width = 0.39mm
; solid infill extrusion width = 0.39mm
; top infill extrusion width = 0.39mm
; first layer extrusion width = 0.70mm

G21 ; set units to millimeters
M107
M104 S220 ; set temperature
G28 ; home all axes
G1 Z5 F5000 ; lift nozzle

M109 S220 ; wait for temperature to be reached
G90 ; use absolute coordinates
G92 E0
M82 ; use absolute distances for extrusion
G1 F1800.000 E-1.00000
G92 E0
G1 Z0.350 F7800.000
G1 X152.280 Y38.460 F7800.000
G1 E1.00000 F1800.000
G1 X152.720 Y36.990 E1.13953 F540.000
G1 X153.450 Y35.630 E1.27988
G1 X154.430 Y34.430 E1.42076
G1 X155.630 Y33.450 E1.56164
G1 X156.990 Y32.720 E1.70199
G1 X158.460 Y32.280 E1.84152
G1 X160.000 Y32.130 E1.98221
G1 X191.250 Y32.130 E4.82376
G1 X192.260 Y32.190 E4.91576
G1 X193.250 Y32.380 E5.00742
G1 X222.000 Y39.930 E7.71029
G1 X223.390 Y40.440 E7.84492
G1 X224.650 Y41.200 E7.97872
G1 X225.760 Y42.180 E8.11336
G1 X226.660 Y43.350 E8.24758
G1 X227.330 Y44.660 E8.38138
G1 X227.740 Y46.080 E8.51577
G1 X227.870 Y47.550 E8.64996
G1 X227.870 Y60.000 E9.78203
G1 X227.720 Y61.540 E9.92273
G1 X227.280 Y63.010 E10.06225
G1 X226.550 Y64.370 E10.20260
G1 X225.570 Y65.570 E10.34348
G1 X224.370 Y66.550 E10.48436
G1 X223.010 Y67.280 E10.62472
G1 X221.540 Y67.720 E10.76424
G1 X220.000 Y67.870 E10.90494
G1 X160.000 Y67.870 E16.36071
G1 X158.460 Y67.720 E16.50140
G1 X156.990 Y67.280 E16.64093
G1 X155.630 Y66.550 E16.78128
G1 X154.430 Y65.570 E16.92216
G1 X153.450 Y64.370 E17.06304
G1 X152.720 Y63.010 E17.20340
G1 X152.280 Y61.540 E17.34292
G1 X152.130 Y60.000 E17.48362
G1 X152.130 Y40.000 E19.30221
G1 X152.271 Y38.553 E19.43438
G1 X152.890 Y38.590 F7800.000
G1 X153.300 Y37.230 E19.56354 F540.000
G1 X153.970 Y35.970 E19.69330
G1 X154.870 Y34.870 E19.82254
G1 X155.970 Y33.970 E19.95177
G1 X157.230 Y33.300 E20.08153
G1 X158.590 Y32.890 E20.21070
G1 X160.000 Y32.750 E20.33954
G1 X191.250 Y32.750 E23.18109
G1 X192.180 Y32.810 E23.26583
G1 X193.090 Y32.990 E23.35018
G1 X221.840 Y40.540 E26.05304
G1 X223.120 Y41.000 E26.17672
G1 X224.280 Y41.700 E26.29991
G1 X225.300 Y42.600 E26.42360
G1 X226.130 Y43.680 E26.54746
G1 X226.740 Y44.890 E26.67068
G1 X227.120 Y46.200 E26.79470
G1 X227.250 Y47.550 E26.91803
G1 X227.250 Y60.000 E28.05010
G1 X227.110 Y61.410 E28.17894
G1 X226.700 Y62.770 E28.30810
G1 X226.030 Y64.030 E28.43786
G1 X225.130 Y65.130 E28.56710
G1 X224.030 Y66.030 E28.69633
G1 X222.770 Y66.700 E28.82610
G1 X221.410 Y67.110 E28.95526
G1 X220.000 Y67.250 E29.08410
G1 X160.000 Y67.250 E34.53987
G1 X158.590 Y67.110 E34.66872
G1 X157.230 Y66.700 E34.79788
G1 X155.970 Y66.030 E34.92764
G1 X154.870 Y65.130 E35.05687
G1 X153.970 Y64.030 E35.18611
G1 X153.300 Y62.770 E35.31587
G1 X152.890 Y61.410 E35.44503
G1 X152.750 Y60.000 E35.57387
G1 X152.750 Y40.000 E37.39247
G1 X152.881 Y38.683 E37.51278
G1 X153.500 Y38.710 F7800.000
G1 X153.880 Y37.460 E37.63158 F540.000
G1 X154.490 Y36.320 E37.74915
G1 X155.320 Y35.320 E37.86732
G1 X156.320 Y34.490 E37.98549
G1 X157.460 Y33.880 E38.10306
G1 X158.710 Y33.500 E38.22185
G1 X160.000 Y33.380 E38.33966
G1 X191.250 Y33.380 E41.18121
G1 X192.100 Y33.430 E41.25863
G1 X192.930 Y33.590 E41.33549
G1 X221.680 Y41.140 E44.03836
G1 X223.030 Y41.660 E44.16990
G1 X224.240 Y42.460 E44.30180
G1 X225.250 Y43.500 E44.43363
G1 X226.000 Y44.740 E44.56540
G1 X226.470 Y46.110 E44.69710
G1 X226.620 Y47.550 E44.82875
G1 X226.620 Y60.000 E45.96082
G1 X226.500 Y61.290 E46.07862
G1 X226.120 Y62.540 E46.19742
G1 X225.510 Y63.680 E46.31499
G1 X224.680 Y64.680 E46.43316
G1 X223.680 Y65.510 E46.55133
G1 X222.540 Y66.120 E46.66890
G1 X221.290 Y66.500 E46.78769
G1 X220.000 Y66.620 E46.90550
G1 X160.000 Y66.620 E52.36127
G1 X158.710 Y66.500 E52.47908
G1 X157.460 Y66.120 E52.59788
G1 X156.320 Y65.510 E52.71545
G1 X155.320 Y64.680 E52.83362
G1 X154.490 Y63.680 E52.95179
G1 X153.880 Y62.540 E53.06935
G1 X153.500 Y61.290 E53.18815
G1 X153.380 Y60.000 E53.30596
G1 X153.380 Y40.000 E55.12455
G1 X153.491 Y38.803 E55.23383
G1 F1800.000 E54.23383
G92 E0
G1 X160.350 Y40.350 F7800.000
G1 E1.00000 F1800.000
G1 X190.900 Y40.350 E3.77790 F378.000
G1 X190.900 Y47.900 E4.46442
G1 X219.650 Y47.900 E7.07864
G1 X219.650 Y59.650 E8.14707
G1 X160.350 Y59.650 E13.53919
G1 X160.350 Y40.444 E15.28561
G1 X160.834 Y59.228 F7800.000
G1 X160.772 Y59.166 E15.29371 F1080.000
G1 X160.772 Y58.278 E15.37479
G1 X161.722 Y59.228 E15.49755
G1 X162.610 Y59.228 E15.57863
G1 X160.772 Y57.390 E15.81605
G1 X160.772 Y56.503 E15.89713
G1 X163.497 Y59.228 E16.24921
G1 X164.385 Y59.228 E16.33028
G1 X160.772 Y55.615 E16.79702
G1 X160.772 Y54.727 E16.87809
G1 X165.273 Y59.228 E17.45948
G1 X166.160 Y59.228 E17.54056
G1 X160.772 Y53.840 E18.23661
G1 X160.772 Y52.952 E18.31768
G1 X167.048 Y59.228 E19.12839
G1 X167.936 Y59.228 E19.20947
G1 X160.772 Y52.064 E20.13483
G1 X160.772 Y51.177 E20.21591
G1 X168.823 Y59.228 E21.25593
G1 X169.711 Y59.228 E21.33700
G1 X160.772 Y50.289 E22.49168
G1 X160.772 Y49.401 E22.57276
G1 X170.599 Y59.228 E23.84209
G1 X171.486 Y59.228 E23.92317
G1 X160.772 Y48.514 E25.30716
G1 X160.772 Y47.626 E25.38824
G1 X172.374 Y59.228 E26.88689
G1 X173.262 Y59.228 E26.96796
G1 X160.772 Y46.738 E28.58127
G1 X160.772 Y45.851 E28.66234
G1 X174.149 Y59.228 E30.39031
G1 X175.037 Y59.228 E30.47138
G1 X160.772 Y44.963 E32.31401
G1 X160.772 Y44.075 E32.39508
G1 X175.925 Y59.228 E34.35236
G1 X176.812 Y59.228 E34.43344
G1 X160.772 Y43.188 E36.50537
G1 X160.772 Y42.300 E36.58645
G1 X177.700 Y59.228 E38.77304
G1 X178.588 Y59.228 E38.85411
G1 X160.772 Y41.412 E41.15536
G1 X161.019 Y40.772 E41.21808
G1 X179.475 Y59.228 E43.60208
G1 X180.363 Y59.228 E43.68315
G1 X161.906 Y40.772 E46.06715
G1 X162.794 Y40.772 E46.14822
G1 X181.251 Y59.228 E48.53222
G1 X182.138 Y59.228 E48.61330
G1 X163.682 Y40.772 E50.99730
G1 X164.569 Y40.772 E51.07837
G1 X183.026 Y59.228 E53.46237
G1 X183.914 Y59.228 E53.54344
G1 X165.457 Y40.772 E55.92744
G1 X166.345 Y40.772 E56.00852
G1 X184.801 Y59.228 E58.39252
G1 X185.689 Y59.228 E58.47359
G1 X167.232 Y40.772 E60.85759
G1 X168.120 Y40.772 E60.93867
G1 X186.577 Y59.228 E63.32266
G1 X187.464 Y59.228 E63.40374
G1 X169.008 Y40.772 E65.78774
G1 X169.895 Y40.772 E65.86881
G1 X188.352 Y59.228 E68.25281
G1 X189.240 Y59.228 E68.33389
G1 X170.783 Y40.772 E70.71789
G1 X171.671 Y40.772 E70.79896
G1 X190.127 Y59.228 E73.18296
G1 X191.015 Y59.228 E73.26403
G1 X172.558 Y40.772 E75.64803
G1 X173.446 Y40.772 E75.72911
G1 X191.903 Y59.228 E78.11311
G1 X192.790 Y59.228 E78.19418
G1 X174.334 Y40.772 E80.57818
G1 X175.221 Y40.772 E80.65925
G1 X193.678 Y59.228 E83.04325
G1 X194.566 Y59.228 E83.12433
G1 X176.109 Y40.772 E85.50833
G1 X176.997 Y40.772 E85.58940
G1 X195.453 Y59.228 E87.97340
G1 X196.341 Y59.228 E88.05448
G1 X177.884 Y40.772 E90.43847
G1 X178.772 Y40.772 E90.51955
G1 X197.229 Y59.228 E92.90355
G1 X198.116 Y59.228 E92.98462
G1 X179.660 Y40.772 E95.36862
G1 X180.547 Y40.772 E95.44970
G1 X199.004 Y59.228 E97.83370
G1 X199.892 Y59.228 E97.91477
G1 X181.435 Y40.772 E100.29877
G1 X182.323 Y40.772 E100.37984
G1 X200.779 Y59.228 E102.76384
G1 X201.667 Y59.228 E102.84492
G1 X183.210 Y40.772 E105.22892
G1 X184.098 Y40.772 E105.30999
G1 X190.478 Y47.152 E106.13412
G1 X190.478 Y46.264 E106.21520
G1 X184.986 Y40.772 E106.92468
G1 X185.873 Y40.772 E107.00575
G1 X190.478 Y45.377 E107.60057
G1 X190.478 Y44.489 E107.68164
G1 X186.761 Y40.772 E108.16181
G1 X187.649 Y40.772 E108.24288
G1 X190.478 Y43.601 E108.60839
G1 X190.478 Y42.714 E108.68946
G1 X188.536 Y40.772 E108.94031
G1 X189.424 Y40.772 E109.02138
G1 X190.478 Y41.826 E109.15757
G1 X190.478 Y40.938 E109.23865
G1 X190.312 Y40.772 E109.26018
G1 F1800.000 E108.26018
G92 E0
G1 X191.648 Y48.322 F7800.000
G1 E1.00000 F1800.000
G1 X202.555 Y59.228 E2.40879 F1080.000
G1 X203.442 Y59.228 E2.48986
G1 X192.536 Y48.322 E3.89865
G1 X193.423 Y48.322 E3.97973
G1 X204.330 Y59.228 E5.38851
G1 X205.218 Y59.228 E5.46959
G1 X194.311 Y48.322 E6.87838
G1 X195.199 Y48.322 E6.95945
G1 X206.105 Y59.228 E8.36824
G1 X206.993 Y59.228 E8.44931
G1 X196.086 Y48.322 E9.85810
G1 X196.974 Y48.322 E9.93918
G1 X207.881 Y59.228 E11.34797
G1 X208.768 Y59.228 E11.42904
G1 X197.862 Y48.322 E12.83783
G1 X198.749 Y48.322 E12.91890
G1 X209.656 Y59.228 E14.32769
G1 X210.544 Y59.228 E14.40877
G1 X199.637 Y48.322 E15.81755
G1 X200.525 Y48.322 E15.89863
G1 X211.431 Y59.228 E17.30742
G1 X212.319 Y59.228 E17.38849
G1 X201.412 Y48.322 E18.79728
G1 X202.300 Y48.322 E18.87835
G1 X213.207 Y59.228 E20.28714
G1 X214.094 Y59.228 E20.36822
G1 X203.188 Y48.322 E21.77701
G1 X204.075 Y48.322 E21.85808
G1 X214.982 Y59.228 E23.26687
G1 X215.870 Y59.228 E23.34794
G1 X204.963 Y48.322 E24.75673
G1 X205.851 Y48.322 E24.83781
G1 X216.757 Y59.228 E26.24659
G1 X217.645 Y59.228 E26.32767
G1 X206.738 Y48.322 E27.73646
G1 X207.626 Y48.322 E27.81753
G1 X218.533 Y59.228 E29.22632
G1 X219.228 Y59.036 E29.29223
G1 X208.514 Y48.322 E30.67622
G1 X209.401 Y48.322 E30.75730
G1 X219.228 Y58.149 E32.02663
G1 X219.228 Y57.261 E32.10770
G1 X210.289 Y48.322 E33.26238
G1 X211.177 Y48.322 E33.34345
G1 X219.228 Y56.373 E34.38347
G1 X219.228 Y55.486 E34.46454
G1 X212.064 Y48.322 E35.38990
G1 X212.952 Y48.322 E35.47098
G1 X219.228 Y54.598 E36.28168
G1 X219.228 Y53.710 E36.36275
G1 X213.840 Y48.322 E37.05880
G1 X214.727 Y48.322 E37.13987
G1 X219.228 Y52.823 E37.72126
G1 X219.228 Y51.935 E37.80234
G1 X215.615 Y48.322 E38.26907
G1 X216.503 Y48.322 E38.35014
G1 X219.228 Y51.047 E38.70222
G1 X219.228 Y50.160 E38.78329
G1 X217.390 Y48.322 E39.02071
G1 X218.278 Y48.322 E39.10178
G1 X219.228 Y49.272 E39.22454
G1 X219.228 Y48.384 E39.30562
G1 X219.166 Y48.322 E39.31372
M106 S255
M104 S220 ; set temperature
G1 F1800.000 E38.31372
G92 E0
G1 Z0.600 F7800.000
G1 X219.825 Y47.725 F7800.000
G1 E1.00000 F1800.000
G1 X219.825 Y59.825 E1.44018 F600.000
G1 X160.175 Y59.825 E3.61014
G1 X160.175 Y40.175 E4.32497
G1 X191.075 Y40.175 E5.44906
G1 X191.075 Y47.725 E5.72372
G1 X219.772 Y47.725 E6.76768
G1 X219.560 Y59.563 F7800.000
G1 X219.563 Y56.619 E6.88548 F1585.749
G1 X217.198 Y54.253 E7.01928
G1 X212.691 Y55.461 E7.20592
G1 X211.656 Y59.324 E7.36590
G1 X210.763 Y59.563 E7.40289
G1 X206.181 Y59.563 E7.58617
G1 X204.321 Y57.704 E7.69137
G1 X199.814 Y58.911 E7.87801
G1 X199.639 Y59.563 E7.90501
G1 X191.671 Y59.563 F7800.000
G1 X192.379 Y56.919 E8.01451 F1585.749
G1 X196.886 Y55.712 E8.20115
G1 X199.714 Y58.540 E8.36113
G1 X204.221 Y57.332 E8.54777
G1 X205.257 Y53.469 E8.70775
G1 X209.764 Y52.261 E8.89439
G1 X212.592 Y55.089 E9.05436
G1 X217.099 Y53.882 E9.24100
G1 X218.134 Y50.018 E9.40098
G1 X219.563 Y49.635 E9.46019
G1 X219.563 Y49.237 E9.47612
G1 X218.034 Y49.647 E9.53946
G1 X216.374 Y47.987 E9.63336
G1 X210.847 Y47.987 E9.85444
G1 X210.699 Y48.026 E9.86057
G1 X209.664 Y51.889 E10.02055
G1 X205.157 Y53.097 E10.20719
G1 X202.329 Y50.269 E10.36716
G1 X197.822 Y51.477 E10.55380
G1 X196.787 Y55.340 E10.71378
G1 X192.280 Y56.548 E10.90042
G1 X189.452 Y53.719 E11.06040
G1 X184.945 Y54.927 E11.24704
G1 X183.910 Y58.790 E11.40702
G1 X181.024 Y59.563 E11.52650
G1 X182.511 Y59.563 E11.58598
G1 X184.009 Y59.162 E11.64802
G1 X184.411 Y59.563 E11.67072
G1 X178.968 Y59.563 E11.88842
G1 X176.575 Y57.170 E12.02382
G1 X172.068 Y58.378 E12.21046
G1 X171.750 Y59.563 E12.25957
G1 X163.781 Y59.563 F7800.000
G1 X164.633 Y56.385 E12.39117 F1585.749
G1 X169.140 Y55.178 E12.57781
G1 X171.968 Y58.006 E12.73779
G1 X176.475 Y56.798 E12.92443
G1 X177.510 Y52.935 E13.08441
G1 X182.017 Y51.727 E13.27105
G1 X184.845 Y54.555 E13.43102
G1 X189.352 Y53.348 E13.61766
G1 X190.387 Y49.485 E13.77764
G1 X194.894 Y48.277 E13.96428
G1 X197.722 Y51.105 E14.12426
G1 X202.229 Y49.897 E14.31090
G1 X202.741 Y47.987 E14.39002
G1 X194.491 Y47.987 F7800.000
G1 X190.288 Y49.113 E14.56409 F1585.749
G1 X187.460 Y46.285 E14.72407
G1 X182.953 Y47.492 E14.91071
G1 X181.917 Y51.356 E15.07068
G1 X177.410 Y52.563 E15.25732
G1 X174.582 Y49.735 E15.41730
G1 X170.075 Y50.943 E15.60394
G1 X169.040 Y54.806 E15.76392
G1 X164.533 Y56.014 E15.95056
G1 X161.705 Y53.186 E16.11053
G1 X160.437 Y53.526 E16.16307
G1 X160.437 Y53.127 E16.17901
G1 X161.606 Y52.814 E16.22742
G1 X162.641 Y48.951 E16.38740
G1 X167.148 Y47.743 E16.57404
G1 X169.976 Y50.571 E16.73402
G1 X174.483 Y49.364 E16.92066
G1 X175.518 Y45.500 E17.08063
G1 X180.025 Y44.293 E17.26727
G1 X182.853 Y47.121 E17.42725
G1 X187.360 Y45.913 E17.61389
G1 X188.395 Y42.050 E17.77387
G1 X190.813 Y41.402 E17.87401
G1 X190.813 Y41.004 E17.88995
G1 X188.296 Y41.678 E17.99422
G1 X187.054 Y40.437 E18.06445
G1 X180.859 Y40.437 E18.31225
G1 X179.925 Y43.921 E18.45654
G1 X175.418 Y45.129 E18.64318
G1 X172.590 Y42.301 E18.80316
G1 X168.083 Y43.508 E18.98980
G1 X167.048 Y47.371 E19.14978
G1 X162.541 Y48.579 E19.33642
G1 X160.437 Y46.474 E19.45547
G1 X160.437 Y42.308 E19.62214
G1 X160.649 Y41.516 E19.65492
G1 X164.678 Y40.437 E19.82177
G1 X165.284 Y40.437 E19.84601
G1 X167.984 Y43.137 E19.99874
G1 X172.491 Y41.929 E20.18538
G1 X172.891 Y40.437 E20.24718
G1 X163.191 Y40.437 F7800.000
G1 X160.549 Y41.144 E20.35658 F1585.749
G1 X160.437 Y41.032 E20.36294
G1 F1800.000 E19.36294
G92 E0
G1 Z0.850 F7800.000
G1 X160.175 Y40.175 F7800.000
G1 E1.00000 F1800.000
G1 X191.075 Y40.175 E2.12409 F600.000
G1 X191.075 Y47.725 E2.39874
G1 X219.825 Y47.725 E3.44462
G1 X219.825 Y59.825 E3.88480
G1 X160.175 Y59.825 E6.05476
G1 X160.175 Y40.227 E6.76768
G1 X160.437 Y41.564 F7800.000
G1 X160.549 Y41.144 E6.78507 F1704.335
G1 X160.437 Y41.032 E6.79144
G1 X163.934 Y40.437 E6.93336
G1 X160.921 Y41.244 E7.05815
G1 X160.437 Y43.051 E7.13299
G1 X160.437 Y46.474 E7.26992
G1 X162.541 Y48.579 E7.38898
G1 X161.334 Y53.086 E7.57562
G1 X160.437 Y53.326 E7.61276
G1 X163.582 Y59.563 E7.89217
G1 X164.533 Y56.014 E8.03917
G1 X161.705 Y53.186 E8.19915
G1 X162.913 Y48.679 E8.38579
G1 X166.776 Y47.644 E8.54576
G1 X167.984 Y43.137 E8.73240
G1 X165.284 Y40.437 E8.88514
G1 X172.691 Y40.437 E9.18144
G1 X172.219 Y42.201 E9.25451
G1 X168.355 Y43.236 E9.41449
G1 X167.148 Y47.743 E9.60113
G1 X169.976 Y50.571 E9.76110
G1 X168.768 Y55.078 E9.94774
G1 X164.905 Y56.113 E10.10772
G1 X163.981 Y59.563 E10.25059
G1 X171.551 Y59.563 E10.55339
G1 X171.968 Y58.006 E10.61789
G1 X169.140 Y55.178 E10.77787
G1 X170.348 Y50.671 E10.96451
G1 X174.211 Y49.636 E11.12449
G1 X175.418 Y45.129 E11.31113
G1 X172.590 Y42.301 E11.47111
G1 X173.090 Y40.437 E11.54830
G1 X180.660 Y40.437 E11.85110
G1 X179.653 Y44.193 E12.00666
G1 X175.790 Y45.228 E12.16664
G1 X174.582 Y49.735 E12.35328
G1 X177.410 Y52.563 E12.51325
G1 X176.203 Y57.070 E12.69989
G1 X172.340 Y58.105 E12.85987
G1 X171.949 Y59.563 E12.92025
G1 X178.968 Y59.563 E13.20101
G1 X176.575 Y57.170 E13.33641
G1 X177.782 Y52.663 E13.52305
G1 X181.645 Y51.628 E13.68303
G1 X182.853 Y47.121 E13.86967
G1 X180.025 Y44.293 E14.02964
G1 X181.058 Y40.437 E14.18933
G1 X187.054 Y40.437 E14.42916
G1 X188.296 Y41.678 E14.49939
G1 X187.088 Y46.185 E14.68603
G1 X183.225 Y47.220 E14.84601
G1 X182.017 Y51.727 E15.03265
G1 X184.845 Y54.555 E15.19263
G1 X183.637 Y59.062 E15.37927
G1 X181.768 Y59.563 E15.45670
G1 X184.411 Y59.563 E15.56242
G1 X184.009 Y59.162 E15.58512
G1 X185.217 Y54.655 E15.77176
G1 X189.080 Y53.620 E15.93174
G1 X190.288 Y49.113 E16.11838
G1 X187.460 Y46.285 E16.27836
G1 X188.667 Y41.778 E16.46500
G1 X190.813 Y41.203 E16.55387
G1 F1800.000 E15.55387
G92 E0
G1 X194.574 Y47.987 F7800.000
G1 E1.00000 F1800.000
G1 X194.523 Y48.177 E1.00790 F1704.335
G1 X190.659 Y49.212 E1.16788
G1 X189.452 Y53.719 E1.35452
G1 X192.280 Y56.548 E1.51449
G1 X191.472 Y59.563 E1.63939
G1 X191.870 Y59.563 E1.65532
G1 X192.651 Y56.647 E1.77609
G1 X196.515 Y55.612 E1.93607
G1 X197.722 Y51.105 E2.12271
G1 X194.894 Y48.277 E2.28268
G1 X194.972 Y47.987 E2.29471
G1 X202.542 Y47.987 E2.59751
G1 X201.957 Y50.169 E2.68790
G1 X198.094 Y51.205 E2.84788
G1 X196.886 Y55.712 E3.03452
