; generated by Slic3r 1.0.0RC2 on 2014-01-04 at 16:31:50

; layer_height = 0.25
; perimeters = 1
; top_solid_layers = 1
; bottom_solid_layers = 1
; fill_density = 0.1
; perimeter_speed = 30
; infill_speed = 60
; travel_speed = 130
; nozzle_diameter = 0.35
; filament_diameter = 1.75
; extrusion_multiplier = 1
; perimeters extrusion width = 0.35mm
; infill extrusion width = 0.39mm
; solid infill extrusion width = 0.39mm
; top infill extrusion width = 0.39mm
; first layer extrusion width = 0.70mm

G21 ; set units to millimeters
M107
M104 S220 ; set temperature
G28 ; home all axes
G1 Z5 F5000 ; lift nozzle

M109 S220 ; wait for temperature to be reached
G90 ; use absolute coordinates
G92 E0
M82 ; use absolute distances for extrusion
G1 F1800.000 E-1.00000
G92 E0
G1 Z0.350 F7800.000
G1 X151.780 Y38.460 F7800.000
G1 E1.00000 F1800.000
G1 X152.220 Y36.990 E1.13953 F540.000
G1 X152.950 Y35.630 E1.27988
G1 X153.930 Y34.430 E1.42076
G1 X155.130 Y33.450 E1.56164
G1 X156.490 Y32.720 E1.70199
G1 X157.960 Y32.280 E1.84152
G1 X159.500 Y32.130 E1.98221
G1 X190.750 Y32.130 E4.82376
G1 X191.660 Y32.180 E4.90663
G1 X192.550 Y32.330 E4.98870
G1 X222.300 Y39.320 E7.76752
G1 X223.730 Y39.810 E7.90497
G1 X225.030 Y40.550 E8.04099
G1 X226.180 Y41.530 E8.17838
G1 X227.110 Y42.710 E8.31499
G1 X227.800 Y44.050 E8.45204
G1 X228.230 Y45.490 E8.58870
G1 X228.370 Y46.990 E8.72568
G1 X228.370 Y60.000 E9.90868
G1 X228.220 Y61.540 E10.04937
G1 X227.780 Y63.010 E10.18890
G1 X227.050 Y64.370 E10.32925
G1 X226.070 Y65.570 E10.47013
G1 X224.870 Y66.550 E10.61101
G1 X223.510 Y67.280 E10.75136
G1 X222.040 Y67.720 E10.89089
G1 X220.500 Y67.870 E11.03158
G1 X159.500 Y67.870 E16.57829
G1 X157.960 Y67.720 E16.71898
G1 X156.490 Y67.280 E16.85851
G1 X155.130 Y66.550 E16.99886
G1 X153.930 Y65.570 E17.13974
G1 X152.950 Y64.370 E17.28062
G1 X152.220 Y63.010 E17.42097
G1 X151.780 Y61.540 E17.56050
G1 X151.630 Y60.000 E17.70119
G1 X151.630 Y40.000 E19.51978
G1 X151.771 Y38.553 E19.65195
G1 X152.390 Y38.590 F7800.000
G1 X152.800 Y37.230 E19.78111 F540.000
G1 X153.470 Y35.970 E19.91088
G1 X154.370 Y34.870 E20.04011
G1 X155.470 Y33.970 E20.16935
G1 X156.730 Y33.300 E20.29911
G1 X158.090 Y32.890 E20.42827
G1 X159.500 Y32.750 E20.55711
G1 X190.750 Y32.750 E23.39866
G1 X191.580 Y32.800 E23.47427
G1 X192.410 Y32.940 E23.55081
G1 X222.160 Y39.930 E26.32963
G1 X223.470 Y40.380 E26.45558
G1 X224.670 Y41.060 E26.58100
G1 X225.730 Y41.970 E26.70803
G1 X226.590 Y43.050 E26.83356
G1 X227.220 Y44.280 E26.95922
G1 X227.620 Y45.610 E27.08551
G1 X227.750 Y46.990 E27.21155
G1 X227.750 Y60.000 E28.39454
G1 X227.610 Y61.410 E28.52338
G1 X227.200 Y62.770 E28.65255
G1 X226.530 Y64.030 E28.78231
G1 X225.630 Y65.130 E28.91154
G1 X224.530 Y66.030 E29.04078
G1 X223.270 Y66.700 E29.17054
G1 X221.910 Y67.110 E29.29970
G1 X220.500 Y67.250 E29.42854
G1 X159.500 Y67.250 E34.97525
G1 X158.090 Y67.110 E35.10409
G1 X156.730 Y66.700 E35.23325
G1 X155.470 Y66.030 E35.36301
G1 X154.370 Y65.130 E35.49225
G1 X153.470 Y64.030 E35.62148
G1 X152.800 Y62.770 E35.75124
G1 X152.390 Y61.410 E35.88041
G1 X152.250 Y60.000 E36.00925
G1 X152.250 Y40.000 E37.82784
G1 X152.381 Y38.683 E37.94816
G1 X153.000 Y38.710 F7800.000
G1 X153.380 Y37.460 E38.06695 F540.000
G1 X153.990 Y36.320 E38.18452
G1 X154.820 Y35.320 E38.30269
G1 X155.820 Y34.490 E38.42086
G1 X156.960 Y33.880 E38.53843
G1 X158.210 Y33.500 E38.65723
G1 X159.500 Y33.380 E38.77503
G1 X190.750 Y33.380 E41.61658
G1 X191.510 Y33.420 E41.68578
G1 X192.270 Y33.550 E41.75589
G1 X222.020 Y40.540 E44.53471
G1 X223.210 Y40.950 E44.64916
G1 X224.310 Y41.570 E44.76398
G1 X225.280 Y42.400 E44.88006
G1 X226.060 Y43.390 E44.99467
G1 X226.650 Y44.520 E45.11058
G1 X227.000 Y45.730 E45.22512
G1 X227.120 Y46.990 E45.34020
G1 X227.120 Y60.000 E46.52320
G1 X227.000 Y61.290 E46.64100
G1 X226.620 Y62.540 E46.75980
G1 X226.010 Y63.680 E46.87737
G1 X225.180 Y64.680 E46.99554
G1 X224.180 Y65.510 E47.11371
G1 X223.040 Y66.120 E47.23128
G1 X221.790 Y66.500 E47.35007
G1 X220.500 Y66.620 E47.46788
G1 X159.500 Y66.620 E53.01458
G1 X158.210 Y66.500 E53.13239
G1 X156.960 Y66.120 E53.25119
G1 X155.820 Y65.510 E53.36875
G1 X154.820 Y64.680 E53.48692
G1 X153.990 Y63.680 E53.60509
G1 X153.380 Y62.540 E53.72266
G1 X153.000 Y61.290 E53.84146
G1 X152.880 Y60.000 E53.95926
G1 X152.880 Y40.000 E55.77786
G1 X152.991 Y38.803 E55.88714
G1 F1800.000 E54.88714
G92 E0
G1 X159.850 Y40.350 F7800.000
G1 E1.00000 F1800.000
G1 X190.400 Y40.350 E3.77790 F378.000
G1 X190.400 Y47.340 E4.41350
G1 X220.150 Y47.340 E7.11865
G1 X220.150 Y59.650 E8.23799
G1 X159.850 Y59.650 E13.72105
G1 X159.850 Y40.444 E15.46747
G1 X160.334 Y59.228 F7800.000
G1 X160.272 Y59.166 E15.47552 F1080.000
G1 X160.272 Y58.281 E15.55611
G1 X161.219 Y59.228 E15.67813
G1 X162.104 Y59.228 E15.75871
G1 X160.272 Y57.396 E15.99470
G1 X160.272 Y56.511 E16.07528
G1 X162.989 Y59.228 E16.42523
G1 X163.874 Y59.228 E16.50581
G1 X160.272 Y55.626 E16.96972
G1 X160.272 Y54.741 E17.05031
G1 X164.759 Y59.228 E17.62818
G1 X165.644 Y59.228 E17.70876
G1 X160.272 Y53.856 E18.40060
G1 X160.272 Y52.971 E18.48118
G1 X166.529 Y59.228 E19.28698
G1 X167.414 Y59.228 E19.36757
G1 X160.272 Y52.086 E20.28733
G1 X160.272 Y51.201 E20.36791
G1 X168.299 Y59.228 E21.40163
G1 X169.184 Y59.228 E21.48222
G1 X160.272 Y50.316 E22.62991
G1 X160.272 Y49.431 E22.71049
G1 X170.069 Y59.228 E23.97214
G1 X170.954 Y59.228 E24.05272
G1 X160.272 Y48.546 E25.42834
G1 X160.272 Y47.661 E25.50892
G1 X171.839 Y59.228 E26.99850
G1 X172.724 Y59.228 E27.07908
G1 X160.272 Y46.776 E28.68262
G1 X160.272 Y45.891 E28.76320
G1 X173.609 Y59.228 E30.48070
G1 X174.494 Y59.228 E30.56129
G1 X160.272 Y45.006 E32.39275
G1 X160.272 Y44.121 E32.47333
G1 X175.379 Y59.228 E34.41876
G1 X176.264 Y59.228 E34.49935
G1 X160.272 Y43.236 E36.55874
G1 X160.272 Y42.351 E36.63932
G1 X177.149 Y59.228 E38.81267
G1 X178.034 Y59.228 E38.89326
G1 X160.272 Y41.466 E41.18057
G1 X160.462 Y40.772 E41.24614
G1 X178.919 Y59.228 E43.62289
G1 X179.804 Y59.228 E43.70347
G1 X161.347 Y40.772 E46.08022
G1 X162.232 Y40.772 E46.16080
G1 X180.689 Y59.228 E48.53755
G1 X181.574 Y59.228 E48.61813
G1 X163.117 Y40.772 E50.99488
G1 X164.002 Y40.772 E51.07546
G1 X182.459 Y59.228 E53.45221
G1 X183.344 Y59.228 E53.53279
G1 X164.887 Y40.772 E55.90954
G1 X165.772 Y40.772 E55.99012
G1 X184.229 Y59.228 E58.36687
G1 X185.114 Y59.228 E58.44745
G1 X166.657 Y40.772 E60.82420
G1 X167.542 Y40.772 E60.90478
G1 X185.999 Y59.228 E63.28152
G1 X186.884 Y59.228 E63.36211
G1 X168.427 Y40.772 E65.73885
G1 X169.312 Y40.772 E65.81944
G1 X187.769 Y59.228 E68.19618
G1 X188.653 Y59.228 E68.27677
G1 X170.197 Y40.772 E70.65351
G1 X171.082 Y40.772 E70.73410
G1 X189.538 Y59.228 E73.11084
G1 X190.423 Y59.228 E73.19143
G1 X171.967 Y40.772 E75.56817
G1 X172.852 Y40.772 E75.64876
G1 X191.308 Y59.228 E78.02550
G1 X192.193 Y59.228 E78.10608
G1 X173.737 Y40.772 E80.48283
G1 X174.622 Y40.772 E80.56341
G1 X193.078 Y59.228 E82.94016
G1 X193.963 Y59.228 E83.02074
G1 X175.507 Y40.772 E85.39749
G1 X176.392 Y40.772 E85.47807
G1 X194.848 Y59.228 E87.85482
G1 X195.733 Y59.228 E87.93540
G1 X177.277 Y40.772 E90.31215
G1 X178.162 Y40.772 E90.39273
G1 X196.618 Y59.228 E92.76948
G1 X197.503 Y59.228 E92.85006
G1 X179.047 Y40.772 E95.22681
G1 X179.932 Y40.772 E95.30739
G1 X198.388 Y59.228 E97.68414
G1 X199.273 Y59.228 E97.76472
G1 X180.817 Y40.772 E100.14147
G1 X181.702 Y40.772 E100.22205
G1 X200.158 Y59.228 E102.59879
G1 X201.043 Y59.228 E102.67938
G1 X182.587 Y40.772 E105.05612
G1 X183.472 Y40.772 E105.13671
G1 X201.928 Y59.228 E107.51345
G1 X202.813 Y59.228 E107.59404
G1 X191.347 Y47.762 E109.07064
G1 X192.232 Y47.762 E109.15123
G1 X203.698 Y59.228 E110.62783
G1 X204.583 Y59.228 E110.70842
G1 X193.116 Y47.762 E112.18502
G1 X194.001 Y47.762 E112.26561
G1 X205.468 Y59.228 E113.74221
G1 X206.353 Y59.228 E113.82280
G1 X194.886 Y47.762 E115.29940
G1 X195.771 Y47.762 E115.37999
G1 X207.238 Y59.228 E116.85659
G1 X208.123 Y59.228 E116.93718
G1 X196.656 Y47.762 E118.41378
G1 X197.541 Y47.762 E118.49437
G1 X209.008 Y59.228 E119.97097
G1 X209.893 Y59.228 E120.05156
G1 X198.426 Y47.762 E121.52816
G1 X199.311 Y47.762 E121.60875
G1 X210.778 Y59.228 E123.08535
G1 X211.663 Y59.228 E123.16593
G1 X200.196 Y47.762 E124.64254
G1 X201.081 Y47.762 E124.72312
G1 X212.548 Y59.228 E126.19973
G1 X213.433 Y59.228 E126.28031
G1 X201.966 Y47.762 E127.75692
G1 X202.851 Y47.762 E127.83750
G1 X214.318 Y59.228 E129.31411
G1 X215.203 Y59.228 E129.39469
G1 X203.736 Y47.762 E130.87130
G1 X204.621 Y47.762 E130.95188
G1 X216.088 Y59.228 E132.42849
G1 X216.973 Y59.228 E132.50907
G1 X205.506 Y47.762 E133.98568
G1 X206.391 Y47.762 E134.06626
G1 X217.858 Y59.228 E135.54287
G1 X218.743 Y59.228 E135.62345
G1 X207.276 Y47.762 E137.10006
G1 X208.161 Y47.762 E137.18064
G1 X219.628 Y59.228 E138.65725
G1 X219.728 Y58.444 E138.72925
G1 X209.046 Y47.762 E140.10486
G1 X209.931 Y47.762 E140.18544
G1 X219.728 Y57.559 E141.44709
G1 X219.728 Y56.674 E141.52767
G1 X210.816 Y47.762 E142.67535
G1 X211.701 Y47.762 E142.75594
G1 X219.728 Y55.789 E143.78965
G1 X219.728 Y54.904 E143.87024
G1 X212.586 Y47.762 E144.78999
G1 X213.471 Y47.762 E144.87058
G1 X219.728 Y54.019 E145.67637
G1 X219.728 Y53.134 E145.75696
G1 X214.356 Y47.762 E146.44879
G1 X215.241 Y47.762 E146.52937
G1 X219.728 Y52.249 E147.10724
G1 X219.728 Y51.364 E147.18782
G1 X216.126 Y47.762 E147.65173
G1 X217.011 Y47.762 E147.73231
G1 X219.728 Y50.479 E148.08225
G1 X219.728 Y49.594 E148.16283
G1 X217.896 Y47.762 E148.39881
G1 X218.781 Y47.762 E148.47940
G1 X219.728 Y48.709 E148.60141
G1 X219.728 Y47.824 E148.68200
G1 X219.666 Y47.762 E148.69005
G1 F1800.000 E147.69005
G92 E0
G1 X189.978 Y46.393 F7800.000
G1 E1.00000 F1800.000
G1 X184.357 Y40.772 E1.72394 F1080.000
G1 X185.242 Y40.772 E1.80452
G1 X189.978 Y45.508 E2.41450
G1 X189.978 Y44.623 E2.49508
G1 X186.126 Y40.772 E2.99109
G1 X187.011 Y40.772 E3.07168
G1 X189.978 Y43.739 E3.45373
G1 X189.978 Y42.854 E3.53431
G1 X187.896 Y40.772 E3.80240
G1 X188.781 Y40.772 E3.88298
G1 X189.978 Y41.969 E4.03710
G1 X189.978 Y41.084 E4.11769
G1 X189.666 Y40.772 E4.15785
M106 S255
M104 S220 ; set temperature
G1 F1800.000 E3.15785
G92 E0
G1 Z0.600 F7800.000
G1 X190.575 Y40.175 F7800.000
G1 E1.00000 F1800.000
G1 X190.575 Y47.165 E1.25428 F600.000
G1 X220.325 Y47.165 E2.33654
G1 X220.325 Y59.825 E2.79709
G1 X159.675 Y59.825 E5.00343
G1 X159.675 Y40.175 E5.71826
G1 X190.523 Y40.175 E6.84044
G1 F1800.000 E5.84044
G92 E0
G1 X194.423 Y47.427 F7800.000
G1 E1.00000 F1800.000
G1 X194.295 Y47.905 E1.01982 F1624.680
G1 X189.788 Y49.113 E1.20646
G1 X186.960 Y46.285 E1.36644
G1 X182.453 Y47.492 E1.55308
G1 X181.417 Y51.356 E1.71305
G1 X176.910 Y52.563 E1.89969
G1 X174.082 Y49.735 E2.05967
G1 X169.575 Y50.943 E2.24631
G1 X168.540 Y54.806 E2.40629
G1 X164.033 Y56.014 E2.59293
G1 X161.205 Y53.186 E2.75291
G1 X159.937 Y53.526 E2.80544
G1 X159.937 Y53.127 E2.82138
G1 X161.106 Y52.814 E2.86979
G1 X162.141 Y48.951 E3.02977
G1 X166.648 Y47.743 E3.21641
G1 X169.476 Y50.571 E3.37639
G1 X173.983 Y49.364 E3.56303
G1 X175.018 Y45.500 E3.72301
G1 X179.525 Y44.293 E3.90965
G1 X182.353 Y47.121 E4.06962
G1 X186.860 Y45.913 E4.25626
G1 X187.895 Y42.050 E4.41624
G1 X190.313 Y41.402 E4.51638
G1 X190.313 Y41.004 E4.53232
G1 X187.796 Y41.678 E4.63659
G1 X186.554 Y40.437 E4.70683
G1 X180.359 Y40.437 E4.95462
G1 X179.425 Y43.921 E5.09891
G1 X174.918 Y45.129 E5.28555
G1 X172.090 Y42.301 E5.44553
G1 X167.583 Y43.508 E5.63217
G1 X166.548 Y47.371 E5.79215
G1 X162.041 Y48.579 E5.97879
G1 X159.937 Y46.474 E6.09784
G1 X159.937 Y42.308 E6.26451
G1 X160.149 Y41.516 E6.29729
G1 X164.178 Y40.437 E6.46414
G1 X164.784 Y40.437 E6.48838
G1 X167.484 Y43.137 E6.64111
G1 X171.991 Y41.929 E6.82775
G1 X172.391 Y40.437 E6.88955
G1 X162.691 Y40.437 F7800.000
G1 X160.049 Y41.144 E6.99895 F1624.680
G1 X159.937 Y41.032 E7.00532
G1 X163.281 Y59.563 F7800.000
G1 X164.133 Y56.385 E7.13692 F1624.680
G1 X168.640 Y55.178 E7.32356
G1 X171.468 Y58.006 E7.48354
G1 X175.975 Y56.798 E7.67018
G1 X177.010 Y52.935 E7.83015
G1 X181.517 Y51.727 E8.01679
G1 X184.345 Y54.555 E8.17677
G1 X188.852 Y53.348 E8.36341
G1 X189.887 Y49.485 E8.52339
G1 X194.394 Y48.277 E8.71003
G1 X197.222 Y51.105 E8.87000
G1 X201.729 Y49.897 E9.05664
G1 X202.391 Y47.427 E9.15896
G1 X209.871 Y47.427 E9.45817
G1 X210.099 Y47.655 E9.47106
G1 X210.950 Y47.427 E9.50629
G1 X219.060 Y59.563 F7800.000
G1 X219.626 Y57.453 E9.59369 F1624.680
G1 X220.063 Y57.336 E9.61181
G1 X220.063 Y56.937 E9.62775
G1 X219.526 Y57.081 E9.65000
G1 X216.698 Y54.253 E9.80997
G1 X212.191 Y55.461 E9.99661
G1 X211.156 Y59.324 E10.15659
G1 X210.263 Y59.563 E10.19358
G1 X205.681 Y59.563 E10.37686
G1 X203.821 Y57.704 E10.48206
G1 X199.314 Y58.911 E10.66870
G1 X199.139 Y59.563 E10.69571
G1 X191.171 Y59.563 F7800.000
G1 X191.879 Y56.919 E10.80521 F1624.680
G1 X196.386 Y55.712 E10.99185
G1 X199.214 Y58.540 E11.15182
G1 X203.721 Y57.332 E11.33846
G1 X204.757 Y53.469 E11.49844
G1 X209.264 Y52.261 E11.68508
G1 X212.092 Y55.089 E11.84506
G1 X216.599 Y53.882 E12.03170
G1 X217.634 Y50.018 E12.19167
G1 X220.063 Y49.367 E12.29229
G1 X220.063 Y48.969 E12.30823
G1 X217.534 Y49.647 E12.41297
G1 X215.314 Y47.427 E12.53856
G1 X212.437 Y47.427 E12.65363
G1 X210.199 Y48.026 E12.74631
G1 X209.164 Y51.889 E12.90629
G1 X204.657 Y53.097 E13.09293
G1 X201.829 Y50.269 E13.25291
G1 X197.322 Y51.477 E13.43955
G1 X196.287 Y55.340 E13.59952
G1 X191.780 Y56.548 E13.78616
G1 X188.952 Y53.719 E13.94614
G1 X184.445 Y54.927 E14.13278
G1 X183.410 Y58.790 E14.29276
G1 X180.524 Y59.563 E14.41225
G1 X182.011 Y59.563 E14.47172
G1 X183.509 Y59.162 E14.53376
G1 X183.911 Y59.563 E14.55647
G1 X178.468 Y59.563 E14.77417
G1 X176.075 Y57.170 E14.90956
G1 X171.568 Y58.378 E15.09620
G1 X171.250 Y59.563 E15.14531
G1 F1800.000 E14.14531
G92 E0
G1 Z0.850 F7800.000
G1 X159.675 Y59.825 F7800.000
G1 E1.00000 F1800.000
G1 X159.675 Y40.175 E1.71483 F600.000
G1 X190.575 Y40.175 E2.83892
G1 X190.575 Y47.165 E3.09321
G1 X220.325 Y47.165 E4.17546
G1 X220.325 Y59.825 E4.63601
G1 X159.727 Y59.825 E6.84044
G1 X159.937 Y53.326 F7800.000
G1 X160.834 Y53.086 E6.87759 F1658.024
G1 X162.041 Y48.579 E7.06423
G1 X159.937 Y46.474 E7.18328
G1 X159.937 Y41.032 E7.40098
G1 X160.049 Y41.144 E7.40735
G1 X159.937 Y41.564 E7.42473
G1 X159.937 Y43.051 E7.48421
G1 X160.421 Y41.244 E7.55905
G1 X163.434 Y40.437 E7.68384
G1 X164.784 Y40.437 E7.73782
G1 X167.484 Y43.137 E7.89055
G1 X166.276 Y47.644 E8.07719
G1 X162.413 Y48.679 E8.23717
G1 X161.205 Y53.186 E8.42381
G1 X164.033 Y56.014 E8.58379
G1 X163.082 Y59.563 E8.73078
G1 X163.481 Y59.563 E8.74672
G1 X164.405 Y56.113 E8.88959
G1 X168.268 Y55.078 E9.04957
G1 X169.476 Y50.571 E9.23621
G1 X166.648 Y47.743 E9.39619
G1 X167.855 Y43.236 E9.58283
G1 X171.719 Y42.201 E9.74280
G1 X172.191 Y40.437 E9.81587
G1 X172.590 Y40.437 E9.83181
G1 X172.090 Y42.301 E9.90900
G1 X174.918 Y45.129 E10.06898
G1 X173.711 Y49.636 E10.25562
G1 X169.848 Y50.671 E10.41560
G1 X168.640 Y55.178 E10.60224
G1 X171.468 Y58.006 E10.76221
G1 X171.051 Y59.563 E10.82671
G1 X171.449 Y59.563 E10.84265
G1 X171.840 Y58.105 E10.90303
G1 X175.703 Y57.070 E11.06300
G1 X176.910 Y52.563 E11.24964
G1 X174.082 Y49.735 E11.40962
G1 X175.290 Y45.228 E11.59626
G1 X179.153 Y44.193 E11.75624
G1 X180.160 Y40.437 E11.91180
G1 X180.558 Y40.437 E11.92774
G1 X179.525 Y44.293 E12.08743
G1 X182.353 Y47.121 E12.24740
G1 X181.145 Y51.628 E12.43404
G1 X177.282 Y52.663 E12.59402
G1 X176.075 Y57.170 E12.78066
G1 X178.468 Y59.563 E12.91606
G1 X181.268 Y59.563 E13.02804
G1 X183.137 Y59.062 E13.10547
G1 X184.345 Y54.555 E13.29211
G1 X181.517 Y51.727 E13.45209
G1 X182.725 Y47.220 E13.63873
G1 X186.588 Y46.185 E13.79871
G1 X187.796 Y41.678 E13.98535
G1 X186.554 Y40.437 E14.05558
G1 X190.313 Y41.203 E14.20906
G1 X188.167 Y41.778 E14.29793
G1 X186.960 Y46.285 E14.48457
G1 X189.788 Y49.113 E14.64455
G1 X188.580 Y53.620 E14.83119
G1 X184.717 Y54.655 E14.99117
G1 X183.509 Y59.162 E15.17781
G1 X183.911 Y59.563 E15.20051
G1 X190.972 Y59.563 E15.48295
G1 X191.780 Y56.548 E15.60785
G1 X188.952 Y53.719 E15.76782
G1 X190.159 Y49.212 E15.95446
G1 X194.023 Y48.177 E16.11444
