; generated by Slic3r 1.0.0RC2 on 2014-01-04 at 13:42:40

; layer_height = 0.25
; perimeters = 1
; top_solid_layers = 1
; bottom_solid_layers = 1
; fill_density = 0.05
; perimeter_speed = 30
; infill_speed = 60
; travel_speed = 130
; nozzle_diameter = 0.35
; filament_diameter = 1.75
; extrusion_multiplier = 1
; perimeters extrusion width = 0.35mm
; infill extrusion width = 0.39mm
; solid infill extrusion width = 0.39mm
; top infill extrusion width = 0.39mm
; first layer extrusion width = 0.70mm

G21 ; set units to millimeters
M107
M104 S220 ; set temperature
G28 ; home all axes
G1 Z5 F5000 ; lift nozzle

M109 S220 ; wait for temperature to be reached
G90 ; use absolute coordinates
G92 E0
M82 ; use absolute distances for extrusion
G1 F1800.000 E-1.00000
G92 E0
G1 Z0.350 F7800.000
G1 X142.720 Y56.990 F7800.000
G1 E1.00000 F1800.000
G1 X143.450 Y55.630 E1.14035 F540.000
G1 X144.430 Y54.430 E1.28123
G1 X145.630 Y53.450 E1.42211
G1 X146.990 Y52.720 E1.56246
G1 X148.460 Y52.280 E1.70199
G1 X150.000 Y52.130 E1.84268
G1 X181.250 Y52.130 E4.68423
G1 X182.260 Y52.190 E4.77623
G1 X183.250 Y52.380 E4.86790
G1 X212.000 Y59.930 E7.57076
G1 X213.390 Y60.440 E7.70539
G1 X214.650 Y61.200 E7.83919
G1 X215.760 Y62.180 E7.97383
G1 X216.660 Y63.350 E8.10806
G1 X217.330 Y64.660 E8.24185
G1 X217.740 Y66.080 E8.37624
G1 X217.870 Y67.550 E8.51043
G1 X217.870 Y80.000 E9.64251
G1 X217.720 Y81.540 E9.78320
G1 X217.280 Y83.010 E9.92273
G1 X216.550 Y84.370 E10.06308
G1 X215.570 Y85.570 E10.20396
G1 X214.370 Y86.550 E10.34484
G1 X213.010 Y87.280 E10.48519
G1 X211.540 Y87.720 E10.62472
G1 X210.000 Y87.870 E10.76541
G1 X150.000 Y87.870 E16.22118
G1 X148.460 Y87.720 E16.36188
G1 X146.990 Y87.280 E16.50140
G1 X145.630 Y86.550 E16.64176
G1 X144.430 Y85.570 E16.78264
G1 X143.450 Y84.370 E16.92352
G1 X142.720 Y83.010 E17.06387
G1 X142.280 Y81.540 E17.20340
G1 X142.130 Y80.000 E17.34409
G1 X142.130 Y60.000 E19.16268
G1 X142.280 Y58.460 E19.30338
G1 X142.693 Y57.080 E19.43438
G1 X143.300 Y57.230 F7800.000
G1 X143.970 Y55.970 E19.56414 F540.000
G1 X144.870 Y54.870 E19.69337
G1 X145.970 Y53.970 E19.82261
G1 X147.230 Y53.300 E19.95237
G1 X148.590 Y52.890 E20.08153
G1 X150.000 Y52.750 E20.21037
G1 X181.250 Y52.750 E23.05192
G1 X182.180 Y52.810 E23.13666
G1 X183.090 Y52.990 E23.22101
G1 X211.840 Y60.540 E25.92388
G1 X213.120 Y61.000 E26.04756
G1 X214.280 Y61.700 E26.17075
G1 X215.300 Y62.600 E26.29444
G1 X216.130 Y63.680 E26.41830
G1 X216.740 Y64.890 E26.54151
G1 X217.120 Y66.200 E26.66554
G1 X217.250 Y67.550 E26.78886
G1 X217.250 Y80.000 E27.92094
G1 X217.110 Y81.410 E28.04978
G1 X216.700 Y82.770 E28.17894
G1 X216.030 Y84.030 E28.30870
G1 X215.130 Y85.130 E28.43794
G1 X214.030 Y86.030 E28.56717
G1 X212.770 Y86.700 E28.69693
G1 X211.410 Y87.110 E28.82610
G1 X210.000 Y87.250 E28.95494
G1 X150.000 Y87.250 E34.41071
G1 X148.590 Y87.110 E34.53955
G1 X147.230 Y86.700 E34.66872
G1 X145.970 Y86.030 E34.79848
G1 X144.870 Y85.130 E34.92771
G1 X143.970 Y84.030 E35.05695
G1 X143.300 Y82.770 E35.18671
G1 X142.890 Y81.410 E35.31587
G1 X142.750 Y80.000 E35.44471
G1 X142.750 Y60.000 E37.26330
G1 X142.890 Y58.590 E37.39215
G1 X143.273 Y57.320 E37.51278
G1 X143.880 Y57.460 F7800.000
G1 X144.490 Y56.320 E37.63035 F540.000
G1 X145.320 Y55.320 E37.74852
G1 X146.320 Y54.490 E37.86669
G1 X147.460 Y53.880 E37.98426
G1 X148.710 Y53.500 E38.10305
G1 X150.000 Y53.380 E38.22086
G1 X181.250 Y53.380 E41.06241
G1 X182.100 Y53.430 E41.13983
G1 X182.930 Y53.590 E41.21669
G1 X211.680 Y61.140 E43.91956
G1 X213.030 Y61.660 E44.05111
G1 X214.240 Y62.460 E44.18300
G1 X215.250 Y63.500 E44.31483
G1 X216.000 Y64.740 E44.44660
G1 X216.470 Y66.110 E44.57830
G1 X216.620 Y67.550 E44.70995
G1 X216.620 Y80.000 E45.84202
G1 X216.500 Y81.290 E45.95983
G1 X216.120 Y82.540 E46.07862
G1 X215.510 Y83.680 E46.19619
G1 X214.680 Y84.680 E46.31436
G1 X213.680 Y85.510 E46.43253
G1 X212.540 Y86.120 E46.55010
G1 X211.290 Y86.500 E46.66890
G1 X210.000 Y86.620 E46.78670
G1 X150.000 Y86.620 E52.24248
G1 X148.710 Y86.500 E52.36028
G1 X147.460 Y86.120 E52.47908
G1 X146.320 Y85.510 E52.59665
G1 X145.320 Y84.680 E52.71482
G1 X144.490 Y83.680 E52.83299
G1 X143.880 Y82.540 E52.95055
G1 X143.500 Y81.290 E53.06935
G1 X143.380 Y80.000 E53.18716
G1 X143.380 Y60.000 E55.00575
G1 X143.500 Y58.710 E55.12355
G1 X143.853 Y57.550 E55.23383
G1 F1800.000 E54.23383
G92 E0
G1 X150.350 Y60.350 F7800.000
G1 E1.00000 F1800.000
G1 X180.900 Y60.350 E3.77790 F378.000
G1 X180.900 Y67.900 E4.46442
G1 X209.650 Y67.900 E7.07864
G1 X209.650 Y79.650 E8.14707
G1 X150.350 Y79.650 E13.53919
G1 X150.350 Y60.444 E15.28561
G1 X150.834 Y79.228 F7800.000
G1 X150.772 Y79.166 E15.29371 F1080.000
G1 X150.772 Y78.278 E15.37479
G1 X151.722 Y79.228 E15.49755
G1 X152.610 Y79.228 E15.57863
G1 X150.772 Y77.390 E15.81605
G1 X150.772 Y76.503 E15.89713
G1 X153.497 Y79.228 E16.24921
G1 X154.385 Y79.228 E16.33028
G1 X150.772 Y75.615 E16.79702
G1 X150.772 Y74.727 E16.87809
G1 X155.273 Y79.228 E17.45948
G1 X156.160 Y79.228 E17.54056
G1 X150.772 Y73.840 E18.23661
G1 X150.772 Y72.952 E18.31768
G1 X157.048 Y79.228 E19.12839
G1 X157.936 Y79.228 E19.20947
G1 X150.772 Y72.064 E20.13483
G1 X150.772 Y71.177 E20.21591
G1 X158.823 Y79.228 E21.25593
G1 X159.711 Y79.228 E21.33700
G1 X150.772 Y70.289 E22.49168
G1 X150.772 Y69.401 E22.57276
G1 X160.599 Y79.228 E23.84209
G1 X161.486 Y79.228 E23.92317
G1 X150.772 Y68.514 E25.30716
G1 X150.772 Y67.626 E25.38824
G1 X162.374 Y79.228 E26.88689
G1 X163.262 Y79.228 E26.96796
G1 X150.772 Y66.738 E28.58127
G1 X150.772 Y65.851 E28.66234
G1 X164.149 Y79.228 E30.39031
G1 X165.037 Y79.228 E30.47138
G1 X150.772 Y64.963 E32.31401
G1 X150.772 Y64.075 E32.39508
G1 X165.925 Y79.228 E34.35236
G1 X166.812 Y79.228 E34.43344
G1 X150.772 Y63.188 E36.50537
G1 X150.772 Y62.300 E36.58645
G1 X167.700 Y79.228 E38.77304
G1 X168.588 Y79.228 E38.85411
G1 X150.772 Y61.412 E41.15536
G1 X151.019 Y60.772 E41.21808
G1 X169.475 Y79.228 E43.60208
G1 X170.363 Y79.228 E43.68315
G1 X151.906 Y60.772 E46.06715
G1 X152.794 Y60.772 E46.14822
G1 X171.251 Y79.228 E48.53222
G1 X172.138 Y79.228 E48.61330
G1 X153.682 Y60.772 E50.99730
G1 X154.569 Y60.772 E51.07837
G1 X173.026 Y79.228 E53.46237
G1 X173.914 Y79.228 E53.54344
G1 X155.457 Y60.772 E55.92744
G1 X156.345 Y60.772 E56.00852
G1 X174.801 Y79.228 E58.39252
G1 X175.689 Y79.228 E58.47359
G1 X157.232 Y60.772 E60.85759
G1 X158.120 Y60.772 E60.93867
G1 X176.577 Y79.228 E63.32266
G1 X177.464 Y79.228 E63.40374
G1 X159.008 Y60.772 E65.78774
G1 X159.895 Y60.772 E65.86881
G1 X178.352 Y79.228 E68.25281
G1 X179.240 Y79.228 E68.33389
G1 X160.783 Y60.772 E70.71789
G1 X161.671 Y60.772 E70.79896
G1 X180.127 Y79.228 E73.18296
G1 X181.015 Y79.228 E73.26403
G1 X162.558 Y60.772 E75.64803
G1 X163.446 Y60.772 E75.72911
G1 X181.903 Y79.228 E78.11311
G1 X182.790 Y79.228 E78.19418
G1 X164.334 Y60.772 E80.57818
G1 X165.221 Y60.772 E80.65925
G1 X183.678 Y79.228 E83.04325
G1 X184.566 Y79.228 E83.12433
G1 X166.109 Y60.772 E85.50833
G1 X166.997 Y60.772 E85.58940
G1 X185.453 Y79.228 E87.97340
G1 X186.341 Y79.228 E88.05448
G1 X167.884 Y60.772 E90.43847
G1 X168.772 Y60.772 E90.51955
G1 X187.229 Y79.228 E92.90355
G1 X188.116 Y79.228 E92.98462
G1 X169.660 Y60.772 E95.36862
G1 X170.547 Y60.772 E95.44970
G1 X189.004 Y79.228 E97.83370
G1 X189.892 Y79.228 E97.91477
G1 X171.435 Y60.772 E100.29877
G1 X172.323 Y60.772 E100.37984
G1 X190.779 Y79.228 E102.76384
G1 X191.667 Y79.228 E102.84492
G1 X173.210 Y60.772 E105.22892
G1 X174.098 Y60.772 E105.30999
G1 X180.478 Y67.152 E106.13412
G1 X180.478 Y66.264 E106.21520
G1 X174.986 Y60.772 E106.92468
G1 X175.873 Y60.772 E107.00575
G1 X180.478 Y65.377 E107.60057
G1 X180.478 Y64.489 E107.68164
G1 X176.761 Y60.772 E108.16181
G1 X177.649 Y60.772 E108.24288
G1 X180.478 Y63.601 E108.60839
G1 X180.478 Y62.714 E108.68946
G1 X178.536 Y60.772 E108.94031
G1 X179.424 Y60.772 E109.02138
G1 X180.478 Y61.826 E109.15757
G1 X180.478 Y60.938 E109.23865
G1 X180.312 Y60.772 E109.26018
G1 F1800.000 E108.26018
G92 E0
G1 X181.648 Y68.322 F7800.000
G1 E1.00000 F1800.000
G1 X192.555 Y79.228 E2.40879 F1080.000
G1 X193.442 Y79.228 E2.48986
G1 X182.536 Y68.322 E3.89865
G1 X183.423 Y68.322 E3.97973
G1 X194.330 Y79.228 E5.38851
G1 X195.218 Y79.228 E5.46959
G1 X184.311 Y68.322 E6.87838
G1 X185.199 Y68.322 E6.95945
G1 X196.105 Y79.228 E8.36824
G1 X196.993 Y79.228 E8.44931
G1 X186.086 Y68.322 E9.85810
G1 X186.974 Y68.322 E9.93918
G1 X197.881 Y79.228 E11.34797
G1 X198.768 Y79.228 E11.42904
G1 X187.862 Y68.322 E12.83783
G1 X188.749 Y68.322 E12.91890
G1 X199.656 Y79.228 E14.32769
G1 X200.544 Y79.228 E14.40877
G1 X189.637 Y68.322 E15.81755
G1 X190.525 Y68.322 E15.89863
G1 X201.431 Y79.228 E17.30742
G1 X202.319 Y79.228 E17.38849
G1 X191.412 Y68.322 E18.79728
G1 X192.300 Y68.322 E18.87835
G1 X203.207 Y79.228 E20.28714
G1 X204.094 Y79.228 E20.36822
G1 X193.188 Y68.322 E21.77701
G1 X194.075 Y68.322 E21.85808
G1 X204.982 Y79.228 E23.26687
G1 X205.870 Y79.228 E23.34794
G1 X194.963 Y68.322 E24.75673
G1 X195.851 Y68.322 E24.83781
G1 X206.757 Y79.228 E26.24659
G1 X207.645 Y79.228 E26.32767
G1 X196.738 Y68.322 E27.73646
G1 X197.626 Y68.322 E27.81753
G1 X208.533 Y79.228 E29.22632
G1 X209.228 Y79.036 E29.29223
G1 X198.514 Y68.322 E30.67622
G1 X199.401 Y68.322 E30.75730
G1 X209.228 Y78.149 E32.02663
G1 X209.228 Y77.261 E32.10770
G1 X200.289 Y68.322 E33.26238
G1 X201.177 Y68.322 E33.34345
G1 X209.228 Y76.373 E34.38347
G1 X209.228 Y75.486 E34.46454
G1 X202.064 Y68.322 E35.38990
G1 X202.952 Y68.322 E35.47098
G1 X209.228 Y74.598 E36.28168
G1 X209.228 Y73.710 E36.36275
G1 X203.840 Y68.322 E37.05880
G1 X204.727 Y68.322 E37.13987
G1 X209.228 Y72.823 E37.72126
G1 X209.228 Y71.935 E37.80234
G1 X205.615 Y68.322 E38.26907
G1 X206.503 Y68.322 E38.35014
G1 X209.228 Y71.047 E38.70222
G1 X209.228 Y70.160 E38.78329
G1 X207.390 Y68.322 E39.02071
G1 X208.278 Y68.322 E39.10178
G1 X209.228 Y69.272 E39.22454
G1 X209.228 Y68.384 E39.30562
G1 X209.166 Y68.322 E39.31372
M106 S255
M104 S220 ; set temperature
G1 F1800.000 E38.31372
G92 E0
G1 Z0.600 F7800.000
G1 X209.825 Y67.725 F7800.000
G1 E1.00000 F1800.000
G1 X209.825 Y79.825 E1.44018 F600.000
G1 X150.175 Y79.825 E3.61014
G1 X150.175 Y60.175 E4.32497
G1 X181.075 Y60.175 E5.44906
G1 X181.075 Y67.725 E5.72372
G1 X209.772 Y67.725 E6.76768
G1 X205.749 Y67.987 F7800.000
G1 X204.663 Y72.041 E6.93558 F1309.877
G1 X195.863 Y74.399 E7.29997
G1 X189.893 Y68.428 E7.63770
G1 X181.093 Y70.786 E8.00209
G1 X178.908 Y78.942 E8.33982
G1 X176.588 Y79.563 E8.43590
G1 X168.373 Y79.563 E8.76451
G1 X164.139 Y75.329 E9.00403
G1 X155.339 Y77.687 E9.36843
G1 X154.836 Y79.563 E9.44613
G1 X150.437 Y61.627 F7800.000
G1 X151.255 Y62.446 E9.49244 F1309.877
G1 X158.755 Y60.437 E9.80300
G1 X175.898 Y60.437 F7800.000
G1 X174.924 Y64.072 E9.95356 F1309.877
G1 X166.125 Y66.430 E10.31795
G1 X160.154 Y60.460 E10.65568
G1 X151.355 Y62.818 E11.02008
G1 X150.437 Y66.245 E11.16200
G1 X150.437 Y72.512 E11.41270
G1 X155.240 Y77.315 E11.68439
G1 X164.039 Y74.957 E12.04878
G1 X166.224 Y66.802 E12.38651
G1 X175.024 Y64.444 E12.75090
G1 X180.994 Y70.414 E13.08863
G1 X189.793 Y68.057 E13.45303
G1 X189.812 Y67.987 E13.45593
G1 X194.678 Y79.563 E13.95825
G1 X195.963 Y74.770 E14.15674
G1 X204.762 Y72.413 E14.52113
G1 X209.563 Y77.214 E14.79273
G1 X179.258 Y79.563 F7800.000
G1 X179.008 Y79.313 E14.80687 F1309.877
G1 X178.075 Y79.563 E14.84551
G1 F1800.000 E13.84551
G92 E0
G1 Z0.850 F7800.000
G1 X181.075 Y67.725 F7800.000
G1 E1.00000 F1800.000
G1 X209.825 Y67.725 E2.04588 F600.000
G1 X209.825 Y79.825 E2.48605
G1 X150.175 Y79.825 E4.65602
G1 X150.175 Y60.175 E5.37085
G1 X181.075 Y60.175 E6.49494
G1 X181.075 Y67.672 E6.76768
G1 X205.948 Y67.987 F7800.000
G1 X204.762 Y72.413 E6.95097 F1319.338
G1 X209.563 Y77.214 E7.22257
G1 X205.550 Y67.987 E7.62507
G1 X204.390 Y72.313 E7.80423
G1 X196.235 Y74.498 E8.14196
G1 X194.878 Y79.563 E8.35172
G1 X194.479 Y79.563 E8.36765
G1 X195.863 Y74.399 E8.58153
G1 X189.893 Y68.428 E8.91926
G1 X190.011 Y67.987 E8.93756
G1 X189.613 Y67.987 E8.95349
G1 X189.521 Y68.329 E8.96766
G1 X181.366 Y70.514 E9.30539
G1 X179.008 Y79.313 E9.66978
G1 X179.258 Y79.563 E9.68393
G1 X177.331 Y79.563 E9.76098
G1 X178.636 Y79.214 E9.81501
G1 X180.994 Y70.414 E10.17940
G1 X175.024 Y64.444 E10.51713
G1 X176.097 Y60.437 E10.68309
G1 X175.699 Y60.437 E10.69903
G1 X174.652 Y64.345 E10.86086
G1 X166.496 Y66.530 E11.19859
G1 X164.139 Y75.329 E11.56298
G1 X168.373 Y79.563 E11.80250
G1 X155.036 Y79.563 E12.33599
G1 X155.611 Y77.415 E12.42496
G1 X163.767 Y75.230 E12.76269
G1 X166.125 Y66.430 E13.12709
G1 X160.154 Y60.460 E13.46482
G1 X160.161 Y60.437 E13.46578
G1 X159.498 Y60.437 E13.49228
G1 X151.627 Y62.546 E13.81823
G1 X150.437 Y66.988 E14.00221
G1 X150.437 Y65.501 E14.06169
G1 X151.255 Y62.446 E14.18822
G1 X150.437 Y61.627 E14.23453
G1 X150.437 Y72.512 E14.66994
G1 X155.240 Y77.315 E14.94163
G1 X154.637 Y79.563 E15.03473
G1 F1800.000 E14.03473
G92 E0
G1 Z1.100 F7800.000
G1 X150.175 Y79.825 F7800.000
G1 E1.00000 F1800.000
G1 X150.175 Y60.175 E1.71483 F600.000
G1 X181.075 Y60.175 E2.83892
G1 X181.075 Y67.725 E3.11358
G1 X209.825 Y67.725 E4.15945
G1 X209.825 Y79.825 E4.59963
G1 X150.227 Y79.825 E6.76768
G1 X150.437 Y72.784 F7800.000
G1 X155.339 Y77.687 E7.04501 F1307.620
G1 X154.836 Y79.563 E7.12272
G1 X150.437 Y72.240 E7.46445
G1 X155.611 Y77.415 E7.75717
G1 X163.767 Y75.230 E8.09490
G1 X168.101 Y79.563 E8.34006
G1 X168.645 Y79.563 E8.36183
G1 X164.039 Y74.957 E8.62238
G1 X166.224 Y66.802 E8.96011
G1 X159.859 Y60.437 E9.32019
G1 X159.498 Y60.437 E9.33462
G1 X151.627 Y62.546 E9.66056
G1 X150.437 Y61.355 E9.72790
G1 X150.437 Y61.899 E9.74967
G1 X151.355 Y62.818 E9.80162
G1 X150.437 Y66.245 E9.94355
G1 X160.403 Y60.437 E10.40497
G1 X166.496 Y66.530 E10.74965
G1 X174.652 Y64.345 E11.08738
G1 X181.093 Y70.786 E11.45178
G1 X178.908 Y78.942 E11.78951
G1 X179.530 Y79.563 E11.82468
G1 X178.986 Y79.563 E11.84645
G1 X178.636 Y79.214 E11.86622
G1 X177.331 Y79.563 E11.92025
G1 X189.812 Y67.987 F7800.000
G1 X189.793 Y68.057 E11.92315 F1307.620
G1 X196.235 Y74.498 E12.28754
G1 X204.390 Y72.313 E12.62527
G1 X209.563 Y77.486 E12.91790
G1 X209.563 Y76.942 E12.93967
G1 X204.663 Y72.041 E13.21691
G1 X205.749 Y67.987 E13.38480
G1 X194.678 Y79.563 F7800.000
G1 X195.963 Y74.770 E13.58329 F1307.620
G1 X189.521 Y68.329 E13.94768
G1 X181.366 Y70.514 E14.28541
G1 X174.924 Y64.072 E14.64980
G1 X175.898 Y60.437 E14.80037
G1 F1800.000 E13.80037
G92 E0
G1 Z1.350 F7800.000
G1 X181.075 Y60.175 F7800.000
G1 E1.00000 F1800.000
G1 X181.075 Y67.725 E1.27466 F600.000
G1 X209.825 Y67.725 E2.32053
G1 X209.825 Y79.825 E2.76071
G1 X150.175 Y79.825 E4.93067
G1 X150.175 Y60.175 E5.64551
G1 X181.023 Y60.175 E6.76768
G1 X175.898 Y60.437 F7800.000
G1 X174.924 Y64.072 E6.91825 F1309.877
G1 X166.125 Y66.430 E7.28264
G1 X160.154 Y60.460 E7.62037
G1 X151.355 Y62.818 E7.98476
G1 X150.437 Y66.245 E8.12669
G1 X150.437 Y72.512 E8.37738
G1 X155.240 Y77.315 E8.64908
G1 X164.039 Y74.957 E9.01347
G1 X166.224 Y66.802 E9.35120
G1 X175.024 Y64.444 E9.71559
G1 X180.994 Y70.414 E10.05332
G1 X189.793 Y68.057 E10.41771
G1 X189.812 Y67.987 E10.42061
G1 X194.678 Y79.563 E10.92294
G1 X195.963 Y74.770 E11.12142
G1 X204.762 Y72.413 E11.48581
G1 X209.563 Y77.214 E11.75742
G1 X205.749 Y67.987 F7800.000
G1 X204.663 Y72.041 E11.92531 F1309.877
G1 X195.863 Y74.399 E12.28970
G1 X189.893 Y68.428 E12.62743
G1 X181.093 Y70.786 E12.99182
G1 X178.908 Y78.942 E13.32955
G1 X176.588 Y79.563 E13.42564
G1 X168.373 Y79.563 E13.75424
G1 X164.139 Y75.329 E13.99377
G1 X155.339 Y77.687 E14.35816
G1 X154.836 Y79.563 E14.43586
G1 X150.437 Y61.627 F7800.000
G1 X151.255 Y62.446 E14.48218 F1309.877
G1 X158.755 Y60.437 E14.79273
G1 X178.075 Y79.563 F7800.000
G1 X179.008 Y79.313 E14.83137 F1309.877
G1 X179.258 Y79.563 E14.84551
G1 F1800.000 E13.84551
G92 E0
G1 Z1.600 F7800.000
G1 X181.075 Y67.725 F7800.000
G1 E1.00000 F1800.000
G1 X209.825 Y67.725 E2.04588 F600.000
G1 X209.825 Y79.825 E2.48605
G1 X150.175 Y79.825 E4.65602
G1 X150.175 Y60.175 E5.37085
G1 X181.075 Y60.175 E6.49494
G1 X181.075 Y67.672 E6.76768
G1 X205.948 Y67.987 F7800.000
G1 X204.762 Y72.413 E6.95097 F1319.338
