; generated by Slic3r 1.0.0RC2 on 2014-01-03 at 18:04:08

; layer_height = 0.25
; perimeters = 3
; top_solid_layers = 3
; bottom_solid_layers = 3
; fill_density = 0.25
; perimeter_speed = 30
; infill_speed = 60
; travel_speed = 130
; nozzle_diameter = 0.35
; filament_diameter = 1.75
; extrusion_multiplier = 1
; perimeters extrusion width = 0.35mm
; infill extrusion width = 0.39mm
; solid infill extrusion width = 0.39mm
; top infill extrusion width = 0.39mm
; first layer extrusion width = 0.70mm

G21 ; set units to millimeters
M107
M104 S220 ; set temperature
G28 ; home all axes
G1 Z5 F5000 ; lift nozzle

M109 S220 ; wait for temperature to be reached
G90 ; use absolute coordinates
G92 E0
M82 ; use absolute distances for extrusion
G1 F1800.000 E-1.00000
G92 E0
G1 Z0.350 F7800.000
G1 X142.720 Y56.990 F7800.000
G1 E1.00000 F1800.000
G1 X143.450 Y55.630 E1.14035 F540.000
G1 X144.430 Y54.430 E1.28123
G1 X145.630 Y53.450 E1.42211
G1 X146.990 Y52.720 E1.56246
G1 X148.460 Y52.280 E1.70199
G1 X150.000 Y52.130 E1.84268
G1 X179.000 Y52.130 E4.47964
G1 X179.940 Y52.180 E4.56524
G1 X180.860 Y52.350 E4.65031
G1 X211.860 Y59.900 E7.55152
G1 X213.280 Y60.390 E7.68811
G1 X214.570 Y61.140 E7.82380
G1 X215.700 Y62.120 E7.95980
G1 X216.630 Y63.300 E8.09642
G1 X217.310 Y64.630 E8.23225
G1 X217.730 Y66.060 E8.36777
G1 X217.870 Y67.550 E8.50385
G1 X217.870 Y80.000 E9.63592
G1 X217.720 Y81.540 E9.77662
G1 X217.280 Y83.010 E9.91614
G1 X216.550 Y84.370 E10.05650
G1 X215.570 Y85.570 E10.19738
G1 X214.370 Y86.550 E10.33826
G1 X213.010 Y87.280 E10.47861
G1 X211.540 Y87.720 E10.61813
G1 X210.000 Y87.870 E10.75883
G1 X150.000 Y87.870 E16.21460
G1 X148.460 Y87.720 E16.35530
G1 X146.990 Y87.280 E16.49482
G1 X145.630 Y86.550 E16.63518
G1 X144.430 Y85.570 E16.77606
G1 X143.450 Y84.370 E16.91693
G1 X142.720 Y83.010 E17.05729
G1 X142.280 Y81.540 E17.19681
G1 X142.130 Y80.000 E17.33751
G1 X142.130 Y60.000 E19.15610
G1 X142.280 Y58.460 E19.29679
G1 X142.693 Y57.080 E19.42780
G1 X143.300 Y57.230 F7800.000
G1 X143.970 Y55.970 E19.55756 F540.000
G1 X144.870 Y54.870 E19.68679
G1 X145.970 Y53.970 E19.81603
G1 X147.230 Y53.300 E19.94579
G1 X148.590 Y52.890 E20.07495
G1 X150.000 Y52.750 E20.20379
G1 X179.000 Y52.750 E22.84075
G1 X179.860 Y52.800 E22.91908
G1 X180.720 Y52.960 E22.99862
G1 X211.720 Y60.510 E25.89984
G1 X213.020 Y60.960 E26.02493
G1 X214.210 Y61.650 E26.15001
G1 X215.250 Y62.550 E26.27507
G1 X216.100 Y63.630 E26.40004
G1 X216.730 Y64.860 E26.52570
G1 X217.120 Y66.180 E26.65086
G1 X217.250 Y67.550 E26.77599
G1 X217.250 Y80.000 E27.90806
G1 X217.110 Y81.410 E28.03690
G1 X216.700 Y82.770 E28.16606
G1 X216.030 Y84.030 E28.29583
G1 X215.130 Y85.130 E28.42506
G1 X214.030 Y86.030 E28.55430
G1 X212.770 Y86.700 E28.68406
G1 X211.410 Y87.110 E28.81322
G1 X210.000 Y87.250 E28.94206
G1 X150.000 Y87.250 E34.39784
G1 X148.590 Y87.110 E34.52668
G1 X147.230 Y86.700 E34.65584
G1 X145.970 Y86.030 E34.78560
G1 X144.870 Y85.130 E34.91484
G1 X143.970 Y84.030 E35.04407
G1 X143.300 Y82.770 E35.17383
G1 X142.890 Y81.410 E35.30300
G1 X142.750 Y80.000 E35.43184
G1 X142.750 Y60.000 E37.25043
G1 X142.890 Y58.590 E37.37927
G1 X143.273 Y57.320 E37.49991
G1 X143.880 Y57.460 F7800.000
G1 X144.490 Y56.320 E37.61747 F540.000
G1 X145.320 Y55.320 E37.73564
G1 X146.320 Y54.490 E37.85381
G1 X147.460 Y53.880 E37.97138
G1 X148.710 Y53.500 E38.09018
G1 X150.000 Y53.380 E38.20798
G1 X179.000 Y53.380 E40.84494
G1 X179.790 Y53.420 E40.91687
G1 X180.570 Y53.560 E40.98893
G1 X211.570 Y61.110 E43.89014
G1 X212.950 Y61.620 E44.02392
G1 X214.180 Y62.410 E44.15684
G1 X215.210 Y63.460 E44.29059
G1 X215.980 Y64.700 E44.42331
G1 X216.460 Y66.090 E44.55703
G1 X216.620 Y67.550 E44.69058
G1 X216.620 Y80.000 E45.82265
G1 X216.500 Y81.290 E45.94046
G1 X216.120 Y82.540 E46.05926
G1 X215.510 Y83.680 E46.17682
G1 X214.680 Y84.680 E46.29499
G1 X213.680 Y85.510 E46.41316
G1 X212.540 Y86.120 E46.53073
G1 X211.290 Y86.500 E46.64953
G1 X210.000 Y86.620 E46.76733
G1 X150.000 Y86.620 E52.22311
G1 X148.710 Y86.500 E52.34091
G1 X147.460 Y86.120 E52.45971
G1 X146.320 Y85.510 E52.57728
G1 X145.320 Y84.680 E52.69545
G1 X144.490 Y83.680 E52.81362
G1 X143.880 Y82.540 E52.93118
G1 X143.500 Y81.290 E53.04998
G1 X143.380 Y80.000 E53.16779
G1 X143.380 Y60.000 E54.98638
G1 X143.500 Y58.710 E55.10418
G1 X143.853 Y57.550 E55.21446
G1 F1800.000 E54.21446
G92 E0
G1 X151.600 Y61.600 F7800.000
G1 E1.00000 F1800.000
G1 X177.400 Y61.600 E3.34602 F540.000
G1 X177.400 Y69.150 E4.03254
G1 X208.400 Y69.150 E6.85136
G1 X208.400 Y78.400 E7.69250
G1 X151.600 Y78.400 E12.85734
G1 X151.600 Y61.694 E14.37647
G1 X150.975 Y60.975 F7800.000
G1 X178.025 Y60.975 E16.83614 F540.000
G1 X178.025 Y68.525 E17.52266
G1 X209.025 Y68.525 E20.34147
G1 X209.025 Y79.025 E21.29625
G1 X150.975 Y79.025 E26.57474
G1 X150.975 Y61.069 E28.20751
G1 X150.350 Y60.350 F7800.000
G1 X178.650 Y60.350 E30.78082 F378.000
G1 X178.650 Y67.900 E31.46734
G1 X209.650 Y67.900 E34.28615
G1 X209.650 Y79.650 E35.35458
G1 X150.350 Y79.650 E40.74670
G1 X150.350 Y60.444 E42.49312
G1 X150.891 Y60.662 F7800.000
G1 X152.084 Y77.979 F7800.000
G1 X152.021 Y77.916 E42.50131 F1080.000
G1 X152.021 Y77.023 E42.58322
G1 X152.977 Y77.979 E42.70724
G1 X153.869 Y77.979 E42.78915
G1 X152.021 Y76.131 E43.02900
G1 X152.021 Y75.239 E43.11091
G1 X154.761 Y77.979 E43.46660
G1 X155.653 Y77.979 E43.54850
G1 X152.021 Y74.347 E44.02003
G1 X152.021 Y73.455 E44.10193
G1 X156.545 Y77.979 E44.68929
G1 X157.438 Y77.979 E44.77120
G1 X152.021 Y72.562 E45.47438
G1 X152.021 Y71.670 E45.55629
G1 X158.330 Y77.979 E46.37531
G1 X159.222 Y77.979 E46.45722
G1 X152.021 Y70.778 E47.39207
G1 X152.021 Y69.886 E47.47398
G1 X160.114 Y77.979 E48.52467
G1 X161.006 Y77.979 E48.60657
G1 X152.021 Y68.994 E49.77309
G1 X152.021 Y68.101 E49.85500
G1 X161.899 Y77.979 E51.13735
G1 X162.791 Y77.979 E51.21926
G1 X152.021 Y67.209 E52.61745
G1 X152.021 Y66.317 E52.69935
G1 X163.683 Y77.979 E54.21337
G1 X164.575 Y77.979 E54.29528
G1 X152.021 Y65.425 E55.92513
G1 X152.021 Y64.533 E56.00704
G1 X165.467 Y77.979 E57.75272
G1 X166.360 Y77.979 E57.83463
G1 X152.021 Y63.640 E59.69615
G1 X152.021 Y62.748 E59.77805
G1 X167.252 Y77.979 E61.75540
G1 X168.144 Y77.979 E61.83731
G1 X152.187 Y62.021 E63.90903
G1 X153.079 Y62.021 E63.99094
G1 X169.036 Y77.979 E66.06266
G1 X169.928 Y77.979 E66.14457
G1 X153.971 Y62.021 E68.21629
G1 X154.863 Y62.021 E68.29819
G1 X170.821 Y77.979 E70.36992
G1 X171.713 Y77.979 E70.45182
G1 X155.755 Y62.021 E72.52354
G1 X156.648 Y62.021 E72.60545
G1 X172.605 Y77.979 E74.67717
G1 X173.497 Y77.979 E74.75908
G1 X157.540 Y62.021 E76.83080
G1 X158.432 Y62.021 E76.91271
G1 X174.389 Y77.979 E78.98443
G1 X175.282 Y77.979 E79.06633
G1 X159.324 Y62.021 E81.13806
G1 X160.216 Y62.021 E81.21996
G1 X176.174 Y77.979 E83.29168
G1 X177.066 Y77.979 E83.37359
G1 X161.109 Y62.021 E85.44531
G1 X162.001 Y62.021 E85.52722
G1 X177.958 Y77.979 E87.59894
G1 X178.851 Y77.979 E87.68085
G1 X162.893 Y62.021 E89.75257
G1 X163.785 Y62.021 E89.83447
G1 X179.743 Y77.979 E91.90620
G1 X180.635 Y77.979 E91.98810
G1 X164.677 Y62.021 E94.05982
G1 X165.570 Y62.021 E94.14173
G1 X181.527 Y77.979 E96.21345
G1 X182.419 Y77.979 E96.29536
G1 X166.462 Y62.021 E98.36708
G1 X167.354 Y62.021 E98.44899
G1 X183.312 Y77.979 E100.52071
G1 X184.204 Y77.979 E100.60261
G1 X168.246 Y62.021 E102.67434
G1 X169.138 Y62.021 E102.75624
G1 X185.096 Y77.979 E104.82796
G1 X185.988 Y77.979 E104.90987
G1 X177.581 Y69.571 E106.00139
G1 X176.979 Y68.969 F7800.000
G1 X170.031 Y62.021 E106.90344 F1080.000
G1 X170.923 Y62.021 E106.98535
G1 X176.979 Y68.077 E107.77156
G1 X176.979 Y67.185 E107.85347
G1 X171.815 Y62.021 E108.52385
G1 X172.707 Y62.021 E108.60576
G1 X176.979 Y66.293 E109.16031
G1 X176.979 Y65.400 E109.24222
G1 X173.600 Y62.021 E109.68093
G1 X174.492 Y62.021 E109.76284
G1 X176.979 Y64.508 E110.08572
G1 X176.979 Y63.616 E110.16763
G1 X175.384 Y62.021 E110.37468
G1 X176.276 Y62.021 E110.45659
G1 X176.979 Y62.724 E110.54781
G1 X178.473 Y69.571 F7800.000
G1 X186.880 Y77.979 E111.63933 F1080.000
G1 X187.773 Y77.979 E111.72124
G1 X179.365 Y69.571 E112.81276
G1 X180.257 Y69.571 E112.89466
G1 X188.665 Y77.979 E113.98619
G1 X189.557 Y77.979 E114.06809
G1 X181.150 Y69.571 E115.15962
G1 X182.042 Y69.571 E115.24152
G1 X190.449 Y77.979 E116.33305
G1 X191.341 Y77.979 E116.41495
G1 X182.934 Y69.571 E117.50648
G1 X183.826 Y69.571 E117.58838
G1 X192.234 Y77.979 E118.67991
G1 X193.126 Y77.979 E118.76181
G1 X184.718 Y69.571 E119.85334
G1 X185.611 Y69.571 E119.93524
G1 X194.018 Y77.979 E121.02676
G1 X194.910 Y77.979 E121.10867
G1 X186.503 Y69.571 E122.20019
G1 X187.395 Y69.571 E122.28210
G1 X195.802 Y77.979 E123.37362
G1 X196.695 Y77.979 E123.45553
G1 X188.287 Y69.571 E124.54705
G1 X189.179 Y69.571 E124.62896
G1 X197.587 Y77.979 E125.72048
G1 X198.479 Y77.979 E125.80239
G1 X190.072 Y69.571 E126.89391
G1 X190.964 Y69.571 E126.97582
G1 X199.371 Y77.979 E128.06734
G1 X200.263 Y77.979 E128.14925
G1 X191.856 Y69.571 E129.24077
G1 X192.748 Y69.571 E129.32268
G1 X201.156 Y77.979 E130.41420
G1 X202.048 Y77.979 E130.49611
G1 X193.640 Y69.571 E131.58763
G1 X194.533 Y69.571 E131.66954
G1 X202.940 Y77.979 E132.76106
G1 X203.832 Y77.979 E132.84297
G1 X195.425 Y69.571 E133.93449
G1 X196.317 Y69.571 E134.01640
G1 X204.724 Y77.979 E135.10792
G1 X205.617 Y77.979 E135.18983
G1 X197.209 Y69.571 E136.28135
G1 X198.101 Y69.571 E136.36325
G1 X206.509 Y77.979 E137.45478
G1 X207.401 Y77.979 E137.53668
G1 X198.994 Y69.571 E138.62821
G1 X199.886 Y69.571 E138.71011
G1 X207.979 Y77.664 E139.76080
G1 X207.979 Y76.772 E139.84270
G1 X200.778 Y69.571 E140.77755
G1 X201.670 Y69.571 E140.85946
G1 X207.979 Y75.880 E141.67847
G1 X207.979 Y74.988 E141.76038
G1 X202.562 Y69.571 E142.46356
G1 X203.455 Y69.571 E142.54547
G1 X207.979 Y74.095 E143.13282
G1 X207.979 Y73.203 E143.21473
G1 X204.347 Y69.571 E143.68625
G1 X205.239 Y69.571 E143.76815
G1 X207.979 Y72.311 E144.12384
G1 X207.979 Y71.419 E144.20574
G1 X206.131 Y69.571 E144.44559
G1 X207.023 Y69.571 E144.52750
G1 X207.979 Y70.527 E144.65152
G1 X207.979 Y69.634 E144.73343
G1 X207.916 Y69.571 E144.74161
M106 S126
M104 S220 ; set temperature
G1 F1800.000 E143.74161
G92 E0
G1 Z0.600 F7800.000
G1 X209.125 Y68.425 F7800.000
G1 E1.00000 F1800.000
G1 X209.125 Y79.125 E1.38925 F1800
G1 X150.875 Y79.125 E3.50828
G1 X150.875 Y60.875 E4.17219
G1 X178.125 Y60.875 E5.16349
G1 X178.125 Y68.425 E5.43815
G1 X209.072 Y68.425 E6.56397
G1 X209.475 Y68.075 F7800.000
G1 X209.475 Y79.475 E6.97868 F1800
G1 X150.525 Y79.475 E9.12318
G1 X150.525 Y60.525 E9.81255
G1 X178.475 Y60.525 E10.82932
G1 X178.475 Y68.075 E11.10397
G1 X209.423 Y68.075 E12.22979
G1 X209.825 Y67.725 F7800.000
G1 X209.825 Y79.825 E12.66997 F1260
G1 X150.175 Y79.825 E14.83993
G1 X150.175 Y60.175 E15.55477
G1 X178.825 Y60.175 E16.59700
G1 X178.825 Y67.725 E16.87166
G1 X209.772 Y67.725 E17.99748
G1 X209.650 Y68.028 F7800.000
G1 X208.883 Y78.844 F7800.000
G1 X208.844 Y78.883 E17.99967 F3600
G1 X208.297 Y78.883 E18.02164
G1 X208.883 Y78.297 E18.05491
G1 X208.883 Y77.751 E18.07689
G1 X207.751 Y78.883 E18.14123
G1 X207.204 Y78.883 E18.16320
G1 X208.883 Y77.204 E18.25861
G1 X208.883 Y76.657 E18.28059
G1 X206.657 Y78.883 E18.40707
G1 X206.110 Y78.883 E18.42905
G1 X208.883 Y76.110 E18.58661
G1 X208.883 Y75.563 E18.60858
G1 X205.563 Y78.883 E18.79721
G1 X205.017 Y78.883 E18.81918
G1 X208.883 Y75.017 E19.03889
G1 X208.883 Y74.470 E19.06086
G1 X204.470 Y78.883 E19.31164
G1 X203.923 Y78.883 E19.33361
G1 X208.883 Y73.923 E19.61546
G1 X208.883 Y73.376 E19.63743
G1 X203.376 Y78.883 E19.95035
G1 X202.830 Y78.883 E19.97232
G1 X208.883 Y72.830 E20.31632
G1 X208.883 Y72.283 E20.33829
G1 X202.283 Y78.883 E20.71336
G1 X201.736 Y78.883 E20.73533
G1 X208.883 Y71.736 E21.14147
G1 X208.883 Y71.189 E21.16344
G1 X201.189 Y78.883 E21.60066
G1 X200.643 Y78.883 E21.62263
G1 X208.883 Y70.643 E22.09091
G1 X208.883 Y70.096 E22.11289
G1 X200.096 Y78.883 E22.61224
G1 X199.549 Y78.883 E22.63422
G1 X208.883 Y69.549 E23.16465
G1 X208.883 Y69.002 E23.18662
G1 X199.002 Y78.883 E23.74812
G1 X198.456 Y78.883 E23.77009
G1 X208.671 Y68.667 E24.35064
G1 X208.124 Y68.667 E24.37261
G1 X197.909 Y78.883 E24.95316
G1 X197.362 Y78.883 E24.97513
G1 X207.578 Y68.667 E25.55567
G1 X207.031 Y68.667 E25.57765
G1 X196.815 Y78.883 E26.15819
G1 X196.268 Y78.883 E26.18016
G1 X206.484 Y68.667 E26.76071
G1 X205.937 Y68.667 E26.78268
G1 X195.722 Y78.883 E27.36323
G1 X195.175 Y78.883 E27.38520
G1 X205.390 Y68.667 E27.96574
G1 X204.844 Y68.667 E27.98771
G1 X194.628 Y78.883 E28.56826
G1 X194.081 Y78.883 E28.59023
G1 X204.297 Y68.667 E29.17078
G1 X203.750 Y68.667 E29.19275
G1 X193.535 Y78.883 E29.77329
G1 X192.988 Y78.883 E29.79527
G1 X203.203 Y68.667 E30.37581
G1 X202.657 Y68.667 E30.39778
G1 X192.441 Y78.883 E30.97833
G1 X191.894 Y78.883 E31.00030
G1 X202.110 Y68.667 E31.58084
G1 X201.563 Y68.667 E31.60282
G1 X191.348 Y78.883 E32.18336
G1 X190.801 Y78.883 E32.20533
G1 X201.016 Y68.667 E32.78588
G1 X200.470 Y68.667 E32.80785
G1 X190.254 Y78.883 E33.38840
G1 X189.707 Y78.883 E33.41037
G1 X199.923 Y68.667 E33.99091
G1 X199.376 Y68.667 E34.01288
G1 X189.161 Y78.883 E34.59343
G1 X188.614 Y78.883 E34.61540
G1 X198.829 Y68.667 E35.19595
G1 X198.283 Y68.667 E35.21792
G1 X188.067 Y78.883 E35.79846
G1 X187.520 Y78.883 E35.82044
G1 X197.736 Y68.667 E36.40098
G1 X197.189 Y68.667 E36.42295
G1 X186.973 Y78.883 E37.00350
G1 X186.427 Y78.883 E37.02547
G1 X196.642 Y68.667 E37.60602
G1 X196.095 Y68.667 E37.62799
G1 X185.880 Y78.883 E38.20853
G1 X185.333 Y78.883 E38.23050
G1 X195.549 Y68.667 E38.81105
G1 X195.002 Y68.667 E38.83302
G1 X184.786 Y78.883 E39.41357
G1 X184.240 Y78.883 E39.43554
G1 X194.455 Y68.667 E40.01608
G1 X193.908 Y68.667 E40.03806
G1 X183.693 Y78.883 E40.61860
G1 X183.146 Y78.883 E40.64057
G1 X193.362 Y68.667 E41.22112
G1 X192.815 Y68.667 E41.24309
G1 X182.599 Y78.883 E41.82363
G1 X182.053 Y78.883 E41.84561
G1 X192.268 Y68.667 E42.42615
G1 X191.721 Y68.667 E42.44812
G1 X181.506 Y78.883 E43.02867
G1 X180.959 Y78.883 E43.05064
G1 X191.175 Y68.667 E43.63119
G1 X190.628 Y68.667 E43.65316
G1 X180.412 Y78.883 E44.23370
G1 X179.865 Y78.883 E44.25567
G1 X190.081 Y68.667 E44.83622
G1 X189.534 Y68.667 E44.85819
G1 X179.319 Y78.883 E45.43874
G1 X178.772 Y78.883 E45.46071
G1 X188.987 Y68.667 E46.04125
G1 X188.441 Y68.667 E46.06323
G1 X178.225 Y78.883 E46.64377
G1 X177.678 Y78.883 E46.66574
G1 X187.894 Y68.667 E47.24629
G1 X187.347 Y68.667 E47.26826
G1 X177.132 Y78.883 E47.84881
G1 X176.585 Y78.883 E47.87078
G1 X186.800 Y68.667 E48.45132
G1 X186.254 Y68.667 E48.47329
G1 X176.038 Y78.883 E49.05384
G1 X175.491 Y78.883 E49.07581
G1 X185.707 Y68.667 E49.65636
G1 X185.160 Y68.667 E49.67833
G1 X174.945 Y78.883 E50.25887
G1 X174.398 Y78.883 E50.28085
G1 X184.613 Y68.667 E50.86139
G1 X184.067 Y68.667 E50.88336
G1 X173.851 Y78.883 E51.46391
G1 X173.304 Y78.883 E51.48588
G1 X183.520 Y68.667 E52.06642
G1 X182.973 Y68.667 E52.08840
G1 X172.758 Y78.883 E52.66894
G1 X172.211 Y78.883 E52.69091
G1 X182.426 Y68.667 E53.27146
G1 X181.880 Y68.667 E53.29343
G1 X171.664 Y78.883 E53.87398
G1 X171.117 Y78.883 E53.89595
G1 X181.333 Y68.667 E54.47649
G1 X180.786 Y68.667 E54.49846
G1 X170.570 Y78.883 E55.07901
G1 X170.024 Y78.883 E55.10098
G1 X180.239 Y68.667 E55.68153
G1 X179.692 Y68.667 E55.70350
G1 X169.477 Y78.883 E56.28404
G1 X168.930 Y78.883 E56.30602
G1 X179.146 Y68.667 E56.88656
G1 X178.599 Y68.667 E56.90853
G1 X168.383 Y78.883 E57.48908
G1 X167.837 Y78.883 E57.51105
G1 X178.052 Y68.667 E58.09160
G1 X177.883 Y68.290 E58.10822
G1 X167.290 Y78.883 E58.71021
G1 X166.743 Y78.883 E58.73218
G1 X177.883 Y67.743 E59.36525
G1 X177.883 Y67.196 E59.38722
G1 X166.196 Y78.883 E60.05135
G1 X165.650 Y78.883 E60.07332
G1 X177.883 Y66.650 E60.76853
G1 X177.883 Y66.103 E60.79051
G1 X165.103 Y78.883 E61.51679
G1 X164.556 Y78.883 E61.53876
G1 X177.883 Y65.556 E62.29611
G1 X177.883 Y65.009 E62.31809
G1 X164.009 Y78.883 E63.10651
G1 X163.463 Y78.883 E63.12848
G1 X177.883 Y64.463 E63.94798
G1 X177.883 Y63.916 E63.96996
G1 X162.916 Y78.883 E64.82053
G1 X162.369 Y78.883 E64.84250
G1 X177.883 Y63.369 E65.72414
G1 X177.883 Y62.822 E65.74612
