; generated by Slic3r 1.0.0RC2 on 2014-01-04 at 13:51:05

; layer_height = 0.25
; perimeters = 1
; top_solid_layers = 1
; bottom_solid_layers = 1
; fill_density = 0.05
; perimeter_speed = 30
; infill_speed = 60
; travel_speed = 130
; nozzle_diameter = 0.35
; filament_diameter = 1.75
; extrusion_multiplier = 1
; perimeters extrusion width = 0.35mm
; infill extrusion width = 0.39mm
; solid infill extrusion width = 0.39mm
; top infill extrusion width = 0.39mm
; first layer extrusion width = 0.70mm

G21 ; set units to millimeters
M107
M104 S220 ; set temperature
G28 ; home all axes
G1 Z5 F5000 ; lift nozzle

M109 S220 ; wait for temperature to be reached
G90 ; use absolute coordinates
G92 E0
M82 ; use absolute distances for extrusion
G1 F1800.000 E-1.00000
G92 E0
G1 Z0.350 F7800.000
G1 X152.280 Y38.460 F7800.000
G1 E1.00000 F1800.000
G1 X152.720 Y36.990 E1.13953 F540.000
G1 X153.450 Y35.630 E1.27988
G1 X154.430 Y34.430 E1.42076
G1 X155.630 Y33.450 E1.56164
G1 X156.990 Y32.720 E1.70199
G1 X158.460 Y32.280 E1.84152
G1 X160.000 Y32.130 E1.98221
G1 X191.250 Y32.130 E4.82376
G1 X192.260 Y32.190 E4.91576
G1 X193.250 Y32.380 E5.00742
G1 X222.000 Y39.930 E7.71029
G1 X223.390 Y40.440 E7.84492
G1 X224.650 Y41.200 E7.97872
G1 X225.760 Y42.180 E8.11336
G1 X226.660 Y43.350 E8.24758
G1 X227.330 Y44.660 E8.38138
G1 X227.740 Y46.080 E8.51577
G1 X227.870 Y47.550 E8.64996
G1 X227.870 Y60.000 E9.78203
G1 X227.720 Y61.540 E9.92273
G1 X227.280 Y63.010 E10.06225
G1 X226.550 Y64.370 E10.20260
G1 X225.570 Y65.570 E10.34348
G1 X224.370 Y66.550 E10.48436
G1 X223.010 Y67.280 E10.62472
G1 X221.540 Y67.720 E10.76424
G1 X220.000 Y67.870 E10.90494
G1 X160.000 Y67.870 E16.36071
G1 X158.460 Y67.720 E16.50140
G1 X156.990 Y67.280 E16.64093
G1 X155.630 Y66.550 E16.78128
G1 X154.430 Y65.570 E16.92216
G1 X153.450 Y64.370 E17.06304
G1 X152.720 Y63.010 E17.20340
G1 X152.280 Y61.540 E17.34292
G1 X152.130 Y60.000 E17.48362
G1 X152.130 Y40.000 E19.30221
G1 X152.271 Y38.553 E19.43438
G1 X152.890 Y38.590 F7800.000
G1 X153.300 Y37.230 E19.56354 F540.000
G1 X153.970 Y35.970 E19.69330
G1 X154.870 Y34.870 E19.82254
G1 X155.970 Y33.970 E19.95177
G1 X157.230 Y33.300 E20.08153
G1 X158.590 Y32.890 E20.21070
G1 X160.000 Y32.750 E20.33954
G1 X191.250 Y32.750 E23.18109
G1 X192.180 Y32.810 E23.26583
G1 X193.090 Y32.990 E23.35018
G1 X221.840 Y40.540 E26.05304
G1 X223.120 Y41.000 E26.17672
G1 X224.280 Y41.700 E26.29991
G1 X225.300 Y42.600 E26.42360
G1 X226.130 Y43.680 E26.54746
G1 X226.740 Y44.890 E26.67068
G1 X227.120 Y46.200 E26.79470
G1 X227.250 Y47.550 E26.91803
G1 X227.250 Y60.000 E28.05010
G1 X227.110 Y61.410 E28.17894
G1 X226.700 Y62.770 E28.30810
G1 X226.030 Y64.030 E28.43786
G1 X225.130 Y65.130 E28.56710
G1 X224.030 Y66.030 E28.69633
G1 X222.770 Y66.700 E28.82610
G1 X221.410 Y67.110 E28.95526
G1 X220.000 Y67.250 E29.08410
G1 X160.000 Y67.250 E34.53987
G1 X158.590 Y67.110 E34.66872
G1 X157.230 Y66.700 E34.79788
G1 X155.970 Y66.030 E34.92764
G1 X154.870 Y65.130 E35.05687
G1 X153.970 Y64.030 E35.18611
G1 X153.300 Y62.770 E35.31587
G1 X152.890 Y61.410 E35.44503
G1 X152.750 Y60.000 E35.57387
G1 X152.750 Y40.000 E37.39247
G1 X152.881 Y38.683 E37.51278
G1 X153.500 Y38.710 F7800.000
G1 X153.880 Y37.460 E37.63158 F540.000
G1 X154.490 Y36.320 E37.74915
G1 X155.320 Y35.320 E37.86732
G1 X156.320 Y34.490 E37.98549
G1 X157.460 Y33.880 E38.10306
G1 X158.710 Y33.500 E38.22185
G1 X160.000 Y33.380 E38.33966
G1 X191.250 Y33.380 E41.18121
G1 X192.100 Y33.430 E41.25863
G1 X192.930 Y33.590 E41.33549
G1 X221.680 Y41.140 E44.03836
G1 X223.030 Y41.660 E44.16990
G1 X224.240 Y42.460 E44.30180
G1 X225.250 Y43.500 E44.43363
G1 X226.000 Y44.740 E44.56540
G1 X226.470 Y46.110 E44.69710
G1 X226.620 Y47.550 E44.82875
G1 X226.620 Y60.000 E45.96082
G1 X226.500 Y61.290 E46.07862
G1 X226.120 Y62.540 E46.19742
G1 X225.510 Y63.680 E46.31499
G1 X224.680 Y64.680 E46.43316
G1 X223.680 Y65.510 E46.55133
G1 X222.540 Y66.120 E46.66890
G1 X221.290 Y66.500 E46.78769
G1 X220.000 Y66.620 E46.90550
G1 X160.000 Y66.620 E52.36127
G1 X158.710 Y66.500 E52.47908
G1 X157.460 Y66.120 E52.59788
G1 X156.320 Y65.510 E52.71545
G1 X155.320 Y64.680 E52.83362
G1 X154.490 Y63.680 E52.95179
G1 X153.880 Y62.540 E53.06935
G1 X153.500 Y61.290 E53.18815
G1 X153.380 Y60.000 E53.30596
G1 X153.380 Y40.000 E55.12455
G1 X153.491 Y38.803 E55.23383
G1 F1800.000 E54.23383
G92 E0
G1 X160.350 Y40.350 F7800.000
G1 E1.00000 F1800.000
G1 X190.900 Y40.350 E3.77790 F378.000
G1 X190.900 Y47.900 E4.46442
G1 X219.650 Y47.900 E7.07864
G1 X219.650 Y59.650 E8.14707
G1 X160.350 Y59.650 E13.53919
G1 X160.350 Y40.444 E15.28561
G1 X160.834 Y59.228 F7800.000
G1 X160.772 Y59.166 E15.29371 F1080.000
G1 X160.772 Y58.278 E15.37479
G1 X161.722 Y59.228 E15.49755
G1 X162.610 Y59.228 E15.57863
G1 X160.772 Y57.390 E15.81605
G1 X160.772 Y56.503 E15.89713
G1 X163.497 Y59.228 E16.24921
G1 X164.385 Y59.228 E16.33028
G1 X160.772 Y55.615 E16.79702
G1 X160.772 Y54.727 E16.87809
G1 X165.273 Y59.228 E17.45948
G1 X166.160 Y59.228 E17.54056
G1 X160.772 Y53.840 E18.23661
G1 X160.772 Y52.952 E18.31768
G1 X167.048 Y59.228 E19.12839
G1 X167.936 Y59.228 E19.20947
G1 X160.772 Y52.064 E20.13483
G1 X160.772 Y51.177 E20.21591
G1 X168.823 Y59.228 E21.25593
G1 X169.711 Y59.228 E21.33700
G1 X160.772 Y50.289 E22.49168
G1 X160.772 Y49.401 E22.57276
G1 X170.599 Y59.228 E23.84209
G1 X171.486 Y59.228 E23.92317
G1 X160.772 Y48.514 E25.30716
G1 X160.772 Y47.626 E25.38824
G1 X172.374 Y59.228 E26.88689
G1 X173.262 Y59.228 E26.96796
G1 X160.772 Y46.738 E28.58127
G1 X160.772 Y45.851 E28.66234
G1 X174.149 Y59.228 E30.39031
G1 X175.037 Y59.228 E30.47138
G1 X160.772 Y44.963 E32.31401
G1 X160.772 Y44.075 E32.39508
G1 X175.925 Y59.228 E34.35236
G1 X176.812 Y59.228 E34.43344
G1 X160.772 Y43.188 E36.50537
G1 X160.772 Y42.300 E36.58645
G1 X177.700 Y59.228 E38.77304
G1 X178.588 Y59.228 E38.85411
G1 X160.772 Y41.412 E41.15536
G1 X161.019 Y40.772 E41.21808
G1 X179.475 Y59.228 E43.60208
G1 X180.363 Y59.228 E43.68315
G1 X161.906 Y40.772 E46.06715
G1 X162.794 Y40.772 E46.14822
G1 X181.251 Y59.228 E48.53222
G1 X182.138 Y59.228 E48.61330
G1 X163.682 Y40.772 E50.99730
G1 X164.569 Y40.772 E51.07837
G1 X183.026 Y59.228 E53.46237
G1 X183.914 Y59.228 E53.54344
G1 X165.457 Y40.772 E55.92744
G1 X166.345 Y40.772 E56.00852
G1 X184.801 Y59.228 E58.39252
G1 X185.689 Y59.228 E58.47359
G1 X167.232 Y40.772 E60.85759
G1 X168.120 Y40.772 E60.93867
G1 X186.577 Y59.228 E63.32266
G1 X187.464 Y59.228 E63.40374
G1 X169.008 Y40.772 E65.78774
G1 X169.895 Y40.772 E65.86881
G1 X188.352 Y59.228 E68.25281
G1 X189.240 Y59.228 E68.33389
G1 X170.783 Y40.772 E70.71789
G1 X171.671 Y40.772 E70.79896
G1 X190.127 Y59.228 E73.18296
G1 X191.015 Y59.228 E73.26403
G1 X172.558 Y40.772 E75.64803
G1 X173.446 Y40.772 E75.72911
G1 X191.903 Y59.228 E78.11311
G1 X192.790 Y59.228 E78.19418
G1 X174.334 Y40.772 E80.57818
G1 X175.221 Y40.772 E80.65925
G1 X193.678 Y59.228 E83.04325
G1 X194.566 Y59.228 E83.12433
G1 X176.109 Y40.772 E85.50833
G1 X176.997 Y40.772 E85.58940
G1 X195.453 Y59.228 E87.97340
G1 X196.341 Y59.228 E88.05448
G1 X177.884 Y40.772 E90.43847
G1 X178.772 Y40.772 E90.51955
G1 X197.229 Y59.228 E92.90355
G1 X198.116 Y59.228 E92.98462
G1 X179.660 Y40.772 E95.36862
G1 X180.547 Y40.772 E95.44970
G1 X199.004 Y59.228 E97.83370
G1 X199.892 Y59.228 E97.91477
G1 X181.435 Y40.772 E100.29877
G1 X182.323 Y40.772 E100.37984
G1 X200.779 Y59.228 E102.76384
G1 X201.667 Y59.228 E102.84492
G1 X183.210 Y40.772 E105.22892
G1 X184.098 Y40.772 E105.30999
G1 X190.478 Y47.152 E106.13412
G1 X190.478 Y46.264 E106.21520
G1 X184.986 Y40.772 E106.92468
G1 X185.873 Y40.772 E107.00575
G1 X190.478 Y45.377 E107.60057
G1 X190.478 Y44.489 E107.68164
G1 X186.761 Y40.772 E108.16181
G1 X187.649 Y40.772 E108.24288
G1 X190.478 Y43.601 E108.60839
G1 X190.478 Y42.714 E108.68946
G1 X188.536 Y40.772 E108.94031
G1 X189.424 Y40.772 E109.02138
G1 X190.478 Y41.826 E109.15757
G1 X190.478 Y40.938 E109.23865
G1 X190.312 Y40.772 E109.26018
G1 F1800.000 E108.26018
G92 E0
G1 X191.648 Y48.322 F7800.000
G1 E1.00000 F1800.000
G1 X202.555 Y59.228 E2.40879 F1080.000
G1 X203.442 Y59.228 E2.48986
G1 X192.536 Y48.322 E3.89865
G1 X193.423 Y48.322 E3.97973
G1 X204.330 Y59.228 E5.38851
G1 X205.218 Y59.228 E5.46959
G1 X194.311 Y48.322 E6.87838
G1 X195.199 Y48.322 E6.95945
G1 X206.105 Y59.228 E8.36824
G1 X206.993 Y59.228 E8.44931
G1 X196.086 Y48.322 E9.85810
G1 X196.974 Y48.322 E9.93918
G1 X207.881 Y59.228 E11.34797
G1 X208.768 Y59.228 E11.42904
G1 X197.862 Y48.322 E12.83783
G1 X198.749 Y48.322 E12.91890
G1 X209.656 Y59.228 E14.32769
G1 X210.544 Y59.228 E14.40877
G1 X199.637 Y48.322 E15.81755
G1 X200.525 Y48.322 E15.89863
G1 X211.431 Y59.228 E17.30742
G1 X212.319 Y59.228 E17.38849
G1 X201.412 Y48.322 E18.79728
G1 X202.300 Y48.322 E18.87835
G1 X213.207 Y59.228 E20.28714
G1 X214.094 Y59.228 E20.36822
G1 X203.188 Y48.322 E21.77701
G1 X204.075 Y48.322 E21.85808
G1 X214.982 Y59.228 E23.26687
G1 X215.870 Y59.228 E23.34794
G1 X204.963 Y48.322 E24.75673
G1 X205.851 Y48.322 E24.83781
G1 X216.757 Y59.228 E26.24659
G1 X217.645 Y59.228 E26.32767
G1 X206.738 Y48.322 E27.73646
G1 X207.626 Y48.322 E27.81753
G1 X218.533 Y59.228 E29.22632
G1 X219.228 Y59.036 E29.29223
G1 X208.514 Y48.322 E30.67622
G1 X209.401 Y48.322 E30.75730
G1 X219.228 Y58.149 E32.02663
G1 X219.228 Y57.261 E32.10770
G1 X210.289 Y48.322 E33.26238
G1 X211.177 Y48.322 E33.34345
G1 X219.228 Y56.373 E34.38347
G1 X219.228 Y55.486 E34.46454
G1 X212.064 Y48.322 E35.38990
G1 X212.952 Y48.322 E35.47098
G1 X219.228 Y54.598 E36.28168
G1 X219.228 Y53.710 E36.36275
G1 X213.840 Y48.322 E37.05880
G1 X214.727 Y48.322 E37.13987
G1 X219.228 Y52.823 E37.72126
G1 X219.228 Y51.935 E37.80234
G1 X215.615 Y48.322 E38.26907
G1 X216.503 Y48.322 E38.35014
G1 X219.228 Y51.047 E38.70222
G1 X219.228 Y50.160 E38.78329
G1 X217.390 Y48.322 E39.02071
G1 X218.278 Y48.322 E39.10178
G1 X219.228 Y49.272 E39.22454
G1 X219.228 Y48.384 E39.30562
G1 X219.166 Y48.322 E39.31372
M106 S255
M104 S220 ; set temperature
G1 F1800.000 E38.31372
G92 E0
G1 Z0.600 F7800.000
G1 X219.825 Y47.725 F7800.000
G1 E1.00000 F1800.000
G1 X219.825 Y59.825 E1.44018 F600.000
G1 X160.175 Y59.825 E3.61014
G1 X160.175 Y40.175 E4.32497
G1 X191.075 Y40.175 E5.44906
G1 X191.075 Y47.725 E5.72372
G1 X219.772 Y47.725 E6.76768
G1 X215.749 Y47.987 F7800.000
G1 X214.663 Y52.041 E6.93558 F1309.877
G1 X205.863 Y54.399 E7.29997
G1 X199.893 Y48.428 E7.63770
G1 X191.093 Y50.786 E8.00209
G1 X188.908 Y58.942 E8.33982
G1 X186.588 Y59.563 E8.43590
G1 X178.373 Y59.563 E8.76451
G1 X174.139 Y55.329 E9.00403
G1 X165.339 Y57.687 E9.36843
G1 X164.836 Y59.563 E9.44613
G1 X160.437 Y41.627 F7800.000
G1 X161.255 Y42.446 E9.49244 F1309.877
G1 X168.755 Y40.437 E9.80300
G1 X185.898 Y40.437 F7800.000
G1 X184.924 Y44.072 E9.95356 F1309.877
G1 X176.125 Y46.430 E10.31795
G1 X170.154 Y40.460 E10.65568
G1 X161.355 Y42.818 E11.02008
G1 X160.437 Y46.245 E11.16200
G1 X160.437 Y52.512 E11.41270
G1 X165.240 Y57.315 E11.68439
G1 X174.039 Y54.957 E12.04878
G1 X176.224 Y46.802 E12.38651
G1 X185.024 Y44.444 E12.75090
G1 X190.994 Y50.414 E13.08863
G1 X199.793 Y48.057 E13.45303
G1 X199.812 Y47.987 E13.45593
G1 X204.678 Y59.563 E13.95825
G1 X205.963 Y54.770 E14.15674
G1 X214.762 Y52.413 E14.52113
G1 X219.563 Y57.214 E14.79273
G1 X189.258 Y59.563 F7800.000
G1 X189.008 Y59.313 E14.80687 F1309.877
G1 X188.075 Y59.563 E14.84551
G1 F1800.000 E13.84551
G92 E0
G1 Z0.850 F7800.000
G1 X191.075 Y47.725 F7800.000
G1 E1.00000 F1800.000
G1 X219.825 Y47.725 E2.04588 F600.000
G1 X219.825 Y59.825 E2.48605
G1 X160.175 Y59.825 E4.65602
G1 X160.175 Y40.175 E5.37085
G1 X191.075 Y40.175 E6.49494
G1 X191.075 Y47.672 E6.76768
G1 X215.948 Y47.987 F7800.000
G1 X214.762 Y52.413 E6.95097 F1319.338
G1 X219.563 Y57.214 E7.22257
G1 X215.550 Y47.987 E7.62507
G1 X214.390 Y52.313 E7.80423
G1 X206.235 Y54.498 E8.14196
G1 X204.878 Y59.563 E8.35172
G1 X204.479 Y59.563 E8.36765
G1 X205.863 Y54.399 E8.58153
G1 X199.893 Y48.428 E8.91926
G1 X200.011 Y47.987 E8.93756
G1 X199.613 Y47.987 E8.95349
G1 X199.521 Y48.329 E8.96766
G1 X191.366 Y50.514 E9.30539
G1 X189.008 Y59.313 E9.66978
G1 X189.258 Y59.563 E9.68393
G1 X187.331 Y59.563 E9.76098
G1 X188.636 Y59.214 E9.81501
G1 X190.994 Y50.414 E10.17940
G1 X185.024 Y44.444 E10.51713
G1 X186.097 Y40.437 E10.68309
G1 X185.699 Y40.437 E10.69903
G1 X184.652 Y44.345 E10.86086
G1 X176.496 Y46.530 E11.19859
G1 X174.139 Y55.329 E11.56298
G1 X178.373 Y59.563 E11.80250
G1 X165.036 Y59.563 E12.33599
G1 X165.611 Y57.415 E12.42496
G1 X173.767 Y55.230 E12.76269
G1 X176.125 Y46.430 E13.12709
G1 X170.154 Y40.460 E13.46482
G1 X170.161 Y40.437 E13.46578
G1 X169.498 Y40.437 E13.49228
G1 X161.627 Y42.546 E13.81823
G1 X160.437 Y46.988 E14.00221
G1 X160.437 Y45.501 E14.06169
G1 X161.255 Y42.446 E14.18822
G1 X160.437 Y41.627 E14.23453
G1 X160.437 Y52.512 E14.66994
G1 X165.240 Y57.315 E14.94163
G1 X164.637 Y59.563 E15.03473
G1 F1800.000 E14.03473
G92 E0
G1 Z1.100 F7800.000
G1 X160.175 Y59.825 F7800.000
G1 E1.00000 F1800.000
G1 X160.175 Y40.175 E1.71483 F600.000
G1 X191.075 Y40.175 E2.83892
G1 X191.075 Y47.725 E3.11358
G1 X219.825 Y47.725 E4.15945
G1 X219.825 Y59.825 E4.59963
G1 X160.227 Y59.825 E6.76768
G1 X160.437 Y52.784 F7800.000
G1 X165.339 Y57.687 E7.04501 F1307.620
G1 X164.836 Y59.563 E7.12272
G1 X160.437 Y52.240 E7.46445
G1 X165.611 Y57.415 E7.75717
G1 X173.767 Y55.230 E8.09490
G1 X178.101 Y59.563 E8.34006
G1 X178.645 Y59.563 E8.36183
G1 X174.039 Y54.957 E8.62238
G1 X176.224 Y46.802 E8.96011
G1 X169.859 Y40.437 E9.32019
G1 X169.498 Y40.437 E9.33462
G1 X161.627 Y42.546 E9.66056
G1 X160.437 Y41.355 E9.72790
G1 X160.437 Y41.899 E9.74967
G1 X161.355 Y42.818 E9.80162
G1 X160.437 Y46.245 E9.94355
G1 X170.403 Y40.437 E10.40497
G1 X176.496 Y46.530 E10.74965
G1 X184.652 Y44.345 E11.08738
G1 X191.093 Y50.786 E11.45178
G1 X188.908 Y58.942 E11.78951
G1 X189.530 Y59.563 E11.82468
G1 X188.986 Y59.563 E11.84645
G1 X188.636 Y59.214 E11.86622
G1 X187.331 Y59.563 E11.92025
G1 X199.812 Y47.987 F7800.000
G1 X199.793 Y48.057 E11.92315 F1307.620
G1 X206.235 Y54.498 E12.28754
G1 X214.390 Y52.313 E12.62527
G1 X219.563 Y57.486 E12.91790
G1 X219.563 Y56.942 E12.93967
G1 X214.663 Y52.041 E13.21691
G1 X215.749 Y47.987 E13.38480
G1 X204.678 Y59.563 F7800.000
G1 X205.963 Y54.770 E13.58329 F1307.620
G1 X199.521 Y48.329 E13.94768
G1 X191.366 Y50.514 E14.28541
G1 X184.924 Y44.072 E14.64980
G1 X185.898 Y40.437 E14.80037
G1 F1800.000 E13.80037
G92 E0
G1 Z1.350 F7800.000
G1 X191.075 Y40.175 F7800.000
G1 E1.00000 F1800.000
G1 X191.075 Y47.725 E1.27466 F600.000
G1 X219.825 Y47.725 E2.32053
G1 X219.825 Y59.825 E2.76071
G1 X160.175 Y59.825 E4.93067
G1 X160.175 Y40.175 E5.64551
G1 X191.023 Y40.175 E6.76768
G1 X185.898 Y40.437 F7800.000
G1 X184.924 Y44.072 E6.91825 F1309.877
G1 X176.125 Y46.430 E7.28264
G1 X170.154 Y40.460 E7.62037
G1 X161.355 Y42.818 E7.98476
G1 X160.437 Y46.245 E8.12669
G1 X160.437 Y52.512 E8.37738
G1 X165.240 Y57.315 E8.64908
G1 X174.039 Y54.957 E9.01347
G1 X176.224 Y46.802 E9.35120
G1 X185.024 Y44.444 E9.71559
G1 X190.994 Y50.414 E10.05332
G1 X199.793 Y48.057 E10.41771
G1 X199.812 Y47.987 E10.42061
G1 X204.678 Y59.563 E10.92294
G1 X205.963 Y54.770 E11.12142
G1 X214.762 Y52.413 E11.48581
G1 X219.563 Y57.214 E11.75742
G1 X215.749 Y47.987 F7800.000
G1 X214.663 Y52.041 E11.92531 F1309.877
G1 X205.863 Y54.399 E12.28970
G1 X199.893 Y48.428 E12.62743
G1 X191.093 Y50.786 E12.99182
G1 X188.908 Y58.942 E13.32955
G1 X186.588 Y59.563 E13.42564
G1 X178.373 Y59.563 E13.75424
G1 X174.139 Y55.329 E13.99377
G1 X165.339 Y57.687 E14.35816
G1 X164.836 Y59.563 E14.43586
G1 X160.437 Y41.627 F7800.000
G1 X161.255 Y42.446 E14.48218 F1309.877
G1 X168.755 Y40.437 E14.79273
G1 X188.075 Y59.563 F7800.000
G1 X189.008 Y59.313 E14.83137 F1309.877
G1 X189.258 Y59.563 E14.84551
G1 F1800.000 E13.84551
G92 E0
G1 Z1.600 F7800.000
G1 X191.075 Y47.725 F7800.000
G1 E1.00000 F1800.000
G1 X219.825 Y47.725 E2.04588 F600.000
G1 X219.825 Y59.825 E2.48605
G1 X160.175 Y59.825 E4.65602
G1 X160.175 Y40.175 E5.37085
G1 X191.075 Y40.175 E6.49494
G1 X191.075 Y47.672 E6.76768
G1 X215.948 Y47.987 F7800.000
G1 X214.762 Y52.413 E6.95097 F1319.338
