; generated by Slic3r 1.2.9 on 2015-10-31 at 14:10:07

; external perimeters extrusion width = 0.35mm
; perimeters extrusion width = 0.44mm
; infill extrusion width = 0.44mm
; solid infill extrusion width = 0.44mm
; top infill extrusion width = 0.44mm

M107
M104 S220 ; set temperature
G28 ; home all axes
G1 Z5 F5000 ; lift nozzle

M109 S220 ; wait for temperature to be reached
G21 ; set units to millimeters
G90 ; use absolute coordinates
M82 ; use absolute distances for extrusion
G92 E0
G1 Z0.350 F7800.000
G1 E-2.00000 F2400.00000
G92 E0
G1 X167.523 Y30.030 F7800.000
G1 E2.00000 F2400.00000
G1 X168.675 Y27.809 E2.22750 F1800.000
G1 X170.466 Y26.062 E2.45500
G1 X172.714 Y24.964 E2.68250
G1 X175.000 Y24.625 E2.89262
G1 X195.000 Y24.625 E4.71121
G1 X197.470 Y25.023 E4.93871
G1 X199.691 Y26.175 E5.16621 F1800.000
G1 X201.438 Y27.966 E5.39371
G1 X202.536 Y30.214 E5.62121
G1 X202.875 Y32.500 E5.83133
G1 X202.875 Y67.500 E9.01387
G1 X202.477 Y69.970 E9.24137
G1 X201.325 Y72.191 E9.46887
G1 X199.534 Y73.938 E9.69637
G1 X197.286 Y75.036 E9.92387
G1 X195.000 Y75.375 E10.13399
G1 X175.000 Y75.375 E11.95258
G1 X172.530 Y74.977 E12.18008
G1 X170.309 Y73.825 E12.40758
G1 X168.562 Y72.034 E12.63508
G1 X167.464 Y69.786 E12.86258
G1 X167.125 Y67.500 E13.07270
G1 X167.125 Y32.500 E16.25523
G1 X167.514 Y30.082 E16.47796
G1 X168.147 Y30.135 F7800.000
G1 X169.296 Y28.026 E16.69632 F1800.000
G1 X171.069 Y26.409 E16.91455
G1 X173.273 Y25.459 E17.13277
G1 X175.000 Y25.250 E17.29094
G1 X195.000 Y25.250 E19.10954
G1 X197.367 Y25.647 E19.32776
G1 X199.474 Y26.796 E19.54599 F1800.000
G1 X201.091 Y28.569 E19.76422
G1 X202.041 Y30.773 E19.98245
G1 X202.250 Y32.500 E20.14062
G1 X202.250 Y67.500 E23.32315
G1 X201.853 Y69.867 E23.54138
G1 X200.704 Y71.974 E23.75961
G1 X198.931 Y73.591 E23.97784
G1 X196.727 Y74.541 E24.19606
G1 X195.000 Y74.750 E24.35423
G1 X175.000 Y74.750 E26.17283
G1 X172.633 Y74.353 E26.39105
G1 X170.526 Y73.204 E26.60928
G1 X168.909 Y71.431 E26.82751
G1 X167.959 Y69.227 E27.04574
G1 X167.750 Y67.500 E27.20391
G1 X167.750 Y32.500 E30.38644
G1 X168.139 Y30.186 E30.59976
G1 X168.772 Y30.244 F7800.000
G1 X169.915 Y28.253 E30.80858 F1800.000
G1 X171.668 Y26.774 E31.01712
G1 X173.820 Y25.981 E31.22566
G1 X175.000 Y25.875 E31.33337
G1 X195.000 Y25.875 E33.15196
G1 X197.259 Y26.272 E33.36051
G1 X199.247 Y27.415 E33.56905 F1800.000
G1 X200.726 Y29.168 E33.77759
G1 X201.519 Y31.320 E33.98613
G1 X201.625 Y32.500 E34.09384
G1 X201.625 Y67.500 E37.27638
G1 X201.228 Y69.759 E37.48492
G1 X200.085 Y71.747 E37.69346
G1 X198.332 Y73.226 E37.90200
G1 X196.180 Y74.019 E38.11055
G1 X195.000 Y74.125 E38.21826
G1 X175.000 Y74.125 E40.03685
G1 X172.741 Y73.728 E40.24539
G1 X170.753 Y72.585 E40.45393
G1 X169.274 Y70.832 E40.66247
G1 X168.481 Y68.680 E40.87102
G1 X168.375 Y67.500 E40.97873
G1 X168.375 Y32.500 E44.16126
G1 X168.762 Y30.296 E44.36474
G1 E42.36474 F2400.00000
G92 E0
G1 X193.400 Y65.900 F7800.000
G1 E2.00000 F2400.00000
G1 X176.600 Y65.900 E3.52766 F1800.000
G1 X176.600 Y34.100 E6.41926
G1 X193.400 Y34.100 E7.94692
G1 X193.400 Y65.848 E10.83374
G1 X194.025 Y66.525 F7800.000
G1 X175.975 Y66.525 E12.47504 F1800.000
G1 X175.975 Y33.475 E15.48028
G1 X194.025 Y33.475 E17.12158
G1 X194.025 Y66.473 E20.12205
G1 X194.650 Y67.150 F7800.000
G1 X175.350 Y67.150 E21.87699 F1800.000
G1 X175.350 Y32.850 E24.99588
G1 X194.650 Y32.850 E26.75082
G1 X194.650 Y67.097 E29.86493
G1 X194.347 Y66.975 F7800.000
G1 X176.978 Y65.217 F7800.000
G1 X177.283 Y65.522 E29.90461 F1800.000
G1 X178.177 Y65.522 E29.98680
G1 X176.978 Y64.323 E30.14272
G1 X176.978 Y63.429 E30.22492
G1 X179.071 Y65.522 E30.49708
G1 X179.965 Y65.522 E30.57927
G1 X176.978 Y62.535 E30.96768
G1 X176.978 Y61.641 E31.04987
G1 X180.859 Y65.522 E31.55452
G1 X181.752 Y65.522 E31.63671
G1 X176.978 Y60.748 E32.25759
G1 X176.978 Y59.854 E32.33979
G1 X182.646 Y65.522 E33.07692
G1 X183.540 Y65.522 E33.15911
G1 X176.978 Y58.960 E34.01248
G1 X176.978 Y58.066 E34.09467
G1 X184.434 Y65.522 E35.06428
G1 X185.327 Y65.522 E35.14647
G1 X176.978 Y57.173 E36.23232
G1 X176.978 Y56.279 E36.31452
G1 X186.221 Y65.522 E37.51661
G1 X187.115 Y65.522 E37.59880
G1 X176.978 Y55.385 E38.91714
G1 X176.978 Y54.491 E38.99933
G1 X188.009 Y65.522 E40.43390
G1 X188.903 Y65.522 E40.51610
G1 X176.978 Y53.597 E42.06691
G1 X176.978 Y52.704 E42.14911
G1 X189.796 Y65.522 E43.81616
G1 X190.690 Y65.522 E43.89836
G1 X176.978 Y51.810 E45.68165
G1 X176.978 Y50.916 E45.76385
G1 X191.584 Y65.522 E47.66338
G1 X192.478 Y65.522 E47.74558
G1 X176.978 Y50.022 E49.76136
G1 X176.978 Y49.129 E49.84355
G1 X193.022 Y65.172 E51.93008
G1 X193.022 Y64.278 E52.01228
G1 X176.978 Y48.235 E54.09880
G1 X176.978 Y47.341 E54.18100
G1 X193.022 Y63.384 E56.26753
G1 X193.022 Y62.491 E56.34972
G1 X176.978 Y46.447 E58.43625
G1 X176.978 Y45.553 E58.51845
G1 X193.022 Y61.597 E60.60498
G1 X193.022 Y60.703 E60.68717
G1 X176.978 Y44.660 E62.77370
G1 X176.978 Y43.766 E62.85589
G1 X193.022 Y59.809 E64.94242
G1 X193.022 Y58.915 E65.02462
G1 X176.978 Y42.872 E67.11115
G1 X176.978 Y41.978 E67.19334
G1 X193.022 Y58.022 E69.27987
G1 X193.022 Y57.128 E69.36206
G1 X176.978 Y41.085 E71.44859
G1 X176.978 Y40.191 E71.53079
G1 X193.022 Y56.234 E73.61732
G1 X193.022 Y55.340 E73.69951
G1 X176.978 Y39.297 E75.78604
G1 X176.978 Y38.403 E75.86824
G1 X193.022 Y54.447 E77.95476
G1 X193.022 Y53.553 E78.03696
G1 X176.978 Y37.509 E80.12349
G1 X176.978 Y36.616 E80.20568
G1 X193.022 Y52.659 E82.29221
G1 X193.022 Y51.765 E82.37441
G1 X176.978 Y35.722 E84.46094
G1 X176.978 Y34.828 E84.54313
G1 X193.022 Y50.871 E86.62966
G1 X193.022 Y49.978 E86.71185
G1 X177.522 Y34.478 E88.72764
G1 X178.416 Y34.478 E88.80983
G1 X193.022 Y49.084 E90.70937
G1 X193.022 Y48.190 E90.79157
G1 X179.310 Y34.478 E92.57487
G1 X180.204 Y34.478 E92.65706
G1 X193.022 Y47.296 E94.32412
G1 X193.022 Y46.403 E94.40631
G1 X181.097 Y34.478 E95.95713
G1 X181.991 Y34.478 E96.03933
G1 X193.022 Y45.509 E97.47390
G1 X193.022 Y44.615 E97.55610
G1 X182.885 Y34.478 E98.87443
G1 X183.779 Y34.478 E98.95663
G1 X193.022 Y43.721 E100.15872
G1 X193.022 Y42.827 E100.24092
G1 X184.673 Y34.478 E101.32677
G1 X185.566 Y34.478 E101.40896
G1 X193.022 Y41.934 E102.37858
G1 X193.022 Y41.040 E102.46077
G1 X186.460 Y34.478 E103.31414
G1 X187.354 Y34.478 E103.39634
G1 X193.022 Y40.146 E104.13347
G1 X193.022 Y39.252 E104.21566
G1 X188.248 Y34.478 E104.83655
G1 X189.141 Y34.478 E104.91874
G1 X193.022 Y38.359 E105.42339
G1 X193.022 Y37.465 E105.50559
G1 X190.035 Y34.478 E105.89399
G1 X190.929 Y34.478 E105.97619
G1 X193.022 Y36.571 E106.24835
G1 X193.022 Y35.677 E106.33055
G1 X191.823 Y34.478 E106.48647
G1 X192.717 Y34.478 E106.56866
G1 X193.022 Y34.783 E106.60835
M104 S220 ; set temperature
G1 Z0.600 F7800.000
G1 X194.100 Y66.600 F7800.000
G1 X175.900 Y66.600 E107.33631 F3600.000
G1 X175.900 Y33.400 E108.66428
G1 X194.100 Y33.400 E109.39224
G1 X194.100 Y66.547 E110.71811
G1 X194.484 Y66.984 F7800.000
G1 X175.516 Y66.984 E111.47686 F3600.000
G1 X175.516 Y33.016 E112.83561
G1 X194.484 Y33.016 E113.59436
G1 X194.484 Y66.932 E114.95101
G1 X194.825 Y67.325 F7800.000
G1 X175.175 Y67.325 E115.55627 F1800.000
G1 X175.175 Y32.675 E116.62356
G1 X194.825 Y32.675 E117.22882
G1 X194.825 Y67.273 E118.29449
G1 X194.522 Y67.150 F7800.000
G1 X193.671 Y66.374 F7800.000
G1 X193.874 Y66.171 E118.30599 F1200.000
G1 X193.874 Y65.626 E118.32778
G1 X193.126 Y66.374 E118.37009
G1 X192.582 Y66.374 E118.39188
G1 X193.874 Y65.082 E118.46500
G1 X193.874 Y64.537 E118.48679
G1 X192.037 Y66.374 E118.59072
G1 X191.493 Y66.374 E118.61251
G1 X193.874 Y63.993 E118.74726
G1 X193.874 Y63.449 E118.76904
G1 X190.949 Y66.374 E118.93460
G1 X190.404 Y66.374 E118.95638
G1 X193.874 Y62.904 E119.15275
G1 X193.874 Y62.360 E119.17454
G1 X189.860 Y66.374 E119.40171
G1 X189.315 Y66.374 E119.42350
G1 X193.874 Y61.815 E119.68149
G1 X193.874 Y61.271 E119.70327
G1 X188.771 Y66.374 E119.99207
G1 X188.226 Y66.374 E120.01386
G1 X193.874 Y60.726 E120.33346
G1 X193.874 Y60.182 E120.35525
G1 X187.682 Y66.374 E120.70567
G1 X187.137 Y66.374 E120.72745
G1 X193.874 Y59.637 E121.10868
G1 X193.874 Y59.093 E121.13047
G1 X186.593 Y66.374 E121.54251
G1 X186.048 Y66.374 E121.56429
G1 X193.874 Y58.548 E122.00714
G1 X193.874 Y58.004 E122.02893
G1 X185.504 Y66.374 E122.50259
G1 X184.960 Y66.374 E122.52438
G1 X193.874 Y57.460 E123.02885
G1 X193.874 Y56.915 E123.05063
G1 X184.415 Y66.374 E123.58591
G1 X183.871 Y66.374 E123.60770
G1 X193.874 Y56.371 E124.17379
G1 X193.874 Y55.826 E124.19558
G1 X183.326 Y66.374 E124.79248
G1 X182.782 Y66.374 E124.81427
G1 X193.874 Y55.282 E125.44198
G1 X193.874 Y54.737 E125.46376
G1 X182.237 Y66.374 E126.12229
G1 X181.693 Y66.374 E126.14407
G1 X193.874 Y54.193 E126.83341
G1 X193.874 Y53.648 E126.85519
G1 X181.148 Y66.374 E127.57534
G1 X180.604 Y66.374 E127.59712
G1 X193.874 Y53.104 E128.34808
G1 X193.874 Y52.559 E128.36986
G1 X180.059 Y66.374 E129.15163
G1 X179.515 Y66.374 E129.17341
G1 X193.874 Y52.015 E129.98599
G1 X193.874 Y51.471 E130.00777
G1 X178.971 Y66.374 E130.85116
G1 X178.426 Y66.374 E130.87294
G1 X193.874 Y50.926 E131.74714
G1 X193.874 Y50.382 E131.76893
G1 X177.882 Y66.374 E132.67393
G1 X177.337 Y66.374 E132.69572
G1 X193.874 Y49.837 E133.63153
G1 X193.874 Y49.293 E133.65332
G1 X176.793 Y66.374 E134.61995
G1 X176.248 Y66.374 E134.64173
G1 X193.874 Y48.748 E135.63917
G1 X193.874 Y48.204 E135.66096
G1 X176.126 Y65.952 E136.66532
G1 X176.126 Y65.408 E136.68711
G1 X193.874 Y47.659 E137.69147
G1 X193.874 Y47.115 E137.71325
G1 X176.126 Y64.863 E138.71762
G1 X176.126 Y64.319 E138.73940
G1 X193.874 Y46.570 E139.74376
G1 X193.874 Y46.026 E139.76555
G1 X176.126 Y63.774 E140.76991
G1 X176.126 Y63.230 E140.79170
G1 X193.874 Y45.482 E141.79606
G1 X193.874 Y44.937 E141.81785
G1 X176.126 Y62.685 E142.82221
G1 X176.126 Y62.141 E142.84399
G1 X193.874 Y44.393 E143.84836
G1 X193.874 Y43.848 E143.87014
G1 X176.126 Y61.596 E144.87450
G1 X176.126 Y61.052 E144.89629
G1 X193.874 Y43.304 E145.90065
G1 X193.874 Y42.759 E145.92244
G1 X176.126 Y60.507 E146.92680
G1 X176.126 Y59.963 E146.94859
G1 X193.874 Y42.215 E147.95295
G1 X193.874 Y41.670 E147.97473
G1 X176.126 Y59.419 E148.97910
G1 X176.126 Y58.874 E149.00088
G1 X193.874 Y41.126 E150.00524
G1 X193.874 Y40.581 E150.02703
G1 X176.126 Y58.330 E151.03139
G1 X176.126 Y57.785 E151.05318
G1 X193.874 Y40.037 E152.05754
G1 X193.874 Y39.493 E152.07933
G1 X176.126 Y57.241 E153.08369
G1 X176.126 Y56.696 E153.10547
G1 X193.874 Y38.948 E154.10984
G1 X193.874 Y38.404 E154.13162
G1 X176.126 Y56.152 E155.13598
G1 X176.126 Y55.607 E155.15777
G1 X193.874 Y37.859 E156.16213
G1 X193.874 Y37.315 E156.18392
G1 X176.126 Y55.063 E157.18828
G1 X176.126 Y54.518 E157.21007
G1 X193.874 Y36.770 E158.21443
G1 X193.874 Y36.226 E158.23621
G1 X176.126 Y53.974 E159.24058
G1 X176.126 Y53.430 E159.26236
G1 X193.874 Y35.681 E160.26672
G1 X193.874 Y35.137 E160.28851
G1 X176.126 Y52.885 E161.29287
G1 X176.126 Y52.341 E161.31466
G1 X193.874 Y34.592 E162.31902
G1 X193.874 Y34.048 E162.34081
G1 X176.126 Y51.796 E163.34517
G1 X176.126 Y51.252 E163.36695
G1 X193.752 Y33.626 E164.36439
G1 X193.207 Y33.626 E164.38618
G1 X176.126 Y50.707 E165.35280
G1 X176.126 Y50.163 E165.37459
G1 X192.663 Y33.626 E166.31041
G1 X192.118 Y33.626 E166.33219
G1 X176.126 Y49.618 E167.23720
G1 X176.126 Y49.074 E167.25898
G1 X191.574 Y33.626 E168.13318
G1 X191.029 Y33.626 E168.15496
G1 X176.126 Y48.529 E168.99835
G1 X176.126 Y47.985 E169.02014
G1 X190.485 Y33.626 E169.83271
G1 X189.941 Y33.626 E169.85450
G1 X176.126 Y47.441 E170.63626
G1 X176.126 Y46.896 E170.65805
G1 X189.396 Y33.626 E171.40900
G1 X188.852 Y33.626 E171.43078
G1 X176.126 Y46.352 E172.15093
G1 X176.126 Y45.807 E172.17271
G1 X188.307 Y33.626 E172.86205
G1 X187.763 Y33.626 E172.88383
G1 X176.126 Y45.263 E173.54235
G1 X176.126 Y44.718 E173.56414
G1 X187.218 Y33.626 E174.19185
G1 X186.674 Y33.626 E174.21364
G1 X176.126 Y44.174 E174.81054
G1 X176.126 Y43.629 E174.83233
G1 X186.129 Y33.626 E175.39842
G1 X185.585 Y33.626 E175.42020
G1 X176.126 Y43.085 E175.95548
G1 X176.126 Y42.540 E175.97727
G1 X185.040 Y33.626 E176.48174
G1 X184.496 Y33.626 E176.50352
G1 X176.126 Y41.996 E176.97718
G1 X176.126 Y41.452 E176.99897
G1 X183.952 Y33.626 E177.44182
G1 X183.407 Y33.626 E177.46360
G1 X176.126 Y40.907 E177.87564
G1 X176.126 Y40.363 E177.89743
G1 X182.863 Y33.626 E178.27866
G1 X182.318 Y33.626 E178.30044
G1 X176.126 Y39.818 E178.65086
G1 X176.126 Y39.274 E178.67265
G1 X181.774 Y33.626 E178.99225
G1 X181.229 Y33.626 E179.01404
G1 X176.126 Y38.729 E179.30284
G1 X176.126 Y38.185 E179.32462
G1 X180.685 Y33.626 E179.58261
G1 X180.140 Y33.626 E179.60440
G1 X176.126 Y37.640 E179.83157
G1 X176.126 Y37.096 E179.85336
G1 X179.596 Y33.626 E180.04972
G1 X179.051 Y33.626 E180.07151
G1 X176.126 Y36.551 E180.23706
G1 X176.126 Y36.007 E180.25885
G1 X178.507 Y33.626 E180.39360
G1 X177.963 Y33.626 E180.41538
G1 X176.126 Y35.463 E180.51932
G1 X176.126 Y34.918 E180.54110
G1 X177.418 Y33.626 E180.61423
G1 X176.874 Y33.626 E180.63601
G1 X176.126 Y34.374 E180.67832
G1 X176.126 Y33.829 E180.70011
G1 X176.329 Y33.626 E180.71161
G1 Z0.850 F7800.000
G1 X194.100 Y66.600 F7800.000
G1 X175.900 Y66.600 E181.43958 F3600.000
G1 X175.900 Y33.400 E182.76754
G1 X194.100 Y33.400 E183.49551
G1 X194.100 Y66.547 E184.82137
G1 X194.484 Y66.984 F7800.000
G1 X175.516 Y66.984 E185.58012 F3600.000
G1 X175.516 Y33.016 E186.93888
G1 X194.484 Y33.016 E187.69763
G1 X194.484 Y66.932 E189.05428
G1 X194.825 Y67.325 F7800.000
G1 X175.175 Y67.325 E189.65954 F1800.000
G1 X175.175 Y32.675 E190.72683
G1 X194.825 Y32.675 E191.33209
G1 X194.825 Y67.273 E192.39776
G1 X194.522 Y67.150 F7800.000
G1 X176.126 Y66.171 F7800.000
G1 X176.329 Y66.374 E192.40926 F1200.000
G1 X176.874 Y66.374 E192.43105
G1 X176.126 Y65.626 E192.47336
G1 X176.126 Y65.082 E192.49514
G1 X177.418 Y66.374 E192.56827
G1 X177.963 Y66.374 E192.59005
G1 X176.126 Y64.537 E192.69399
G1 X176.126 Y63.993 E192.71577
G1 X178.507 Y66.374 E192.85052
G1 X179.051 Y66.374 E192.87231
G1 X176.126 Y63.449 E193.03786
G1 X176.126 Y62.904 E193.05965
G1 X179.596 Y66.374 E193.25601
G1 X180.140 Y66.374 E193.27780
G1 X176.126 Y62.360 E193.50497
G1 X176.126 Y61.815 E193.52676
G1 X180.685 Y66.374 E193.78475
G1 X181.229 Y66.374 E193.80653
G1 X176.126 Y61.271 E194.09533
G1 X176.126 Y60.726 E194.11712
G1 X181.774 Y66.374 E194.43672
G1 X182.318 Y66.374 E194.45851
G1 X176.126 Y60.182 E194.80893
G1 X176.126 Y59.637 E194.83071
G1 X182.863 Y66.374 E195.21194
G1 X183.407 Y66.374 E195.23373
G1 X176.126 Y59.093 E195.64577
G1 X176.126 Y58.548 E195.66755
G1 X183.952 Y66.374 E196.11040
G1 X184.496 Y66.374 E196.13219
G1 X176.126 Y58.004 E196.60585
G1 X176.126 Y57.460 E196.62763
G1 X185.040 Y66.374 E197.13210
G1 X185.585 Y66.374 E197.15389
G1 X176.126 Y56.915 E197.68917
G1 X176.126 Y56.371 E197.71095
G1 X186.129 Y66.374 E198.27705
G1 X186.674 Y66.374 E198.29883
G1 X176.126 Y55.826 E198.89573
G1 X176.126 Y55.282 E198.91752
G1 X187.218 Y66.374 E199.54523
G1 X187.763 Y66.374 E199.56702
G1 X176.126 Y54.737 E200.22554
G1 X176.126 Y54.193 E200.24732
G1 X188.307 Y66.374 E200.93666
G1 X188.852 Y66.374 E200.95844
G1 X176.126 Y53.648 E201.67859
G1 X176.126 Y53.104 E201.70037
G1 X189.396 Y66.374 E202.45133
G1 X189.941 Y66.374 E202.47311
G1 X176.126 Y52.559 E203.25488
G1 X176.126 Y52.015 E203.27666
G1 X190.485 Y66.374 E204.08924
G1 X191.029 Y66.374 E204.11102
G1 X176.126 Y51.471 E204.95441
G1 X176.126 Y50.926 E204.97619
G1 X191.574 Y66.374 E205.85039
G1 X192.118 Y66.374 E205.87217
G1 X176.126 Y50.382 E206.77718
G1 X176.126 Y49.837 E206.79897
G1 X192.663 Y66.374 E207.73478
G1 X193.207 Y66.374 E207.75657
G1 X176.126 Y49.293 E208.72319
G1 X176.126 Y48.748 E208.74498
G1 X193.752 Y66.374 E209.74242
G1 X193.874 Y65.952 E209.76000
G1 X176.126 Y48.204 E210.76436
G1 X176.126 Y47.659 E210.78615
G1 X193.874 Y65.408 E211.79051
G1 X193.874 Y64.863 E211.81230
G1 X176.126 Y47.115 E212.81666
G1 X176.126 Y46.570 E212.83845
G1 X193.874 Y64.319 E213.84281
G1 X193.874 Y63.774 E213.86459
G1 X176.126 Y46.026 E214.86896
G1 X176.126 Y45.482 E214.89074
G1 X193.874 Y63.230 E215.89510
G1 X193.874 Y62.685 E215.91689
