; generated by Slic3r 1.2.9 on 2015-10-31 at 14:12:34

; external perimeters extrusion width = 0.35mm
; perimeters extrusion width = 0.44mm
; infill extrusion width = 0.44mm
; solid infill extrusion width = 0.44mm
; top infill extrusion width = 0.44mm

M107
M104 S220 ; set temperature
G28 ; home all axes
G1 Z5 F5000 ; lift nozzle

M109 S220 ; wait for temperature to be reached
G21 ; set units to millimeters
G90 ; use absolute coordinates
M82 ; use absolute distances for extrusion
G92 E0
G1 Z0.350 F7800.000
G1 E-2.00000 F2400.00000
G92 E0
G1 X83.675 Y77.809 F7800.000
G1 E2.00000 F2400.00000
G1 X85.466 Y76.062 E2.22750 F1800.000
G1 X87.714 Y74.964 E2.45500
G1 X90.000 Y74.625 E2.66512
G1 X110.000 Y74.625 E4.48371
G1 X112.470 Y75.023 E4.71121
G1 X114.691 Y76.175 E4.93871 F1800.000
G1 X116.438 Y77.966 E5.16621
G1 X117.536 Y80.214 E5.39371
G1 X117.875 Y82.500 E5.60383
G1 X117.875 Y117.500 E8.78637
G1 X117.477 Y119.970 E9.01387
G1 X116.325 Y122.191 E9.24137
G1 X114.534 Y123.938 E9.46887
G1 X112.286 Y125.036 E9.69637
G1 X110.000 Y125.375 E9.90649
G1 X90.000 Y125.375 E11.72508
G1 X87.530 Y124.977 E11.95258
G1 X85.309 Y123.825 E12.18008
G1 X83.562 Y122.034 E12.40758
G1 X82.464 Y119.786 E12.63508
G1 X82.125 Y117.500 E12.84520
G1 X82.125 Y82.500 E16.02773
G1 X82.523 Y80.030 E16.25523
G1 X83.651 Y77.856 E16.47796
G1 X84.245 Y78.119 F7800.000
G1 X84.296 Y78.026 E16.48766 F1800.000
G1 X86.069 Y76.409 E16.70589
G1 X88.273 Y75.459 E16.92412
G1 X90.000 Y75.250 E17.08229
G1 X110.000 Y75.250 E18.90088
G1 X112.367 Y75.647 E19.11911
G1 X114.474 Y76.796 E19.33733 F1800.000
G1 X116.091 Y78.569 E19.55556
G1 X117.041 Y80.773 E19.77379
G1 X117.250 Y82.500 E19.93196
G1 X117.250 Y117.500 E23.11449
G1 X116.853 Y119.867 E23.33272
G1 X115.704 Y121.974 E23.55095
G1 X113.931 Y123.591 E23.76918
G1 X111.727 Y124.541 E23.98741
G1 X110.000 Y124.750 E24.14558
G1 X90.000 Y124.750 E25.96417
G1 X87.633 Y124.353 E26.18240
G1 X85.526 Y123.204 E26.40062
G1 X83.909 Y121.431 E26.61885
G1 X82.959 Y119.227 E26.83708
G1 X82.750 Y117.500 E26.99525
G1 X82.750 Y82.500 E30.17778
G1 X83.147 Y80.133 E30.39601
G1 X84.220 Y78.165 E30.59977
G1 X84.807 Y78.442 F7800.000
G1 X84.915 Y78.253 E30.61964 F1800.000
G1 X86.668 Y76.774 E30.82818
G1 X88.820 Y75.981 E31.03672
G1 X90.000 Y75.875 E31.14443
G1 X110.000 Y75.875 E32.96302
G1 X112.259 Y76.272 E33.17156
G1 X114.247 Y77.415 E33.38011 F1800.000
G1 X115.726 Y79.168 E33.58865
G1 X116.519 Y81.320 E33.79719
G1 X116.625 Y82.500 E33.90490
G1 X116.625 Y117.500 E37.08744
G1 X116.228 Y119.759 E37.29598
G1 X115.085 Y121.747 E37.50452
G1 X113.332 Y123.226 E37.71306
G1 X111.180 Y124.019 E37.92161
G1 X110.000 Y124.125 E38.02931
G1 X90.000 Y124.125 E39.84791
G1 X87.741 Y123.728 E40.05645
G1 X85.753 Y122.585 E40.26499
G1 X84.274 Y120.832 E40.47353
G1 X83.481 Y118.680 E40.68208
G1 X83.375 Y117.500 E40.78978
G1 X83.375 Y82.500 E43.97232
G1 X83.772 Y80.241 E44.18086
G1 X84.780 Y78.488 E44.36476
G1 E42.36476 F2400.00000
G92 E0
G1 X108.400 Y115.900 F7800.000
G1 E2.00000 F2400.00000
G1 X91.600 Y115.900 E3.52766 F1800.000
G1 X91.600 Y84.100 E6.41926
G1 X108.400 Y84.100 E7.94692
G1 X108.400 Y115.848 E10.83374
G1 X109.025 Y116.525 F7800.000
G1 X90.975 Y116.525 E12.47504 F1800.000
G1 X90.975 Y83.475 E15.48028
G1 X109.025 Y83.475 E17.12158
G1 X109.025 Y116.473 E20.12205
G1 X109.650 Y117.150 F7800.000
G1 X90.350 Y117.150 E21.87699 F1800.000
G1 X90.350 Y82.850 E24.99588
G1 X109.650 Y82.850 E26.75082
G1 X109.650 Y117.097 E29.86493
G1 X109.347 Y116.975 F7800.000
G1 X91.978 Y115.217 F7800.000
G1 X92.283 Y115.522 E29.90461 F1800.000
G1 X93.177 Y115.522 E29.98680
G1 X91.978 Y114.323 E30.14272
G1 X91.978 Y113.429 E30.22492
G1 X94.071 Y115.522 E30.49708
G1 X94.965 Y115.522 E30.57927
G1 X91.978 Y112.535 E30.96768
G1 X91.978 Y111.641 E31.04987
G1 X95.859 Y115.522 E31.55452
G1 X96.752 Y115.522 E31.63671
G1 X91.978 Y110.748 E32.25759
G1 X91.978 Y109.854 E32.33979
G1 X97.646 Y115.522 E33.07692
G1 X98.540 Y115.522 E33.15911
G1 X91.978 Y108.960 E34.01248
G1 X91.978 Y108.066 E34.09467
G1 X99.434 Y115.522 E35.06428
G1 X100.327 Y115.522 E35.14647
G1 X91.978 Y107.173 E36.23232
G1 X91.978 Y106.279 E36.31452
G1 X101.221 Y115.522 E37.51661
G1 X102.115 Y115.522 E37.59880
G1 X91.978 Y105.385 E38.91714
G1 X91.978 Y104.491 E38.99933
G1 X103.009 Y115.522 E40.43390
G1 X103.903 Y115.522 E40.51610
G1 X91.978 Y103.597 E42.06691
G1 X91.978 Y102.704 E42.14911
G1 X104.796 Y115.522 E43.81616
G1 X105.690 Y115.522 E43.89836
G1 X91.978 Y101.810 E45.68165
G1 X91.978 Y100.916 E45.76385
G1 X106.584 Y115.522 E47.66338
G1 X107.478 Y115.522 E47.74558
G1 X91.978 Y100.022 E49.76136
G1 X91.978 Y99.129 E49.84355
G1 X108.022 Y115.172 E51.93008
G1 X108.022 Y114.278 E52.01228
G1 X91.978 Y98.235 E54.09880
G1 X91.978 Y97.341 E54.18100
G1 X108.022 Y113.384 E56.26753
G1 X108.022 Y112.491 E56.34972
G1 X91.978 Y96.447 E58.43625
G1 X91.978 Y95.553 E58.51845
G1 X108.022 Y111.597 E60.60498
G1 X108.022 Y110.703 E60.68717
G1 X91.978 Y94.660 E62.77370
G1 X91.978 Y93.766 E62.85589
G1 X108.022 Y109.809 E64.94242
G1 X108.022 Y108.915 E65.02462
G1 X91.978 Y92.872 E67.11115
G1 X91.978 Y91.978 E67.19334
G1 X108.022 Y108.022 E69.27987
G1 X108.022 Y107.128 E69.36206
G1 X91.978 Y91.085 E71.44859
G1 X91.978 Y90.191 E71.53079
G1 X108.022 Y106.234 E73.61732
G1 X108.022 Y105.340 E73.69951
G1 X91.978 Y89.297 E75.78604
G1 X91.978 Y88.403 E75.86824
G1 X108.022 Y104.447 E77.95476
G1 X108.022 Y103.553 E78.03696
G1 X91.978 Y87.509 E80.12349
G1 X91.978 Y86.616 E80.20568
G1 X108.022 Y102.659 E82.29221
G1 X108.022 Y101.765 E82.37441
G1 X91.978 Y85.722 E84.46094
G1 X91.978 Y84.828 E84.54313
G1 X108.022 Y100.871 E86.62966
G1 X108.022 Y99.978 E86.71185
G1 X92.522 Y84.478 E88.72764
G1 X93.416 Y84.478 E88.80983
G1 X108.022 Y99.084 E90.70937
G1 X108.022 Y98.190 E90.79157
G1 X94.310 Y84.478 E92.57487
G1 X95.204 Y84.478 E92.65706
G1 X108.022 Y97.296 E94.32412
G1 X108.022 Y96.403 E94.40631
G1 X96.097 Y84.478 E95.95713
G1 X96.991 Y84.478 E96.03933
G1 X108.022 Y95.509 E97.47390
G1 X108.022 Y94.615 E97.55610
G1 X97.885 Y84.478 E98.87443
G1 X98.779 Y84.478 E98.95663
G1 X108.022 Y93.721 E100.15872
G1 X108.022 Y92.827 E100.24092
G1 X99.673 Y84.478 E101.32677
G1 X100.566 Y84.478 E101.40896
G1 X108.022 Y91.934 E102.37858
G1 X108.022 Y91.040 E102.46077
G1 X101.460 Y84.478 E103.31414
G1 X102.354 Y84.478 E103.39634
G1 X108.022 Y90.146 E104.13347
G1 X108.022 Y89.252 E104.21566
G1 X103.248 Y84.478 E104.83655
G1 X104.141 Y84.478 E104.91874
G1 X108.022 Y88.359 E105.42339
G1 X108.022 Y87.465 E105.50559
G1 X105.035 Y84.478 E105.89399
G1 X105.929 Y84.478 E105.97619
G1 X108.022 Y86.571 E106.24835
G1 X108.022 Y85.677 E106.33055
G1 X106.823 Y84.478 E106.48647
G1 X107.717 Y84.478 E106.56866
G1 X108.022 Y84.783 E106.60835
M104 S220 ; set temperature
G1 Z0.600 F7800.000
G1 X109.100 Y116.600 F7800.000
G1 X90.900 Y116.600 E107.33631 F3600.000
G1 X90.900 Y83.400 E108.66428
G1 X109.100 Y83.400 E109.39224
G1 X109.100 Y116.547 E110.71811
G1 X109.484 Y116.984 F7800.000
G1 X90.516 Y116.984 E111.47686 F3600.000
G1 X90.516 Y83.016 E112.83561
G1 X109.484 Y83.016 E113.59436
G1 X109.484 Y116.932 E114.95101
G1 X109.825 Y117.325 F7800.000
G1 X90.175 Y117.325 E115.55627 F1800.000
G1 X90.175 Y82.675 E116.62356
G1 X109.825 Y82.675 E117.22882
G1 X109.825 Y117.273 E118.29449
G1 X109.522 Y117.150 F7800.000
G1 X108.671 Y116.374 F7800.000
G1 X108.874 Y116.171 E118.30599 F1200.000
G1 X108.874 Y115.626 E118.32778
G1 X108.126 Y116.374 E118.37009
G1 X107.582 Y116.374 E118.39188
G1 X108.874 Y115.082 E118.46500
G1 X108.874 Y114.537 E118.48679
G1 X107.037 Y116.374 E118.59072
G1 X106.493 Y116.374 E118.61251
G1 X108.874 Y113.993 E118.74726
G1 X108.874 Y113.449 E118.76904
G1 X105.949 Y116.374 E118.93460
G1 X105.404 Y116.374 E118.95638
G1 X108.874 Y112.904 E119.15275
G1 X108.874 Y112.360 E119.17454
G1 X104.860 Y116.374 E119.40171
G1 X104.315 Y116.374 E119.42350
G1 X108.874 Y111.815 E119.68149
G1 X108.874 Y111.271 E119.70327
G1 X103.771 Y116.374 E119.99207
G1 X103.226 Y116.374 E120.01386
G1 X108.874 Y110.726 E120.33346
G1 X108.874 Y110.182 E120.35525
G1 X102.682 Y116.374 E120.70567
G1 X102.137 Y116.374 E120.72745
G1 X108.874 Y109.637 E121.10868
G1 X108.874 Y109.093 E121.13047
G1 X101.593 Y116.374 E121.54251
G1 X101.048 Y116.374 E121.56429
G1 X108.874 Y108.548 E122.00714
G1 X108.874 Y108.004 E122.02893
G1 X100.504 Y116.374 E122.50259
G1 X99.960 Y116.374 E122.52438
G1 X108.874 Y107.460 E123.02885
G1 X108.874 Y106.915 E123.05063
G1 X99.415 Y116.374 E123.58591
G1 X98.871 Y116.374 E123.60770
G1 X108.874 Y106.371 E124.17379
G1 X108.874 Y105.826 E124.19558
G1 X98.326 Y116.374 E124.79248
G1 X97.782 Y116.374 E124.81427
G1 X108.874 Y105.282 E125.44198
G1 X108.874 Y104.737 E125.46376
G1 X97.237 Y116.374 E126.12229
G1 X96.693 Y116.374 E126.14407
G1 X108.874 Y104.193 E126.83341
G1 X108.874 Y103.648 E126.85519
G1 X96.148 Y116.374 E127.57534
G1 X95.604 Y116.374 E127.59712
G1 X108.874 Y103.104 E128.34808
G1 X108.874 Y102.559 E128.36986
G1 X95.059 Y116.374 E129.15163
G1 X94.515 Y116.374 E129.17341
G1 X108.874 Y102.015 E129.98599
G1 X108.874 Y101.471 E130.00777
G1 X93.971 Y116.374 E130.85116
G1 X93.426 Y116.374 E130.87294
G1 X108.874 Y100.926 E131.74714
G1 X108.874 Y100.382 E131.76893
G1 X92.882 Y116.374 E132.67393
G1 X92.337 Y116.374 E132.69572
G1 X108.874 Y99.837 E133.63153
G1 X108.874 Y99.293 E133.65332
G1 X91.793 Y116.374 E134.61995
G1 X91.248 Y116.374 E134.64173
G1 X108.874 Y98.748 E135.63917
G1 X108.874 Y98.204 E135.66096
G1 X91.126 Y115.952 E136.66532
G1 X91.126 Y115.408 E136.68711
G1 X108.874 Y97.659 E137.69147
G1 X108.874 Y97.115 E137.71325
G1 X91.126 Y114.863 E138.71762
G1 X91.126 Y114.319 E138.73940
G1 X108.874 Y96.570 E139.74376
G1 X108.874 Y96.026 E139.76555
G1 X91.126 Y113.774 E140.76991
G1 X91.126 Y113.230 E140.79170
G1 X108.874 Y95.482 E141.79606
G1 X108.874 Y94.937 E141.81785
G1 X91.126 Y112.685 E142.82221
G1 X91.126 Y112.141 E142.84399
G1 X108.874 Y94.393 E143.84836
G1 X108.874 Y93.848 E143.87014
G1 X91.126 Y111.596 E144.87450
G1 X91.126 Y111.052 E144.89629
G1 X108.874 Y93.304 E145.90065
G1 X108.874 Y92.759 E145.92244
G1 X91.126 Y110.507 E146.92680
G1 X91.126 Y109.963 E146.94859
G1 X108.874 Y92.215 E147.95295
G1 X108.874 Y91.670 E147.97473
G1 X91.126 Y109.419 E148.97910
G1 X91.126 Y108.874 E149.00088
G1 X108.874 Y91.126 E150.00524
G1 X108.874 Y90.581 E150.02703
G1 X91.126 Y108.330 E151.03139
G1 X91.126 Y107.785 E151.05318
G1 X108.874 Y90.037 E152.05754
G1 X108.874 Y89.493 E152.07933
G1 X91.126 Y107.241 E153.08369
G1 X91.126 Y106.696 E153.10547
G1 X108.874 Y88.948 E154.10984
G1 X108.874 Y88.404 E154.13162
G1 X91.126 Y106.152 E155.13598
G1 X91.126 Y105.607 E155.15777
G1 X108.874 Y87.859 E156.16213
G1 X108.874 Y87.315 E156.18392
G1 X91.126 Y105.063 E157.18828
G1 X91.126 Y104.518 E157.21007
G1 X108.874 Y86.770 E158.21443
G1 X108.874 Y86.226 E158.23621
G1 X91.126 Y103.974 E159.24058
G1 X91.126 Y103.430 E159.26236
G1 X108.874 Y85.681 E160.26672
G1 X108.874 Y85.137 E160.28851
G1 X91.126 Y102.885 E161.29287
G1 X91.126 Y102.341 E161.31466
G1 X108.874 Y84.592 E162.31902
G1 X108.874 Y84.048 E162.34081
G1 X91.126 Y101.796 E163.34517
G1 X91.126 Y101.252 E163.36695
G1 X108.752 Y83.626 E164.36439
G1 X108.207 Y83.626 E164.38618
G1 X91.126 Y100.707 E165.35280
G1 X91.126 Y100.163 E165.37459
G1 X107.663 Y83.626 E166.31041
G1 X107.118 Y83.626 E166.33219
G1 X91.126 Y99.618 E167.23720
G1 X91.126 Y99.074 E167.25898
G1 X106.574 Y83.626 E168.13318
G1 X106.029 Y83.626 E168.15496
G1 X91.126 Y98.529 E168.99835
G1 X91.126 Y97.985 E169.02014
G1 X105.485 Y83.626 E169.83271
G1 X104.941 Y83.626 E169.85450
G1 X91.126 Y97.441 E170.63626
G1 X91.126 Y96.896 E170.65805
G1 X104.396 Y83.626 E171.40900
G1 X103.852 Y83.626 E171.43078
G1 X91.126 Y96.352 E172.15093
G1 X91.126 Y95.807 E172.17271
G1 X103.307 Y83.626 E172.86205
G1 X102.763 Y83.626 E172.88383
G1 X91.126 Y95.263 E173.54235
G1 X91.126 Y94.718 E173.56414
G1 X102.218 Y83.626 E174.19185
G1 X101.674 Y83.626 E174.21364
G1 X91.126 Y94.174 E174.81054
G1 X91.126 Y93.629 E174.83233
G1 X101.129 Y83.626 E175.39842
G1 X100.585 Y83.626 E175.42020
G1 X91.126 Y93.085 E175.95548
G1 X91.126 Y92.540 E175.97727
G1 X100.040 Y83.626 E176.48174
G1 X99.496 Y83.626 E176.50352
G1 X91.126 Y91.996 E176.97718
G1 X91.126 Y91.452 E176.99897
G1 X98.952 Y83.626 E177.44182
G1 X98.407 Y83.626 E177.46360
G1 X91.126 Y90.907 E177.87564
G1 X91.126 Y90.363 E177.89743
G1 X97.863 Y83.626 E178.27866
G1 X97.318 Y83.626 E178.30044
G1 X91.126 Y89.818 E178.65086
G1 X91.126 Y89.274 E178.67265
G1 X96.774 Y83.626 E178.99225
G1 X96.229 Y83.626 E179.01404
G1 X91.126 Y88.729 E179.30284
G1 X91.126 Y88.185 E179.32462
G1 X95.685 Y83.626 E179.58261
G1 X95.140 Y83.626 E179.60440
G1 X91.126 Y87.640 E179.83157
G1 X91.126 Y87.096 E179.85336
G1 X94.596 Y83.626 E180.04972
G1 X94.051 Y83.626 E180.07151
G1 X91.126 Y86.551 E180.23706
G1 X91.126 Y86.007 E180.25885
G1 X93.507 Y83.626 E180.39360
G1 X92.963 Y83.626 E180.41538
G1 X91.126 Y85.463 E180.51932
G1 X91.126 Y84.918 E180.54110
G1 X92.418 Y83.626 E180.61423
G1 X91.874 Y83.626 E180.63601
G1 X91.126 Y84.374 E180.67832
G1 X91.126 Y83.829 E180.70011
G1 X91.329 Y83.626 E180.71161
G1 Z0.850 F7800.000
G1 X109.100 Y116.600 F7800.000
G1 X90.900 Y116.600 E181.43958 F3600.000
G1 X90.900 Y83.400 E182.76754
G1 X109.100 Y83.400 E183.49551
G1 X109.100 Y116.547 E184.82137
G1 X109.484 Y116.984 F7800.000
G1 X90.516 Y116.984 E185.58012 F3600.000
G1 X90.516 Y83.016 E186.93888
G1 X109.484 Y83.016 E187.69763
G1 X109.484 Y116.932 E189.05428
G1 X109.825 Y117.325 F7800.000
G1 X90.175 Y117.325 E189.65954 F1800.000
G1 X90.175 Y82.675 E190.72683
G1 X109.825 Y82.675 E191.33209
G1 X109.825 Y117.273 E192.39776
G1 X109.522 Y117.150 F7800.000
G1 X91.126 Y116.171 F7800.000
G1 X91.329 Y116.374 E192.40926 F1200.000
G1 X91.874 Y116.374 E192.43105
G1 X91.126 Y115.626 E192.47336
G1 X91.126 Y115.082 E192.49514
G1 X92.418 Y116.374 E192.56827
G1 X92.963 Y116.374 E192.59005
G1 X91.126 Y114.537 E192.69399
G1 X91.126 Y113.993 E192.71577
G1 X93.507 Y116.374 E192.85052
G1 X94.051 Y116.374 E192.87231
G1 X91.126 Y113.449 E193.03786
G1 X91.126 Y112.904 E193.05965
G1 X94.596 Y116.374 E193.25601
G1 X95.140 Y116.374 E193.27780
G1 X91.126 Y112.360 E193.50497
G1 X91.126 Y111.815 E193.52676
G1 X95.685 Y116.374 E193.78475
G1 X96.229 Y116.374 E193.80653
G1 X91.126 Y111.271 E194.09533
G1 X91.126 Y110.726 E194.11712
G1 X96.774 Y116.374 E194.43672
G1 X97.318 Y116.374 E194.45851
G1 X91.126 Y110.182 E194.80893
G1 X91.126 Y109.637 E194.83071
G1 X97.863 Y116.374 E195.21194
G1 X98.407 Y116.374 E195.23373
G1 X91.126 Y109.093 E195.64577
G1 X91.126 Y108.548 E195.66755
G1 X98.952 Y116.374 E196.11040
G1 X99.496 Y116.374 E196.13219
G1 X91.126 Y108.004 E196.60585
G1 X91.126 Y107.460 E196.62763
G1 X100.040 Y116.374 E197.13210
G1 X100.585 Y116.374 E197.15389
G1 X91.126 Y106.915 E197.68917
G1 X91.126 Y106.371 E197.71095
G1 X101.129 Y116.374 E198.27705
G1 X101.674 Y116.374 E198.29883
G1 X91.126 Y105.826 E198.89573
G1 X91.126 Y105.282 E198.91752
G1 X102.218 Y116.374 E199.54523
G1 X102.763 Y116.374 E199.56702
G1 X91.126 Y104.737 E200.22554
G1 X91.126 Y104.193 E200.24732
G1 X103.307 Y116.374 E200.93666
G1 X103.852 Y116.374 E200.95844
G1 X91.126 Y103.648 E201.67859
G1 X91.126 Y103.104 E201.70037
G1 X104.396 Y116.374 E202.45133
G1 X104.941 Y116.374 E202.47311
G1 X91.126 Y102.559 E203.25488
G1 X91.126 Y102.015 E203.27666
G1 X105.485 Y116.374 E204.08924
G1 X106.029 Y116.374 E204.11102
G1 X91.126 Y101.471 E204.95441
G1 X91.126 Y100.926 E204.97619
G1 X106.574 Y116.374 E205.85039
G1 X107.118 Y116.374 E205.87217
G1 X91.126 Y100.382 E206.77718
G1 X91.126 Y99.837 E206.79897
G1 X107.663 Y116.374 E207.73478
G1 X108.207 Y116.374 E207.75657
G1 X91.126 Y99.293 E208.72319
G1 X91.126 Y98.748 E208.74498
G1 X108.752 Y116.374 E209.74242
G1 X108.874 Y115.952 E209.76000
G1 X91.126 Y98.204 E210.76436
G1 X91.126 Y97.659 E210.78615
G1 X108.874 Y115.408 E211.79051
G1 X108.874 Y114.863 E211.81230
G1 X91.126 Y97.115 E212.81666
G1 X91.126 Y96.570 E212.83845
G1 X108.874 Y114.319 E213.84281
G1 X108.874 Y113.774 E213.86459
G1 X91.126 Y96.026 E214.86896
G1 X91.126 Y95.482 E214.89074
