; generated by Slic3r 1.0.0RC2 on 2014-01-01 at 22:09:56

; layer_height = 0.25
; perimeters = 3
; top_solid_layers = 3
; bottom_solid_layers = 3
; fill_density = 0.4
; perimeter_speed = 30
; infill_speed = 60
; travel_speed = 130
; nozzle_diameter = 0.35
; filament_diameter = 1.75
; extrusion_multiplier = 1
; perimeters extrusion width = 0.35mm
; infill extrusion width = 0.39mm
; solid infill extrusion width = 0.39mm
; top infill extrusion width = 0.39mm
; first layer extrusion width = 0.70mm

G21 ; set units to millimeters
M107
M104 S220 ; set temperature
G28 ; home all axes
G1 Z5 F5000 ; lift nozzle

M109 S220 ; wait for temperature to be reached
G90 ; use absolute coordinates
G92 E0
M82 ; use absolute distances for extrusion
G1 F1800.000 E-1.00000
G92 E0
G1 Z0.350 F7800.000
G1 X167.720 Y79.490 F7800.000
G1 E1.00000 F1800.000
G1 X168.450 Y78.130 E1.14035 F540.000
G1 X169.430 Y76.930 E1.28123
G1 X170.630 Y75.950 E1.42211
G1 X171.990 Y75.220 E1.56246
G1 X173.460 Y74.780 E1.70199
G1 X175.000 Y74.630 E1.84268
G1 X195.000 Y74.630 E3.66128
G1 X196.540 Y74.780 E3.80197
G1 X198.010 Y75.220 E3.94150
G1 X199.370 Y75.950 E4.08185
G1 X200.570 Y76.930 E4.22273
G1 X201.550 Y78.130 E4.36361
G1 X202.280 Y79.490 E4.50396
G1 X202.720 Y80.960 E4.64349
G1 X202.870 Y82.500 E4.78418
G1 X202.870 Y117.500 E7.96672
G1 X202.720 Y119.040 E8.10741
G1 X202.280 Y120.510 E8.24694
G1 X201.550 Y121.870 E8.38729
G1 X200.570 Y123.070 E8.52817
G1 X199.370 Y124.050 E8.66905
G1 X198.010 Y124.780 E8.80940
G1 X196.540 Y125.220 E8.94893
G1 X195.000 Y125.370 E9.08962
G1 X175.000 Y125.370 E10.90821
G1 X173.460 Y125.220 E11.04891
G1 X171.990 Y124.780 E11.18843
G1 X170.630 Y124.050 E11.32879
G1 X169.430 Y123.070 E11.46966
G1 X168.450 Y121.870 E11.61054
G1 X167.720 Y120.510 E11.75090
G1 X167.280 Y119.040 E11.89042
G1 X167.130 Y117.500 E12.03112
G1 X167.130 Y82.500 E15.21365
G1 X167.280 Y80.960 E15.35435
G1 X167.693 Y79.580 E15.48535
G1 X168.300 Y79.730 F7800.000
G1 X168.970 Y78.470 E15.61511 F540.000
G1 X169.870 Y77.370 E15.74435
G1 X170.970 Y76.470 E15.87358
G1 X172.230 Y75.800 E16.00334
G1 X173.590 Y75.390 E16.13250
G1 X175.000 Y75.250 E16.26135
G1 X195.000 Y75.250 E18.07994
G1 X196.410 Y75.390 E18.20878
G1 X197.770 Y75.800 E18.33794
G1 X199.030 Y76.470 E18.46770
G1 X200.130 Y77.370 E18.59694
G1 X201.030 Y78.470 E18.72617
G1 X201.700 Y79.730 E18.85593
G1 X202.110 Y81.090 E18.98510
G1 X202.250 Y82.500 E19.11394
G1 X202.250 Y117.500 E22.29647
G1 X202.110 Y118.910 E22.42531
G1 X201.700 Y120.270 E22.55448
G1 X201.030 Y121.530 E22.68424
G1 X200.130 Y122.630 E22.81347
G1 X199.030 Y123.530 E22.94271
G1 X197.770 Y124.200 E23.07247
G1 X196.410 Y124.610 E23.20163
G1 X195.000 Y124.750 E23.33047
G1 X175.000 Y124.750 E25.14906
G1 X173.590 Y124.610 E25.27791
G1 X172.230 Y124.200 E25.40707
G1 X170.970 Y123.530 E25.53683
G1 X169.870 Y122.630 E25.66606
G1 X168.970 Y121.530 E25.79530
G1 X168.300 Y120.270 E25.92506
G1 X167.890 Y118.910 E26.05422
G1 X167.750 Y117.500 E26.18306
G1 X167.750 Y82.500 E29.36560
G1 X167.890 Y81.090 E29.49444
G1 X168.273 Y79.820 E29.61508
G1 X168.880 Y79.960 F7800.000
G1 X169.490 Y78.820 E29.73265 F540.000
G1 X170.320 Y77.820 E29.85082
G1 X171.320 Y76.990 E29.96899
G1 X172.460 Y76.380 E30.08655
G1 X173.710 Y76.000 E30.20535
G1 X175.000 Y75.880 E30.32316
G1 X195.000 Y75.880 E32.14175
G1 X196.290 Y76.000 E32.25955
G1 X197.540 Y76.380 E32.37835
G1 X198.680 Y76.990 E32.49592
G1 X199.680 Y77.820 E32.61409
G1 X200.510 Y78.820 E32.73226
G1 X201.120 Y79.960 E32.84983
G1 X201.500 Y81.210 E32.96862
G1 X201.620 Y82.500 E33.08643
G1 X201.620 Y117.500 E36.26896
G1 X201.500 Y118.790 E36.38677
G1 X201.120 Y120.040 E36.50557
G1 X200.510 Y121.180 E36.62313
G1 X199.680 Y122.180 E36.74130
G1 X198.680 Y123.010 E36.85947
G1 X197.540 Y123.620 E36.97704
G1 X196.290 Y124.000 E37.09584
G1 X195.000 Y124.120 E37.21364
G1 X175.000 Y124.120 E39.03224
G1 X173.710 Y124.000 E39.15004
G1 X172.460 Y123.620 E39.26884
G1 X171.320 Y123.010 E39.38641
G1 X170.320 Y122.180 E39.50458
G1 X169.490 Y121.180 E39.62275
G1 X168.880 Y120.040 E39.74031
G1 X168.500 Y118.790 E39.85911
G1 X168.380 Y117.500 E39.97692
G1 X168.380 Y82.500 E43.15945
G1 X168.500 Y81.210 E43.27726
G1 X168.853 Y80.050 E43.38753
G1 F1800.000 E42.38753
G92 E0
G1 X176.600 Y84.100 F7800.000
G1 E1.00000 F1800.000
G1 X193.400 Y84.100 E2.52766 F540.000
G1 X193.400 Y115.900 E5.41926
G1 X176.600 Y115.900 E6.94692
G1 X176.600 Y84.194 E9.82999
G1 X175.975 Y83.475 F7800.000
G1 X194.025 Y83.475 E11.47129 F540.000
G1 X194.025 Y116.525 E14.47653
G1 X175.975 Y116.525 E16.11783
G1 X175.975 Y83.569 E19.11455
G1 X175.350 Y82.850 F7800.000
G1 X194.650 Y82.850 E20.86949 F378.000
G1 X194.650 Y117.150 E23.98838
G1 X175.350 Y117.150 E25.74332
G1 X175.350 Y82.944 E28.85368
G1 X175.891 Y83.162 F7800.000
G1 X192.915 Y84.521 F7800.000
G1 X192.979 Y84.585 E28.86201 F1080.000
G1 X192.979 Y85.484 E28.94531
G1 X192.016 Y84.521 E29.07145
G1 X191.116 Y84.521 E29.15475
G1 X192.979 Y86.384 E29.39870
G1 X192.979 Y87.284 E29.48200
G1 X190.216 Y84.521 E29.84376
G1 X189.316 Y84.521 E29.92706
G1 X192.979 Y88.184 E30.40662
G1 X192.979 Y89.084 E30.48993
G1 X188.416 Y84.521 E31.08730
G1 X187.517 Y84.521 E31.17060
G1 X192.979 Y89.983 E31.88579
G1 X192.979 Y90.883 E31.96909
G1 X186.617 Y84.521 E32.80208
G1 X185.717 Y84.521 E32.88539
G1 X192.979 Y91.783 E33.83619
G1 X192.979 Y92.683 E33.91949
G1 X184.817 Y84.521 E34.98810
G1 X183.918 Y84.521 E35.07140
G1 X192.979 Y93.582 E36.25782
G1 X192.979 Y94.482 E36.34113
G1 X183.018 Y84.521 E37.64536
G1 X182.118 Y84.521 E37.72866
G1 X192.979 Y95.382 E39.15070
G1 X192.979 Y96.282 E39.23400
G1 X181.218 Y84.521 E40.77385
G1 X180.318 Y84.521 E40.85715
G1 X192.979 Y97.182 E42.51481
G1 X192.979 Y98.081 E42.59811
G1 X179.419 Y84.521 E44.37358
G1 X178.519 Y84.521 E44.45688
G1 X192.979 Y98.981 E46.35016
G1 X192.979 Y99.881 E46.43346
G1 X177.619 Y84.521 E48.44454
G1 X177.021 Y84.823 E48.50656
G1 X192.979 Y100.781 E50.59595
G1 X192.979 Y101.680 E50.67926
G1 X177.021 Y85.722 E52.76865
G1 X177.021 Y86.622 E52.85195
G1 X192.979 Y102.580 E54.94134
G1 X192.979 Y103.480 E55.02464
G1 X177.021 Y87.522 E57.11403
G1 X177.021 Y88.422 E57.19734
G1 X192.979 Y104.380 E59.28673
G1 X192.979 Y105.280 E59.37003
G1 X177.021 Y89.322 E61.45942
G1 X177.021 Y90.221 E61.54273
G1 X192.979 Y106.179 E63.63212
G1 X192.979 Y107.079 E63.71542
G1 X177.021 Y91.121 E65.80481
G1 X177.021 Y92.021 E65.88812
G1 X192.979 Y107.979 E67.97751
G1 X192.979 Y108.879 E68.06081
G1 X177.021 Y92.921 E70.15020
G1 X177.021 Y93.821 E70.23350
G1 X192.979 Y109.779 E72.32289
G1 X192.979 Y110.678 E72.40620
G1 X177.021 Y94.720 E74.49559
G1 X177.021 Y95.620 E74.57889
G1 X192.979 Y111.578 E76.66828
G1 X192.979 Y112.478 E76.75159
G1 X177.021 Y96.520 E78.84098
G1 X177.021 Y97.420 E78.92428
G1 X192.979 Y113.378 E81.01367
G1 X192.979 Y114.277 E81.09698
G1 X177.021 Y98.319 E83.18637
G1 X177.021 Y99.219 E83.26967
G1 X192.979 Y115.177 E85.35906
G1 X192.381 Y115.479 E85.42108
G1 X177.021 Y100.119 E87.43216
G1 X177.021 Y101.019 E87.51547
G1 X191.481 Y115.479 E89.40875
G1 X190.581 Y115.479 E89.49205
G1 X177.021 Y101.919 E91.26752
G1 X177.021 Y102.818 E91.35082
G1 X189.682 Y115.479 E93.00848
G1 X188.782 Y115.479 E93.09179
G1 X177.021 Y103.718 E94.63164
G1 X177.021 Y104.618 E94.71494
G1 X187.882 Y115.479 E96.13698
G1 X186.982 Y115.479 E96.22029
G1 X177.021 Y105.518 E97.52452
G1 X177.021 Y106.418 E97.60782
G1 X186.082 Y115.479 E98.79425
G1 X185.183 Y115.479 E98.87755
G1 X177.021 Y107.317 E99.94616
G1 X177.021 Y108.217 E100.02947
G1 X184.283 Y115.479 E100.98027
G1 X183.383 Y115.479 E101.06357
G1 X177.021 Y109.117 E101.89657
G1 X177.021 Y110.017 E101.97987
G1 X182.483 Y115.479 E102.69506
G1 X181.584 Y115.479 E102.77836
G1 X177.021 Y110.916 E103.37574
G1 X177.021 Y111.816 E103.45904
G1 X180.684 Y115.479 E103.93861
G1 X179.784 Y115.479 E104.02192
G1 X177.021 Y112.716 E104.38367
G1 X177.021 Y113.616 E104.46698
G1 X178.884 Y115.479 E104.71093
G1 X177.984 Y115.479 E104.79423
G1 X177.021 Y114.516 E104.92037
G1 X177.021 Y115.415 E105.00367
G1 X177.085 Y115.479 E105.01200
M106 S210
M104 S220 ; set temperature
G1 F1800.000 E104.01200
G92 E0
G1 Z0.600 F7800.000
G1 X175.875 Y116.625 F7800.000
G1 E1.00000 F1800.000
G1 X175.875 Y83.375 E2.20958 F1800
G1 X194.125 Y83.375 E2.87348
G1 X194.125 Y116.625 E4.08306
G1 X175.928 Y116.625 E4.74505
G1 X175.525 Y116.975 F7800.000
G1 X175.525 Y83.025 E5.98009 F1800
G1 X194.475 Y83.025 E6.66946
G1 X194.475 Y116.975 E7.90451
G1 X175.577 Y116.975 E8.59196
G1 X175.175 Y117.325 F7800.000
G1 X175.175 Y82.675 E9.85247 F1260
G1 X194.825 Y82.675 E10.56730
G1 X194.825 Y117.325 E11.82781
G1 X175.227 Y117.325 E12.54073
G1 X175.350 Y117.022 F7800.000
G1 X193.883 Y116.344 F7800.000
G1 X193.844 Y116.383 E12.54294 F3600
G1 X193.296 Y116.383 E12.56505
G1 X193.883 Y115.796 E12.59852
G1 X193.883 Y115.247 E12.62062
G1 X192.747 Y116.383 E12.68535
G1 X192.199 Y116.383 E12.70746
G1 X193.883 Y114.699 E12.80345
G1 X193.883 Y114.150 E12.82555
G1 X191.650 Y116.383 E12.95280
G1 X191.102 Y116.383 E12.97490
G1 X193.883 Y113.602 E13.13341
G1 X193.883 Y113.054 E13.15552
G1 X190.554 Y116.383 E13.34528
G1 X190.005 Y116.383 E13.36739
G1 X193.883 Y112.505 E13.58842
G1 X193.883 Y111.957 E13.61052
G1 X189.457 Y116.383 E13.86281
G1 X188.908 Y116.383 E13.88491
G1 X193.883 Y111.408 E14.16846
G1 X193.883 Y110.860 E14.19056
G1 X188.360 Y116.383 E14.50537
G1 X187.812 Y116.383 E14.52748
G1 X193.883 Y110.312 E14.87354
G1 X193.883 Y109.763 E14.89565
G1 X187.263 Y116.383 E15.27297
G1 X186.715 Y116.383 E15.29508
G1 X193.883 Y109.215 E15.70366
G1 X193.883 Y108.666 E15.72577
G1 X186.166 Y116.383 E16.16562
G1 X185.618 Y116.383 E16.18772
G1 X193.883 Y108.118 E16.65883
G1 X193.883 Y107.569 E16.68093
G1 X185.069 Y116.383 E17.18329
G1 X184.521 Y116.383 E17.20540
G1 X193.883 Y107.021 E17.73902
G1 X193.883 Y106.473 E17.76113
G1 X183.973 Y116.383 E18.32601
G1 X183.424 Y116.383 E18.34812
G1 X193.883 Y105.924 E18.94426
G1 X193.883 Y105.376 E18.96637
G1 X182.876 Y116.383 E19.59377
G1 X182.327 Y116.383 E19.61587
G1 X193.883 Y104.827 E20.27454
G1 X193.883 Y104.279 E20.29664
G1 X181.779 Y116.383 E20.98657
G1 X181.231 Y116.383 E21.00867
G1 X193.883 Y103.731 E21.72985
G1 X193.883 Y103.182 E21.75196
G1 X180.682 Y116.383 E22.50440
G1 X180.134 Y116.383 E22.52651
G1 X193.883 Y102.634 E23.31021
G1 X193.883 Y102.085 E23.33231
G1 X179.585 Y116.383 E24.14728
G1 X179.037 Y116.383 E24.16938
G1 X193.883 Y101.537 E25.01560
G1 X193.883 Y100.989 E25.03771
G1 X178.489 Y116.383 E25.91519
G1 X177.940 Y116.383 E25.93729
G1 X193.883 Y100.440 E26.84603
G1 X193.883 Y99.892 E26.86814
G1 X177.392 Y116.383 E27.80814
G1 X176.843 Y116.383 E27.83024
G1 X193.883 Y99.343 E28.80151
G1 X193.883 Y98.795 E28.82361
G1 X176.295 Y116.383 E29.82613
G1 X176.117 Y116.012 E29.84270
G1 X193.883 Y98.247 E30.85535
G1 X193.883 Y97.698 E30.87746
G1 X176.117 Y115.464 E31.89011
G1 X176.117 Y114.915 E31.91221
G1 X193.883 Y97.150 E32.92486
G1 X193.883 Y96.601 E32.94697
G1 X176.117 Y114.367 E33.95962
G1 X176.117 Y113.819 E33.98172
G1 X193.883 Y96.053 E34.99438
G1 X193.883 Y95.504 E35.01648
G1 X176.117 Y113.270 E36.02913
G1 X176.117 Y112.722 E36.05124
G1 X193.883 Y94.956 E37.06389
G1 X193.883 Y94.408 E37.08599
G1 X176.117 Y112.173 E38.09864
G1 X176.117 Y111.625 E38.12075
G1 X193.883 Y93.859 E39.13340
G1 X193.883 Y93.311 E39.15550
G1 X176.117 Y111.076 E40.16816
G1 X176.117 Y110.528 E40.19026
G1 X193.883 Y92.762 E41.20291
G1 X193.883 Y92.214 E41.22502
G1 X176.117 Y109.980 E42.23767
G1 X176.117 Y109.431 E42.25977
G1 X193.883 Y91.666 E43.27242
G1 X193.883 Y91.117 E43.29453
G1 X176.117 Y108.883 E44.30718
G1 X176.117 Y108.334 E44.32928
G1 X193.883 Y90.569 E45.34194
G1 X193.883 Y90.020 E45.36404
G1 X176.117 Y107.786 E46.37669
G1 X176.117 Y107.238 E46.39880
G1 X193.883 Y89.472 E47.41145
G1 X193.883 Y88.924 E47.43355
G1 X176.117 Y106.689 E48.44620
G1 X176.117 Y106.141 E48.46831
G1 X193.883 Y88.375 E49.48096
G1 X193.883 Y87.827 E49.50306
G1 X176.117 Y105.592 E50.51572
G1 X176.117 Y105.044 E50.53782
G1 X193.883 Y87.278 E51.55047
G1 X193.883 Y86.730 E51.57258
G1 X176.117 Y104.496 E52.58523
G1 X176.117 Y103.947 E52.60733
G1 X193.883 Y86.181 E53.61998
G1 X193.883 Y85.633 E53.64209
G1 X176.117 Y103.399 E54.65474
G1 X176.117 Y102.850 E54.67684
G1 X193.883 Y85.085 E55.68950
G1 X193.883 Y84.536 E55.71160
G1 X176.117 Y102.302 E56.72425
G1 X176.117 Y101.753 E56.74636
G1 X193.883 Y83.988 E57.75901
G1 X193.705 Y83.617 E57.77558
G1 X176.117 Y101.205 E58.77810
G1 X176.117 Y100.657 E58.80020
G1 X193.157 Y83.617 E59.77146
G1 X192.608 Y83.617 E59.79357
G1 X176.117 Y100.108 E60.73357
G1 X176.117 Y99.560 E60.75567
G1 X192.060 Y83.617 E61.66441
G1 X191.511 Y83.617 E61.68652
G1 X176.117 Y99.011 E62.56400
G1 X176.117 Y98.463 E62.58610
G1 X190.963 Y83.617 E63.43232
G1 X190.415 Y83.617 E63.45443
G1 X176.117 Y97.915 E64.26939
G1 X176.117 Y97.366 E64.29149
G1 X189.866 Y83.617 E65.07519
G1 X189.318 Y83.617 E65.09730
G1 X176.117 Y96.818 E65.84974
G1 X176.117 Y96.269 E65.87185
G1 X188.769 Y83.617 E66.59303
G1 X188.221 Y83.617 E66.61513
G1 X176.117 Y95.721 E67.30506
G1 X176.117 Y95.173 E67.32716
G1 X187.673 Y83.617 E67.98582
G1 X187.124 Y83.617 E68.00793
G1 X176.117 Y94.624 E68.63533
G1 X176.117 Y94.076 E68.65743
G1 X186.576 Y83.617 E69.25358
G1 X186.027 Y83.617 E69.27568
G1 X176.117 Y93.527 E69.84057
G1 X176.117 Y92.979 E69.86267
G1 X185.479 Y83.617 E70.39630
G1 X184.931 Y83.617 E70.41840
G1 X176.117 Y92.431 E70.92076
G1 X176.117 Y91.882 E70.94287
G1 X184.382 Y83.617 E71.41397
G1 X183.834 Y83.617 E71.43608
G1 X176.117 Y91.334 E71.87592
G1 X176.117 Y90.785 E71.89803
G1 X183.285 Y83.617 E72.30661
G1 X182.737 Y83.617 E72.32872
G1 X176.117 Y90.237 E72.70604
G1 X176.117 Y89.688 E72.72815
G1 X182.188 Y83.617 E73.07421
G1 X181.640 Y83.617 E73.09632
G1 X176.117 Y89.140 E73.41112
G1 X176.117 Y88.592 E73.43323
G1 X181.092 Y83.617 E73.71677
G1 X180.543 Y83.617 E73.73888
G1 X176.117 Y88.043 E73.99117
G1 X176.117 Y87.495 E74.01327
G1 X179.995 Y83.617 E74.23430
G1 X179.446 Y83.617 E74.25640
G1 X176.117 Y86.946 E74.44617
G1 X176.117 Y86.398 E74.46827
G1 X178.898 Y83.617 E74.62678
G1 X178.350 Y83.617 E74.64888
G1 X176.117 Y85.850 E74.77613
G1 X176.117 Y85.301 E74.79824
G1 X177.801 Y83.617 E74.89423
G1 X177.253 Y83.617 E74.91633
G1 X176.117 Y84.753 E74.98106
G1 X176.117 Y84.204 E75.00316
G1 X176.704 Y83.617 E75.03663
G1 X176.156 Y83.617 E75.05874
G1 X176.117 Y83.656 E75.06095
M106 S210
G1 F1800.000 E74.06095
G92 E0
G1 Z0.850 F7800.000
G1 X175.875 Y83.375 F7800.000
G1 E1.00000 F1800.000
G1 X194.125 Y83.375 E1.66390 F1800
G1 X194.125 Y116.625 E2.87348
G1 X175.875 Y116.625 E3.53738
G1 X175.875 Y83.427 E4.74505
G1 X175.525 Y83.025 F7800.000
G1 X194.475 Y83.025 E5.43442 F1800
G1 X194.475 Y116.975 E6.66946
G1 X175.525 Y116.975 E7.35883
G1 X175.525 Y83.078 E8.59196
G1 X175.175 Y82.675 F7800.000
G1 X194.825 Y82.675 E9.30680 F1260
G1 X194.825 Y117.325 E10.56730
G1 X175.175 Y117.325 E11.28214
G1 X175.175 Y82.728 E12.54073
G1 X175.478 Y82.850 F7800.000
G1 X193.844 Y83.617 F7800.000
G1 X193.883 Y83.656 E12.54294 F3600
G1 X193.883 Y84.204 E12.56505
G1 X193.296 Y83.617 E12.59852
G1 X192.747 Y83.617 E12.62062
G1 X193.883 Y84.753 E12.68535
G1 X193.883 Y85.301 E12.70745
G1 X192.199 Y83.617 E12.80344
G1 X191.650 Y83.617 E12.82555
G1 X193.883 Y85.850 E12.95280
G1 X193.883 Y86.398 E12.97490
G1 X191.102 Y83.617 E13.13341
G1 X190.554 Y83.617 E13.15551
G1 X193.883 Y86.946 E13.34528
G1 X193.883 Y87.495 E13.36738
G1 X190.005 Y83.617 E13.58841
G1 X189.457 Y83.617 E13.61051
G1 X193.883 Y88.043 E13.86280
G1 X193.883 Y88.592 E13.88491
G1 X188.908 Y83.617 E14.16845
G1 X188.360 Y83.617 E14.19056
G1 X193.883 Y89.140 E14.50536
G1 X193.883 Y89.688 E14.52747
G1 X187.812 Y83.617 E14.87353
G1 X187.263 Y83.617 E14.89564
G1 X193.883 Y90.237 E15.27296
G1 X193.883 Y90.785 E15.29507
G1 X186.715 Y83.617 E15.70365
G1 X186.166 Y83.617 E15.72576
G1 X193.883 Y91.334 E16.16560
G1 X193.883 Y91.882 E16.18771
G1 X185.618 Y83.617 E16.65881
G1 X185.069 Y83.617 E16.68092
G1 X193.883 Y92.431 E17.18328
G1 X193.883 Y92.979 E17.20538
G1 X184.521 Y83.617 E17.73901
