; generated by Slic3r 1.0.0RC2 on 2014-01-07 at 21:09:10

; layer_height = 0.25
; perimeters = 3
; top_solid_layers = 3
; bottom_solid_layers = 3
; fill_density = 0.3
; perimeter_speed = 30
; infill_speed = 60
; travel_speed = 130
; nozzle_diameter = 0.35
; filament_diameter = 1.75
; extrusion_multiplier = 1
; perimeters extrusion width = 0.35mm
; infill extrusion width = 0.39mm
; solid infill extrusion width = 0.39mm
; top infill extrusion width = 0.39mm
; first layer extrusion width = 0.70mm

G21 ; set units to millimeters
M107
M104 S220 ; set temperature
G28 ; home all axes
G1 Z5 F5000 ; lift nozzle

M109 S220 ; wait for temperature to be reached
G90 ; use absolute coordinates
G92 E0
M82 ; use absolute distances for extrusion
G1 F1800.000 E-1.00000
G92 E0
G1 Z0.350 F7800.000
G1 X167.280 Y30.960 F7800.000
G1 E1.00000 F1800.000
G1 X167.720 Y29.490 E1.13953 F540.000
G1 X168.450 Y28.130 E1.27988
G1 X169.430 Y26.930 E1.42076
G1 X170.630 Y25.950 E1.56164
G1 X171.990 Y25.220 E1.70199
G1 X173.460 Y24.780 E1.84152
G1 X175.000 Y24.630 E1.98221
G1 X195.000 Y24.630 E3.80080
G1 X196.540 Y24.780 E3.94150
G1 X198.010 Y25.220 E4.08102
G1 X199.370 Y25.950 E4.22137
G1 X200.570 Y26.930 E4.36225
G1 X201.550 Y28.130 E4.50313
G1 X202.280 Y29.490 E4.64349
G1 X202.720 Y30.960 E4.78301
G1 X202.870 Y32.500 E4.92371
G1 X202.870 Y67.500 E8.10624
G1 X202.720 Y69.040 E8.24694
G1 X202.280 Y70.510 E8.38646
G1 X201.550 Y71.870 E8.52681
G1 X200.570 Y73.070 E8.66769
G1 X199.370 Y74.050 E8.80857
G1 X198.010 Y74.780 E8.94893
G1 X196.540 Y75.220 E9.08845
G1 X195.000 Y75.370 E9.22915
G1 X175.000 Y75.370 E11.04774
G1 X173.460 Y75.220 E11.18843
G1 X171.990 Y74.780 E11.32796
G1 X170.630 Y74.050 E11.46831
G1 X169.430 Y73.070 E11.60919
G1 X168.450 Y71.870 E11.75007
G1 X167.720 Y70.510 E11.89042
G1 X167.280 Y69.040 E12.02995
G1 X167.130 Y67.500 E12.17064
G1 X167.130 Y32.500 E15.35318
G1 X167.271 Y31.053 E15.48535
G1 X167.890 Y31.090 F7800.000
G1 X168.300 Y29.730 E15.61451 F540.000
G1 X168.970 Y28.470 E15.74427
G1 X169.870 Y27.370 E15.87351
G1 X170.970 Y26.470 E16.00274
G1 X172.230 Y25.800 E16.13251
G1 X173.590 Y25.390 E16.26167
G1 X175.000 Y25.250 E16.39051
G1 X195.000 Y25.250 E18.20910
G1 X196.410 Y25.390 E18.33794
G1 X197.770 Y25.800 E18.46710
G1 X199.030 Y26.470 E18.59686
G1 X200.130 Y27.370 E18.72610
G1 X201.030 Y28.470 E18.85533
G1 X201.700 Y29.730 E18.98510
G1 X202.110 Y31.090 E19.11426
G1 X202.250 Y32.500 E19.24310
G1 X202.250 Y67.500 E22.42563
G1 X202.110 Y68.910 E22.55448
G1 X201.700 Y70.270 E22.68364
G1 X201.030 Y71.530 E22.81340
G1 X200.130 Y72.630 E22.94263
G1 X199.030 Y73.530 E23.07187
G1 X197.770 Y74.200 E23.20163
G1 X196.410 Y74.610 E23.33079
G1 X195.000 Y74.750 E23.45963
G1 X175.000 Y74.750 E25.27823
G1 X173.590 Y74.610 E25.40707
G1 X172.230 Y74.200 E25.53623
G1 X170.970 Y73.530 E25.66599
G1 X169.870 Y72.630 E25.79523
G1 X168.970 Y71.530 E25.92446
G1 X168.300 Y70.270 E26.05422
G1 X167.890 Y68.910 E26.18339
G1 X167.750 Y67.500 E26.31223
G1 X167.750 Y32.500 E29.49476
G1 X167.881 Y31.183 E29.61508
G1 X168.500 Y31.210 F7800.000
G1 X168.880 Y29.960 E29.73388 F540.000
G1 X169.490 Y28.820 E29.85144
G1 X170.320 Y27.820 E29.96961
G1 X171.320 Y26.990 E30.08778
G1 X172.460 Y26.380 E30.20535
G1 X173.710 Y26.000 E30.32415
G1 X175.000 Y25.880 E30.44195
G1 X195.000 Y25.880 E32.26055
G1 X196.290 Y26.000 E32.37835
G1 X197.540 Y26.380 E32.49715
G1 X198.680 Y26.990 E32.61472
G1 X199.680 Y27.820 E32.73289
G1 X200.510 Y28.820 E32.85106
G1 X201.120 Y29.960 E32.96862
G1 X201.500 Y31.210 E33.08742
G1 X201.620 Y32.500 E33.20523
G1 X201.620 Y67.500 E36.38776
G1 X201.500 Y68.790 E36.50557
G1 X201.120 Y70.040 E36.62437
G1 X200.510 Y71.180 E36.74193
G1 X199.680 Y72.180 E36.86010
G1 X198.680 Y73.010 E36.97827
G1 X197.540 Y73.620 E37.09584
G1 X196.290 Y74.000 E37.21464
G1 X195.000 Y74.120 E37.33244
G1 X175.000 Y74.120 E39.15103
G1 X173.710 Y74.000 E39.26884
G1 X172.460 Y73.620 E39.38764
G1 X171.320 Y73.010 E39.50520
G1 X170.320 Y72.180 E39.62337
G1 X169.490 Y71.180 E39.74154
G1 X168.880 Y70.040 E39.85911
G1 X168.500 Y68.790 E39.97791
G1 X168.380 Y67.500 E40.09571
G1 X168.380 Y32.500 E43.27825
G1 X168.491 Y31.303 E43.38753
G1 F1800.000 E42.38753
G92 E0
G1 X176.600 Y34.100 F7800.000
G1 E1.00000 F1800.000
G1 X193.400 Y34.100 E2.52766 F540.000
G1 X193.400 Y65.900 E5.41926
G1 X176.600 Y65.900 E6.94692
G1 X176.600 Y34.194 E9.82999
G1 X175.975 Y33.475 F7800.000
G1 X194.025 Y33.475 E11.47129 F540.000
G1 X194.025 Y66.525 E14.47653
G1 X175.975 Y66.525 E16.11783
G1 X175.975 Y33.569 E19.11455
G1 X175.350 Y32.850 F7800.000
G1 X194.650 Y32.850 E20.86949 F378.000
G1 X194.650 Y67.150 E23.98838
G1 X175.350 Y67.150 E25.74332
G1 X175.350 Y32.944 E28.85368
G1 X175.891 Y33.162 F7800.000
G1 X192.915 Y34.521 F7800.000
G1 X192.979 Y34.585 E28.86201 F1080.000
G1 X192.979 Y35.484 E28.94531
G1 X192.016 Y34.521 E29.07145
G1 X191.116 Y34.521 E29.15475
G1 X192.979 Y36.384 E29.39870
G1 X192.979 Y37.284 E29.48200
G1 X190.216 Y34.521 E29.84376
G1 X189.316 Y34.521 E29.92706
G1 X192.979 Y38.184 E30.40662
G1 X192.979 Y39.084 E30.48993
G1 X188.416 Y34.521 E31.08730
G1 X187.517 Y34.521 E31.17060
G1 X192.979 Y39.983 E31.88579
G1 X192.979 Y40.883 E31.96909
G1 X186.617 Y34.521 E32.80208
G1 X185.717 Y34.521 E32.88539
G1 X192.979 Y41.783 E33.83619
G1 X192.979 Y42.683 E33.91949
G1 X184.817 Y34.521 E34.98810
G1 X183.918 Y34.521 E35.07140
G1 X192.979 Y43.582 E36.25782
G1 X192.979 Y44.482 E36.34113
G1 X183.018 Y34.521 E37.64536
G1 X182.118 Y34.521 E37.72866
G1 X192.979 Y45.382 E39.15070
G1 X192.979 Y46.282 E39.23400
G1 X181.218 Y34.521 E40.77385
G1 X180.318 Y34.521 E40.85715
G1 X192.979 Y47.182 E42.51481
G1 X192.979 Y48.081 E42.59811
G1 X179.419 Y34.521 E44.37358
G1 X178.519 Y34.521 E44.45688
G1 X192.979 Y48.981 E46.35016
G1 X192.979 Y49.881 E46.43346
G1 X177.619 Y34.521 E48.44454
G1 X177.021 Y34.823 E48.50656
G1 X192.979 Y50.781 E50.59595
G1 X192.979 Y51.680 E50.67926
G1 X177.021 Y35.722 E52.76865
G1 X177.021 Y36.622 E52.85195
G1 X192.979 Y52.580 E54.94134
G1 X192.979 Y53.480 E55.02464
G1 X177.021 Y37.522 E57.11403
G1 X177.021 Y38.422 E57.19734
G1 X192.979 Y54.380 E59.28673
G1 X192.979 Y55.280 E59.37003
G1 X177.021 Y39.322 E61.45942
G1 X177.021 Y40.221 E61.54273
G1 X192.979 Y56.179 E63.63212
G1 X192.979 Y57.079 E63.71542
G1 X177.021 Y41.121 E65.80481
G1 X177.021 Y42.021 E65.88812
G1 X192.979 Y57.979 E67.97751
G1 X192.979 Y58.879 E68.06081
G1 X177.021 Y42.921 E70.15020
G1 X177.021 Y43.821 E70.23350
G1 X192.979 Y59.779 E72.32289
G1 X192.979 Y60.678 E72.40620
G1 X177.021 Y44.720 E74.49559
G1 X177.021 Y45.620 E74.57889
G1 X192.979 Y61.578 E76.66828
G1 X192.979 Y62.478 E76.75159
G1 X177.021 Y46.520 E78.84098
G1 X177.021 Y47.420 E78.92428
G1 X192.979 Y63.378 E81.01367
G1 X192.979 Y64.277 E81.09698
G1 X177.021 Y48.319 E83.18637
G1 X177.021 Y49.219 E83.26967
G1 X192.979 Y65.177 E85.35906
G1 X192.381 Y65.479 E85.42108
G1 X177.021 Y50.119 E87.43216
G1 X177.021 Y51.019 E87.51547
G1 X191.481 Y65.479 E89.40875
G1 X190.581 Y65.479 E89.49205
G1 X177.021 Y51.919 E91.26752
G1 X177.021 Y52.818 E91.35082
G1 X189.682 Y65.479 E93.00848
G1 X188.782 Y65.479 E93.09179
G1 X177.021 Y53.718 E94.63164
G1 X177.021 Y54.618 E94.71494
G1 X187.882 Y65.479 E96.13698
G1 X186.982 Y65.479 E96.22029
G1 X177.021 Y55.518 E97.52452
G1 X177.021 Y56.418 E97.60782
G1 X186.082 Y65.479 E98.79425
G1 X185.183 Y65.479 E98.87755
G1 X177.021 Y57.317 E99.94616
G1 X177.021 Y58.217 E100.02947
G1 X184.283 Y65.479 E100.98027
G1 X183.383 Y65.479 E101.06357
G1 X177.021 Y59.117 E101.89657
G1 X177.021 Y60.017 E101.97987
G1 X182.483 Y65.479 E102.69506
G1 X181.584 Y65.479 E102.77836
G1 X177.021 Y60.916 E103.37574
G1 X177.021 Y61.816 E103.45904
G1 X180.684 Y65.479 E103.93861
G1 X179.784 Y65.479 E104.02192
G1 X177.021 Y62.716 E104.38367
G1 X177.021 Y63.616 E104.46698
G1 X178.884 Y65.479 E104.71093
G1 X177.984 Y65.479 E104.79423
G1 X177.021 Y64.516 E104.92037
G1 X177.021 Y65.415 E105.00367
G1 X177.085 Y65.479 E105.01200
M106 S210
M104 S220 ; set temperature
G1 F1800.000 E104.01200
G92 E0
G1 Z0.600 F7800.000
G1 X175.875 Y66.625 F7800.000
G1 E1.00000 F1800.000
G1 X175.875 Y33.375 E2.20958 F1800
G1 X194.125 Y33.375 E2.87348
G1 X194.125 Y66.625 E4.08306
G1 X175.928 Y66.625 E4.74505
G1 X175.525 Y66.975 F7800.000
G1 X175.525 Y33.025 E5.98009 F1800
G1 X194.475 Y33.025 E6.66946
G1 X194.475 Y66.975 E7.90451
G1 X175.577 Y66.975 E8.59196
G1 X175.175 Y67.325 F7800.000
G1 X175.175 Y32.675 E9.85247 F1260
G1 X194.825 Y32.675 E10.56730
G1 X194.825 Y67.325 E11.82781
G1 X175.227 Y67.325 E12.54073
G1 X175.350 Y67.022 F7800.000
G1 X193.883 Y66.344 F7800.000
G1 X193.844 Y66.383 E12.54294 F3600
G1 X193.296 Y66.383 E12.56505
G1 X193.883 Y65.796 E12.59852
G1 X193.883 Y65.247 E12.62062
G1 X192.747 Y66.383 E12.68535
G1 X192.199 Y66.383 E12.70746
G1 X193.883 Y64.699 E12.80345
G1 X193.883 Y64.150 E12.82555
G1 X191.650 Y66.383 E12.95280
G1 X191.102 Y66.383 E12.97490
G1 X193.883 Y63.602 E13.13341
G1 X193.883 Y63.054 E13.15552
G1 X190.554 Y66.383 E13.34528
G1 X190.005 Y66.383 E13.36739
G1 X193.883 Y62.505 E13.58842
G1 X193.883 Y61.957 E13.61052
G1 X189.457 Y66.383 E13.86281
G1 X188.908 Y66.383 E13.88491
G1 X193.883 Y61.408 E14.16846
G1 X193.883 Y60.860 E14.19056
G1 X188.360 Y66.383 E14.50537
G1 X187.812 Y66.383 E14.52748
G1 X193.883 Y60.312 E14.87354
G1 X193.883 Y59.763 E14.89565
G1 X187.263 Y66.383 E15.27297
G1 X186.715 Y66.383 E15.29508
G1 X193.883 Y59.215 E15.70366
G1 X193.883 Y58.666 E15.72577
G1 X186.166 Y66.383 E16.16562
G1 X185.618 Y66.383 E16.18772
G1 X193.883 Y58.118 E16.65883
G1 X193.883 Y57.569 E16.68093
G1 X185.069 Y66.383 E17.18329
G1 X184.521 Y66.383 E17.20540
G1 X193.883 Y57.021 E17.73902
G1 X193.883 Y56.473 E17.76113
G1 X183.973 Y66.383 E18.32601
G1 X183.424 Y66.383 E18.34812
G1 X193.883 Y55.924 E18.94426
G1 X193.883 Y55.376 E18.96637
G1 X182.876 Y66.383 E19.59377
G1 X182.327 Y66.383 E19.61587
G1 X193.883 Y54.827 E20.27454
G1 X193.883 Y54.279 E20.29664
G1 X181.779 Y66.383 E20.98657
G1 X181.231 Y66.383 E21.00867
G1 X193.883 Y53.731 E21.72985
G1 X193.883 Y53.182 E21.75196
G1 X180.682 Y66.383 E22.50440
G1 X180.134 Y66.383 E22.52651
G1 X193.883 Y52.634 E23.31021
G1 X193.883 Y52.085 E23.33231
G1 X179.585 Y66.383 E24.14728
G1 X179.037 Y66.383 E24.16938
G1 X193.883 Y51.537 E25.01560
G1 X193.883 Y50.989 E25.03771
G1 X178.489 Y66.383 E25.91519
G1 X177.940 Y66.383 E25.93729
G1 X193.883 Y50.440 E26.84603
G1 X193.883 Y49.892 E26.86814
G1 X177.392 Y66.383 E27.80814
G1 X176.843 Y66.383 E27.83024
G1 X193.883 Y49.343 E28.80151
G1 X193.883 Y48.795 E28.82361
G1 X176.295 Y66.383 E29.82613
G1 X176.117 Y66.012 E29.84270
G1 X193.883 Y48.247 E30.85535
G1 X193.883 Y47.698 E30.87746
G1 X176.117 Y65.464 E31.89011
G1 X176.117 Y64.915 E31.91221
G1 X193.883 Y47.150 E32.92486
G1 X193.883 Y46.601 E32.94697
G1 X176.117 Y64.367 E33.95962
G1 X176.117 Y63.819 E33.98172
G1 X193.883 Y46.053 E34.99438
G1 X193.883 Y45.504 E35.01648
G1 X176.117 Y63.270 E36.02913
G1 X176.117 Y62.722 E36.05124
G1 X193.883 Y44.956 E37.06389
G1 X193.883 Y44.408 E37.08599
G1 X176.117 Y62.173 E38.09864
G1 X176.117 Y61.625 E38.12075
G1 X193.883 Y43.859 E39.13340
G1 X193.883 Y43.311 E39.15550
G1 X176.117 Y61.076 E40.16816
G1 X176.117 Y60.528 E40.19026
G1 X193.883 Y42.762 E41.20291
G1 X193.883 Y42.214 E41.22502
G1 X176.117 Y59.980 E42.23767
G1 X176.117 Y59.431 E42.25977
G1 X193.883 Y41.666 E43.27242
G1 X193.883 Y41.117 E43.29453
G1 X176.117 Y58.883 E44.30718
G1 X176.117 Y58.334 E44.32928
G1 X193.883 Y40.569 E45.34194
G1 X193.883 Y40.020 E45.36404
G1 X176.117 Y57.786 E46.37669
G1 X176.117 Y57.238 E46.39880
G1 X193.883 Y39.472 E47.41145
G1 X193.883 Y38.924 E47.43355
G1 X176.117 Y56.689 E48.44620
G1 X176.117 Y56.141 E48.46831
G1 X193.883 Y38.375 E49.48096
G1 X193.883 Y37.827 E49.50306
G1 X176.117 Y55.592 E50.51572
G1 X176.117 Y55.044 E50.53782
G1 X193.883 Y37.278 E51.55047
G1 X193.883 Y36.730 E51.57258
G1 X176.117 Y54.496 E52.58523
G1 X176.117 Y53.947 E52.60733
G1 X193.883 Y36.181 E53.61998
G1 X193.883 Y35.633 E53.64209
G1 X176.117 Y53.399 E54.65474
G1 X176.117 Y52.850 E54.67684
G1 X193.883 Y35.085 E55.68950
G1 X193.883 Y34.536 E55.71160
G1 X176.117 Y52.302 E56.72425
G1 X176.117 Y51.753 E56.74636
G1 X193.883 Y33.988 E57.75901
G1 X193.705 Y33.617 E57.77558
G1 X176.117 Y51.205 E58.77810
G1 X176.117 Y50.657 E58.80020
G1 X193.157 Y33.617 E59.77146
G1 X192.608 Y33.617 E59.79357
G1 X176.117 Y50.108 E60.73357
G1 X176.117 Y49.560 E60.75567
G1 X192.060 Y33.617 E61.66441
G1 X191.511 Y33.617 E61.68652
G1 X176.117 Y49.011 E62.56400
G1 X176.117 Y48.463 E62.58610
G1 X190.963 Y33.617 E63.43232
G1 X190.415 Y33.617 E63.45443
G1 X176.117 Y47.915 E64.26939
G1 X176.117 Y47.366 E64.29149
G1 X189.866 Y33.617 E65.07519
G1 X189.318 Y33.617 E65.09730
G1 X176.117 Y46.818 E65.84974
G1 X176.117 Y46.269 E65.87185
G1 X188.769 Y33.617 E66.59303
G1 X188.221 Y33.617 E66.61513
G1 X176.117 Y45.721 E67.30506
G1 X176.117 Y45.173 E67.32716
G1 X187.673 Y33.617 E67.98582
G1 X187.124 Y33.617 E68.00793
G1 X176.117 Y44.624 E68.63533
G1 X176.117 Y44.076 E68.65743
G1 X186.576 Y33.617 E69.25358
G1 X186.027 Y33.617 E69.27568
G1 X176.117 Y43.527 E69.84057
G1 X176.117 Y42.979 E69.86267
G1 X185.479 Y33.617 E70.39630
G1 X184.931 Y33.617 E70.41840
G1 X176.117 Y42.431 E70.92076
G1 X176.117 Y41.882 E70.94287
G1 X184.382 Y33.617 E71.41397
G1 X183.834 Y33.617 E71.43608
G1 X176.117 Y41.334 E71.87592
G1 X176.117 Y40.785 E71.89803
G1 X183.285 Y33.617 E72.30661
G1 X182.737 Y33.617 E72.32872
G1 X176.117 Y40.237 E72.70604
G1 X176.117 Y39.688 E72.72815
G1 X182.188 Y33.617 E73.07421
G1 X181.640 Y33.617 E73.09632
G1 X176.117 Y39.140 E73.41112
G1 X176.117 Y38.592 E73.43323
G1 X181.092 Y33.617 E73.71677
G1 X180.543 Y33.617 E73.73888
G1 X176.117 Y38.043 E73.99117
G1 X176.117 Y37.495 E74.01327
G1 X179.995 Y33.617 E74.23430
G1 X179.446 Y33.617 E74.25640
G1 X176.117 Y36.946 E74.44617
G1 X176.117 Y36.398 E74.46827
G1 X178.898 Y33.617 E74.62678
G1 X178.350 Y33.617 E74.64888
G1 X176.117 Y35.850 E74.77613
G1 X176.117 Y35.301 E74.79824
G1 X177.801 Y33.617 E74.89423
G1 X177.253 Y33.617 E74.91633
G1 X176.117 Y34.753 E74.98106
G1 X176.117 Y34.204 E75.00316
G1 X176.704 Y33.617 E75.03663
G1 X176.156 Y33.617 E75.05874
G1 X176.117 Y33.656 E75.06095
M106 S210
G1 F1800.000 E74.06095
G92 E0
G1 Z0.850 F7800.000
G1 X175.875 Y33.375 F7800.000
G1 E1.00000 F1800.000
G1 X194.125 Y33.375 E1.66390 F1800
G1 X194.125 Y66.625 E2.87348
G1 X175.875 Y66.625 E3.53738
G1 X175.875 Y33.428 E4.74505
G1 X175.525 Y33.025 F7800.000
G1 X194.475 Y33.025 E5.43442 F1800
G1 X194.475 Y66.975 E6.66946
G1 X175.525 Y66.975 E7.35883
G1 X175.525 Y33.078 E8.59196
G1 X175.175 Y32.675 F7800.000
G1 X194.825 Y32.675 E9.30680 F1260
G1 X194.825 Y67.325 E10.56730
G1 X175.175 Y67.325 E11.28214
G1 X175.175 Y32.727 E12.54073
G1 X175.478 Y32.850 F7800.000
G1 X193.844 Y33.617 F7800.000
G1 X193.883 Y33.656 E12.54294 F3600
G1 X193.883 Y34.204 E12.56505
G1 X193.296 Y33.617 E12.59852
G1 X192.747 Y33.617 E12.62062
G1 X193.883 Y34.753 E12.68535
G1 X193.883 Y35.301 E12.70745
G1 X192.199 Y33.617 E12.80344
G1 X191.650 Y33.617 E12.82555
G1 X193.883 Y35.850 E12.95280
G1 X193.883 Y36.398 E12.97490
G1 X191.102 Y33.617 E13.13341
G1 X190.554 Y33.617 E13.15551
G1 X193.883 Y36.946 E13.34528
G1 X193.883 Y37.495 E13.36738
G1 X190.005 Y33.617 E13.58841
G1 X189.457 Y33.617 E13.61051
G1 X193.883 Y38.043 E13.86280
G1 X193.883 Y38.592 E13.88491
G1 X188.908 Y33.617 E14.16845
G1 X188.360 Y33.617 E14.19056
G1 X193.883 Y39.140 E14.50536
G1 X193.883 Y39.688 E14.52747
G1 X187.812 Y33.617 E14.87353
G1 X187.263 Y33.617 E14.89564
G1 X193.883 Y40.237 E15.27296
G1 X193.883 Y40.785 E15.29507
G1 X186.715 Y33.617 E15.70365
G1 X186.166 Y33.617 E15.72576
G1 X193.883 Y41.334 E16.16560
G1 X193.883 Y41.882 E16.18771
G1 X185.618 Y33.617 E16.65881
G1 X185.069 Y33.617 E16.68092
G1 X193.883 Y42.431 E17.18328
G1 X193.883 Y42.979 E17.20538
G1 X184.521 Y33.617 E17.73901
G1 X183.973 Y33.617 E17.76111
G1 X193.883 Y43.527 E18.32600
G1 X193.883 Y44.076 E18.34810
G1 X183.424 Y33.617 E18.94425
G1 X182.876 Y33.617 E18.96635
G1 X193.883 Y44.624 E19.59375
G1 X193.883 Y45.173 E19.61586
G1 X182.327 Y33.617 E20.27452
