; generated by Slic3r 1.0.0RC2 on 2014-01-04 at 16:51:04

; layer_height = 0.25
; perimeters = 1
; top_solid_layers = 1
; bottom_solid_layers = 1
; fill_density = 0.1
; perimeter_speed = 30
; infill_speed = 60
; travel_speed = 130
; nozzle_diameter = 0.35
; filament_diameter = 1.75
; extrusion_multiplier = 1
; perimeters extrusion width = 0.35mm
; infill extrusion width = 0.39mm
; solid infill extrusion width = 0.39mm
; top infill extrusion width = 0.39mm
; first layer extrusion width = 0.70mm

G21 ; set units to millimeters
M107
M104 S220 ; set temperature
G28 ; home all axes
G1 Z5 F5000 ; lift nozzle

M109 S220 ; wait for temperature to be reached
G90 ; use absolute coordinates
G92 E0
M82 ; use absolute distances for extrusion
G1 F1800.000 E-1.00000
G92 E0
G1 Z0.350 F7800.000
G1 X176.280 Y18.460 F7800.000
G1 E1.00000 F1800.000
G1 X176.720 Y16.990 E1.13953 F540.000
G1 X177.450 Y15.630 E1.27988
G1 X178.430 Y14.430 E1.42076
G1 X179.630 Y13.450 E1.56164
G1 X180.990 Y12.720 E1.70199
G1 X182.460 Y12.280 E1.84152
G1 X184.000 Y12.130 E1.98221
G1 X196.000 Y12.130 E3.07337
G1 X197.540 Y12.280 E3.21406
G1 X199.010 Y12.720 E3.35359
G1 X200.370 Y13.450 E3.49394
G1 X201.570 Y14.430 E3.63482
G1 X202.550 Y15.630 E3.77570
G1 X203.280 Y16.990 E3.91605
G1 X203.720 Y18.460 E4.05558
G1 X203.870 Y20.000 E4.19627
G1 X203.870 Y80.000 E9.65204
G1 X203.720 Y81.540 E9.79274
G1 X203.280 Y83.010 E9.93226
G1 X202.550 Y84.370 E10.07262
G1 X201.570 Y85.570 E10.21350
G1 X200.370 Y86.550 E10.35438
G1 X199.010 Y87.280 E10.49473
G1 X197.540 Y87.720 E10.63426
G1 X196.000 Y87.870 E10.77495
G1 X184.000 Y87.870 E11.86610
G1 X182.460 Y87.720 E12.00680
G1 X180.990 Y87.280 E12.14632
G1 X179.630 Y86.550 E12.28668
G1 X178.430 Y85.570 E12.42756
G1 X177.450 Y84.370 E12.56844
G1 X176.720 Y83.010 E12.70879
G1 X176.280 Y81.540 E12.84831
G1 X176.130 Y80.000 E12.98901
G1 X176.130 Y20.000 E18.44478
G1 X176.271 Y18.553 E18.57695
G1 X176.890 Y18.590 F7800.000
G1 X177.300 Y17.230 E18.70612 F540.000
G1 X177.970 Y15.970 E18.83588
G1 X178.870 Y14.870 E18.96511
G1 X179.970 Y13.970 E19.09435
G1 X181.230 Y13.300 E19.22411
G1 X182.590 Y12.890 E19.35327
G1 X184.000 Y12.750 E19.48211
G1 X196.000 Y12.750 E20.57327
G1 X197.410 Y12.890 E20.70211
G1 X198.770 Y13.300 E20.83127
G1 X200.030 Y13.970 E20.96103
G1 X201.130 Y14.870 E21.09027
G1 X202.030 Y15.970 E21.21950
G1 X202.700 Y17.230 E21.34927
G1 X203.110 Y18.590 E21.47843
G1 X203.250 Y20.000 E21.60727
G1 X203.250 Y80.000 E27.06304
G1 X203.110 Y81.410 E27.19188
G1 X202.700 Y82.770 E27.32105
G1 X202.030 Y84.030 E27.45081
G1 X201.130 Y85.130 E27.58004
G1 X200.030 Y86.030 E27.70928
G1 X198.770 Y86.700 E27.83904
G1 X197.410 Y87.110 E27.96820
G1 X196.000 Y87.250 E28.09704
G1 X184.000 Y87.250 E29.18820
G1 X182.590 Y87.110 E29.31704
G1 X181.230 Y86.700 E29.44620
G1 X179.970 Y86.030 E29.57596
G1 X178.870 Y85.130 E29.70520
G1 X177.970 Y84.030 E29.83443
G1 X177.300 Y82.770 E29.96420
G1 X176.890 Y81.410 E30.09336
G1 X176.750 Y80.000 E30.22220
G1 X176.750 Y20.000 E35.67797
G1 X176.881 Y18.683 E35.79829
G1 X177.500 Y18.710 F7800.000
G1 X177.880 Y17.460 E35.91709 F540.000
G1 X178.490 Y16.320 E36.03466
G1 X179.320 Y15.320 E36.15283
G1 X180.320 Y14.490 E36.27100
G1 X181.460 Y13.880 E36.38856
G1 X182.710 Y13.500 E36.50736
G1 X184.000 Y13.380 E36.62517
G1 X196.000 Y13.380 E37.71632
G1 X197.290 Y13.500 E37.83413
G1 X198.540 Y13.880 E37.95292
G1 X199.680 Y14.490 E38.07049
G1 X200.680 Y15.320 E38.18866
G1 X201.510 Y16.320 E38.30683
G1 X202.120 Y17.460 E38.42440
G1 X202.500 Y18.710 E38.54320
G1 X202.620 Y20.000 E38.66100
G1 X202.620 Y80.000 E44.11678
G1 X202.500 Y81.290 E44.23458
G1 X202.120 Y82.540 E44.35338
G1 X201.510 Y83.680 E44.47095
G1 X200.680 Y84.680 E44.58912
G1 X199.680 Y85.510 E44.70729
G1 X198.540 Y86.120 E44.82485
G1 X197.290 Y86.500 E44.94365
G1 X196.000 Y86.620 E45.06146
G1 X184.000 Y86.620 E46.15261
G1 X182.710 Y86.500 E46.27042
G1 X181.460 Y86.120 E46.38922
G1 X180.320 Y85.510 E46.50678
G1 X179.320 Y84.680 E46.62495
G1 X178.490 Y83.680 E46.74312
G1 X177.880 Y82.540 E46.86069
G1 X177.500 Y81.290 E46.97949
G1 X177.380 Y80.000 E47.09729
G1 X177.380 Y20.000 E52.55307
G1 X177.491 Y18.803 E52.66235
G1 F1800.000 E51.66235
G92 E0
G1 X184.350 Y20.350 F7800.000
G1 E1.00000 F1800.000
G1 X195.650 Y20.350 E2.02750 F378.000
G1 X195.650 Y79.650 E7.41963
G1 X184.350 Y79.650 E8.44713
G1 X184.350 Y20.444 E13.83073
G1 X195.229 Y20.835 F7800.000
G1 X195.165 Y20.771 E13.83894 F1080.000
G1 X194.272 Y20.771 E13.92106
G1 X195.229 Y21.728 E14.04539
G1 X195.229 Y22.621 E14.12751
G1 X193.379 Y20.771 E14.36798
G1 X192.485 Y20.771 E14.45009
G1 X195.229 Y23.515 E14.80669
G1 X195.229 Y24.408 E14.88881
G1 X191.592 Y20.771 E15.36153
G1 X190.699 Y20.771 E15.44365
G1 X195.229 Y25.301 E16.03251
G1 X195.229 Y26.195 E16.11462
G1 X189.805 Y20.771 E16.81961
G1 X188.912 Y20.771 E16.90173
G1 X195.229 Y27.088 E17.72285
G1 X195.229 Y27.981 E17.80496
G1 X188.019 Y20.771 E18.74221
G1 X187.125 Y20.771 E18.82433
G1 X195.229 Y28.875 E19.87771
G1 X195.229 Y29.768 E19.95982
G1 X186.232 Y20.771 E21.12933
G1 X185.339 Y20.771 E21.21145
G1 X195.229 Y30.661 E22.49709
G1 X195.229 Y31.555 E22.57920
G1 X184.771 Y21.098 E23.93857
G1 X184.771 Y21.991 E24.02068
G1 X195.229 Y32.448 E25.38005
G1 X195.229 Y33.341 E25.46216
G1 X184.771 Y22.884 E26.82153
G1 X184.771 Y23.778 E26.90364
G1 X195.229 Y34.235 E28.26301
G1 X195.229 Y35.128 E28.34512
G1 X184.771 Y24.671 E29.70449
G1 X184.771 Y25.564 E29.78660
G1 X195.229 Y36.022 E31.14597
G1 X195.229 Y36.915 E31.22808
G1 X184.771 Y26.458 E32.58745
G1 X184.771 Y27.351 E32.66956
G1 X195.229 Y37.808 E34.02893
G1 X195.229 Y38.702 E34.11105
G1 X184.771 Y28.244 E35.47041
G1 X184.771 Y29.138 E35.55253
G1 X195.229 Y39.595 E36.91189
G1 X195.229 Y40.488 E36.99401
G1 X184.771 Y30.031 E38.35337
G1 X184.771 Y30.924 E38.43549
G1 X195.229 Y41.382 E39.79485
G1 X195.229 Y42.275 E39.87697
G1 X184.771 Y31.818 E41.23633
G1 X184.771 Y32.711 E41.31845
G1 X195.229 Y43.168 E42.67781
G1 X195.229 Y44.062 E42.75993
G1 X184.771 Y33.605 E44.11929
G1 X184.771 Y34.498 E44.20141
G1 X195.229 Y44.955 E45.56077
G1 X195.229 Y45.848 E45.64289
G1 X184.771 Y35.391 E47.00225
G1 X184.771 Y36.285 E47.08437
G1 X195.229 Y46.742 E48.44373
G1 X195.229 Y47.635 E48.52585
G1 X184.771 Y37.178 E49.88521
G1 X184.771 Y38.071 E49.96733
G1 X195.229 Y48.528 E51.32669
G1 X195.229 Y49.422 E51.40881
G1 X184.771 Y38.965 E52.76817
G1 X184.771 Y39.858 E52.85029
G1 X195.229 Y50.315 E54.20965
G1 X195.229 Y51.208 E54.29177
G1 X184.771 Y40.751 E55.65113
G1 X184.771 Y41.645 E55.73325
G1 X195.229 Y52.102 E57.09261
G1 X195.229 Y52.995 E57.17473
G1 X184.771 Y42.538 E58.53409
G1 X184.771 Y43.431 E58.61621
G1 X195.229 Y53.889 E59.97557
G1 X195.229 Y54.782 E60.05769
G1 X184.771 Y44.325 E61.41705
G1 X184.771 Y45.218 E61.49917
G1 X195.229 Y55.675 E62.85853
G1 X195.229 Y56.569 E62.94065
G1 X184.771 Y46.111 E64.30001
G1 X184.771 Y47.005 E64.38213
G1 X195.229 Y57.462 E65.74149
G1 X195.229 Y58.355 E65.82361
G1 X184.771 Y47.898 E67.18297
G1 X184.771 Y48.791 E67.26509
G1 X195.229 Y59.249 E68.62445
G1 X195.229 Y60.142 E68.70657
G1 X184.771 Y49.685 E70.06593
G1 X184.771 Y50.578 E70.14805
G1 X195.229 Y61.035 E71.50741
G1 X195.229 Y61.929 E71.58953
G1 X184.771 Y51.472 E72.94889
G1 X184.771 Y52.365 E73.03101
G1 X195.229 Y62.822 E74.39037
G1 X195.229 Y63.715 E74.47249
G1 X184.771 Y53.258 E75.83186
G1 X184.771 Y54.152 E75.91397
G1 X195.229 Y64.609 E77.27334
G1 X195.229 Y65.502 E77.35545
G1 X184.771 Y55.045 E78.71482
G1 X184.771 Y55.938 E78.79693
G1 X195.229 Y66.395 E80.15630
G1 X195.229 Y67.289 E80.23841
G1 X184.771 Y56.832 E81.59778
G1 X184.771 Y57.725 E81.67989
G1 X195.229 Y68.182 E83.03926
G1 X195.229 Y69.075 E83.12137
G1 X184.771 Y58.618 E84.48074
G1 X184.771 Y59.512 E84.56285
G1 X195.229 Y69.969 E85.92222
G1 X195.229 Y70.862 E86.00433
G1 X184.771 Y60.405 E87.36370
G1 X184.771 Y61.298 E87.44581
G1 X195.229 Y71.756 E88.80518
G1 X195.229 Y72.649 E88.88729
G1 X184.771 Y62.192 E90.24666
G1 X184.771 Y63.085 E90.32877
G1 X195.229 Y73.542 E91.68814
G1 X195.229 Y74.436 E91.77025
G1 X184.771 Y63.978 E93.12962
G1 X184.771 Y64.872 E93.21173
G1 X195.229 Y75.329 E94.57110
G1 X195.229 Y76.222 E94.65321
G1 X184.771 Y65.765 E96.01258
G1 X184.771 Y66.658 E96.09469
G1 X195.229 Y77.116 E97.45406
G1 X195.229 Y78.009 E97.53617
G1 X184.771 Y67.552 E98.89554
G1 X184.771 Y68.445 E98.97766
G1 X195.229 Y78.902 E100.33702
G1 X194.661 Y79.229 E100.39716
G1 X184.771 Y69.339 E101.68280
G1 X184.771 Y70.232 E101.76492
G1 X193.768 Y79.229 E102.93443
G1 X192.875 Y79.229 E103.01655
G1 X184.771 Y71.125 E104.06993
G1 X184.771 Y72.019 E104.15205
G1 X191.981 Y79.229 E105.08930
G1 X191.088 Y79.229 E105.17142
G1 X184.771 Y72.912 E105.99254
G1 X184.771 Y73.805 E106.07466
G1 X190.195 Y79.229 E106.77965
G1 X189.301 Y79.229 E106.86177
G1 X184.771 Y74.699 E107.45063
G1 X184.771 Y75.592 E107.53275
G1 X188.408 Y79.229 E108.00548
G1 X187.515 Y79.229 E108.08759
G1 X184.771 Y76.485 E108.44420
G1 X184.771 Y77.379 E108.52631
G1 X186.621 Y79.229 E108.76679
G1 X185.728 Y79.229 E108.84890
G1 X184.771 Y78.272 E108.97324
G1 X184.771 Y79.165 E109.05536
G1 X184.835 Y79.229 E109.06357
M106 S255
M104 S220 ; set temperature
G1 F1800.000 E108.06357
G92 E0
G1 Z0.600 F7800.000
G1 X184.175 Y79.825 F7800.000
G1 E1.00000 F1800.000
G1 X184.175 Y20.175 E3.16996 F600.000
G1 X195.825 Y20.175 E3.59377
G1 X195.825 Y79.825 E5.76373
G1 X184.227 Y79.825 E6.18563
G1 X195.563 Y78.355 F7800.000
G1 X193.151 Y79.001 E6.28554 F1382.803
G1 X193.000 Y79.563 E6.30882
G1 X195.563 Y77.956 E6.42983
G1 X193.051 Y78.629 E6.53386
G1 X190.223 Y75.801 E6.69384
G1 X185.716 Y77.009 E6.88048
G1 X185.032 Y79.563 E6.98626
G1 X184.437 Y75.457 E7.15222
G1 X185.617 Y76.637 E7.21898
G1 X190.124 Y75.430 E7.40562
G1 X191.159 Y71.567 E7.56559
G1 X195.563 Y70.386 E7.74799
G1 X195.563 Y69.988 E7.76393
G1 X191.059 Y71.195 E7.95046
G1 X188.231 Y68.367 E8.11043
G1 X184.437 Y69.384 E8.26757
G1 X184.437 Y68.985 E8.28351
G1 X188.132 Y67.995 E8.43652
G1 X189.167 Y64.132 E8.59650
G1 X193.674 Y62.924 E8.78314
G1 X195.563 Y64.814 E8.89004
G1 X195.563 Y58.434 E9.14525
G1 X194.609 Y58.689 E9.18476
G1 X193.574 Y62.553 E9.34474
G1 X189.067 Y63.760 E9.53138
G1 X186.239 Y60.932 E9.69136
G1 X184.437 Y61.415 E9.76600
G1 X184.437 Y61.017 E9.78194
G1 X186.139 Y60.560 E9.85245
G1 X187.175 Y56.697 E10.01243
G1 X191.682 Y55.490 E10.19907
G1 X194.510 Y58.318 E10.35905
G1 X195.563 Y58.035 E10.40269
G1 X195.563 Y50.465 E10.70549
G1 X192.617 Y51.255 E10.82750
G1 X191.582 Y55.118 E10.98747
G1 X187.075 Y56.326 E11.17411
G1 X184.437 Y53.687 E11.32336
G1 X184.437 Y52.046 E11.38899
G1 X185.182 Y49.263 E11.50427
G1 X189.689 Y48.055 E11.69091
G1 X192.518 Y50.883 E11.85089
G1 X195.563 Y50.067 E11.97702
G1 X195.563 Y43.044 E12.25794
G1 X195.132 Y42.612 E12.28235
G1 X190.625 Y43.820 E12.46899
G1 X189.590 Y47.683 E12.62896
G1 X185.083 Y48.891 E12.81560
G1 X184.437 Y48.245 E12.85216
G1 X184.437 Y41.494 E13.12218
G1 X187.697 Y40.620 E13.25722
G1 X190.525 Y43.448 E13.41720
G1 X195.032 Y42.241 E13.60384
G1 X195.563 Y40.259 E13.68590
G1 X195.563 Y37.601 E13.79221
G1 X193.140 Y35.178 E13.92930
G1 X188.633 Y36.385 E14.11594
G1 X187.598 Y40.249 E14.27592
G1 X184.437 Y41.096 E14.40683
G1 X184.437 Y33.526 E14.70963
G1 X185.705 Y33.186 E14.76217
G1 X188.533 Y36.014 E14.92214
G1 X193.040 Y34.806 E15.10878
G1 X194.075 Y30.943 E15.26876
G1 X195.563 Y30.544 E15.33038
G1 X195.563 Y30.146 E15.34631
G1 X193.976 Y30.571 E15.41206
G1 X191.148 Y27.743 E15.57204
G1 X186.641 Y28.951 E15.75868
G1 X185.606 Y32.814 E15.91865
G1 X184.437 Y33.127 E15.96707
G1 X184.437 Y26.474 E16.23318
G1 X186.541 Y28.579 E16.35223
G1 X191.048 Y27.371 E16.53887
G1 X192.083 Y23.508 E16.69885
G1 X195.563 Y22.576 E16.84296
G1 X195.563 Y22.177 E16.85890
G1 X191.984 Y23.137 E17.00714
G1 X189.284 Y20.437 E17.15987
G1 X188.678 Y20.437 E17.18411
G1 X184.649 Y21.516 E17.35096
G1 X184.437 Y22.308 E17.38374
G1 X184.437 Y21.032 E17.43478
G1 X184.549 Y21.144 E17.44114
G1 X187.191 Y20.437 E17.55054
G1 F1800.000 E16.55054
G92 E0
G1 Z0.850 F7800.000
G1 X184.175 Y20.175 F7800.000
G1 E1.00000 F1800.000
G1 X195.825 Y20.175 E1.42381 F600.000
G1 X195.825 Y79.825 E3.59377
G1 X184.175 Y79.825 E4.01758
G1 X184.175 Y20.227 E6.18563
G1 X195.563 Y22.377 F7800.000
G1 X192.355 Y23.236 E6.31848 F1333.004
G1 X191.148 Y27.743 E6.50512
G1 X193.976 Y30.571 E6.66509
G1 X192.768 Y35.078 E6.85173
G1 X188.905 Y36.113 E7.01171
G1 X187.697 Y40.620 E7.19835
G1 X190.525 Y43.448 E7.35833
G1 X189.318 Y47.955 E7.54497
G1 X185.455 Y48.990 E7.70494
G1 X184.437 Y52.790 E7.86228
G1 X184.437 Y53.687 E7.89817
G1 X187.075 Y56.326 E8.04742
G1 X185.867 Y60.833 E8.23406
G1 X184.437 Y61.216 E8.29331
G1 X184.437 Y51.303 F7800.000
G1 X185.083 Y48.891 E8.39319 F1333.004
G1 X184.437 Y48.245 E8.42975
G1 X184.437 Y41.295 E8.70774
G1 X187.326 Y40.521 E8.82738
G1 X188.533 Y36.014 E9.01402
G1 X185.705 Y33.186 E9.17400
G1 X186.913 Y28.679 E9.36064
G1 X190.776 Y27.644 E9.52062
G1 X191.984 Y23.137 E9.70726
G1 X189.284 Y20.437 E9.85999
G1 X187.934 Y20.437 E9.91397
G1 X184.921 Y21.244 E10.03876
G1 X184.437 Y23.051 E10.11360
G1 X184.437 Y21.564 E10.17308
G1 X184.549 Y21.144 E10.19046
G1 X184.437 Y21.032 E10.19683
G1 X184.437 Y26.474 E10.41453
G1 X186.541 Y28.579 E10.53359
G1 X185.334 Y33.086 E10.72023
G1 X184.437 Y33.326 E10.75737
G1 X195.563 Y30.345 F7800.000
G1 X194.348 Y30.671 E10.80772 F1333.004
G1 X193.140 Y35.178 E10.99436
G1 X195.563 Y37.601 E11.13145
G1 X195.563 Y43.044 E11.34915
G1 X195.132 Y42.612 E11.37356
G1 X195.563 Y41.002 E11.44023
G1 X195.563 Y39.516 E11.49971
G1 X194.760 Y42.513 E11.62383
G1 X190.897 Y43.548 E11.78381
G1 X189.689 Y48.055 E11.97045
G1 X192.518 Y50.883 E12.13042
G1 X191.310 Y55.390 E12.31706
G1 X187.447 Y56.425 E12.47704
G1 X186.239 Y60.932 E12.66368
G1 X189.067 Y63.760 E12.82366
G1 X187.859 Y68.267 E13.01030
G1 X184.437 Y69.184 E13.15204
G1 X184.437 Y75.457 E13.40296
G1 X185.617 Y76.637 E13.46971
G1 X184.833 Y79.563 E13.59089
G1 X185.231 Y79.563 E13.60682
G1 X185.988 Y76.737 E13.72387
G1 X189.852 Y75.702 E13.88385
G1 X191.059 Y71.195 E14.07049
G1 X188.231 Y68.367 E14.23047
G1 X189.439 Y63.860 E14.41711
G1 X193.302 Y62.825 E14.57708
G1 X194.510 Y58.318 E14.76372
G1 X191.682 Y55.490 E14.92370
G1 X192.889 Y50.983 E15.11034
G1 X195.563 Y50.266 E15.22108
G1 X195.563 Y58.234 F7800.000
G1 X194.881 Y58.417 E15.24932 F1333.004
G1 X193.674 Y62.924 E15.43596
G1 X195.563 Y64.814 E15.54286
G1 X195.563 Y69.254 E15.72047
G1 X195.294 Y70.259 E15.76209
G1 X191.431 Y71.294 E15.92207
G1 X190.223 Y75.801 E16.10871
G1 X193.051 Y78.629 E16.26869
G1 X192.801 Y79.563 E16.30737
G1 X195.563 Y78.156 E16.43138
G1 X193.423 Y78.729 E16.52002
G1 X193.199 Y79.563 E16.55457
G1 F1800.000 E15.55457
G92 E0
G1 Z1.100 F7800.000
G1 X195.825 Y79.825 F7800.000
G1 E1.00000 F1800.000
G1 X184.175 Y79.825 E1.42381 F600.000
G1 X184.175 Y20.175 E3.59377
G1 X195.825 Y20.175 E4.01758
G1 X195.825 Y79.772 E6.18563
G1 X185.032 Y79.563 F7800.000
G1 X185.716 Y77.009 E6.29141 F1334.943
G1 X184.437 Y75.729 E6.36380
G1 X184.437 Y75.185 E6.38557
G1 X185.988 Y76.737 E6.47335
G1 X189.852 Y75.702 E6.63333
G1 X193.151 Y79.001 E6.81997
G1 X193.000 Y79.563 E6.84325
G1 X195.563 Y78.156 E6.96023
G1 X193.423 Y78.729 E7.04887
G1 X190.124 Y75.430 E7.23551
G1 X191.159 Y71.567 E7.39548
G1 X187.859 Y68.267 E7.58212
G1 X184.437 Y69.184 E7.72387
G1 X184.437 Y61.216 F7800.000
G1 X185.867 Y60.833 E7.78312 F1334.943
G1 X189.167 Y64.132 E7.96976
G1 X188.132 Y67.995 E8.12973
G1 X191.431 Y71.294 E8.31637
G1 X195.294 Y70.259 E8.47635
G1 X195.563 Y70.529 E8.49159
G1 X195.563 Y65.086 E8.70929
G1 X193.302 Y62.825 E8.83721
G1 X189.439 Y63.860 E8.99719
G1 X186.139 Y60.560 E9.18383
G1 X187.175 Y56.697 E9.34381
G1 X184.437 Y53.959 E9.49869
G1 X184.437 Y53.415 E9.52046
G1 X187.447 Y56.425 E9.69074
G1 X191.310 Y55.390 E9.85072
G1 X194.609 Y58.689 E10.03736
G1 X193.574 Y62.553 E10.19734
G1 X195.563 Y64.542 E10.30987
G1 X195.563 Y58.234 E10.56216
G1 X194.881 Y58.417 E10.59041
G1 X191.582 Y55.118 E10.77705
G1 X192.617 Y51.255 E10.93703
G1 X189.318 Y47.955 E11.12367
G1 X185.455 Y48.990 E11.28364
G1 X184.437 Y47.972 E11.34123
