; generated by Slic3r 1.0.0RC2 on 2014-01-04 at 16:44:17

; layer_height = 0.25
; perimeters = 1
; top_solid_layers = 1
; bottom_solid_layers = 1
; fill_density = 0.1
; perimeter_speed = 30
; infill_speed = 60
; travel_speed = 130
; nozzle_diameter = 0.35
; filament_diameter = 1.75
; extrusion_multiplier = 1
; perimeters extrusion width = 0.35mm
; infill extrusion width = 0.39mm
; solid infill extrusion width = 0.39mm
; top infill extrusion width = 0.39mm
; first layer extrusion width = 0.70mm

G21 ; set units to millimeters
M107
M104 S220 ; set temperature
G28 ; home all axes
G1 Z5 F5000 ; lift nozzle

M109 S220 ; wait for temperature to be reached
G90 ; use absolute coordinates
G92 E0
M82 ; use absolute distances for extrusion
G1 F1800.000 E-1.00000
G92 E0
G1 Z0.350 F7800.000
G1 X151.780 Y38.460 F7800.000
G1 E1.00000 F1800.000
G1 X152.220 Y36.990 E1.13953 F540.000
G1 X152.950 Y35.630 E1.27988
G1 X153.930 Y34.430 E1.42076
G1 X155.130 Y33.450 E1.56164
G1 X156.490 Y32.720 E1.70199
G1 X157.960 Y32.280 E1.84152
G1 X159.500 Y32.130 E1.98221
G1 X184.500 Y32.130 E4.25545
G1 X185.250 Y32.160 E4.32370
G1 X186.000 Y32.270 E4.39263
G1 X222.000 Y39.260 E7.72723
G1 X223.480 Y39.700 E7.86763
G1 X224.850 Y40.430 E8.00878
G1 X226.050 Y41.410 E8.14966
G1 X227.040 Y42.600 E8.29042
G1 X227.770 Y43.970 E8.43157
G1 X228.220 Y45.450 E8.57223
G1 X228.370 Y46.990 E8.71292
G1 X228.370 Y53.010 E9.26032
G1 X228.230 Y54.510 E9.39731
G1 X227.800 Y55.950 E9.53396
G1 X227.110 Y57.290 E9.67101
G1 X226.180 Y58.470 E9.80762
G1 X225.030 Y59.450 E9.94501
G1 X223.730 Y60.190 E10.08103
G1 X222.300 Y60.680 E10.21848
G1 X192.550 Y67.670 E12.99730
G1 X191.660 Y67.820 E13.07937
G1 X190.750 Y67.870 E13.16224
G1 X159.500 Y67.870 E16.00379
G1 X157.960 Y67.720 E16.14449
G1 X156.490 Y67.280 E16.28401
G1 X155.130 Y66.550 E16.42436
G1 X153.930 Y65.570 E16.56524
G1 X152.950 Y64.370 E16.70612
G1 X152.220 Y63.010 E16.84648
G1 X151.780 Y61.540 E16.98600
G1 X151.630 Y60.000 E17.12670
G1 X151.630 Y40.000 E18.94529
G1 X151.771 Y38.553 E19.07746
G1 X152.390 Y38.590 F7800.000
G1 X152.800 Y37.230 E19.20662 F540.000
G1 X153.470 Y35.970 E19.33638
G1 X154.370 Y34.870 E19.46562
G1 X155.470 Y33.970 E19.59485
G1 X156.730 Y33.300 E19.72462
G1 X158.090 Y32.890 E19.85378
G1 X159.500 Y32.750 E19.98262
G1 X184.500 Y32.750 E22.25586
G1 X185.190 Y32.780 E22.31866
G1 X185.880 Y32.880 E22.38206
G1 X221.880 Y39.870 E25.71666
G1 X223.250 Y40.280 E25.84669
G1 X224.510 Y40.950 E25.97645
G1 X225.610 Y41.850 E26.10568
G1 X226.520 Y42.950 E26.23550
G1 X227.190 Y44.210 E26.36526
G1 X227.610 Y45.570 E26.49469
G1 X227.750 Y46.990 E26.62443
G1 X227.750 Y53.010 E27.17183
G1 X227.620 Y54.390 E27.29787
G1 X227.220 Y55.720 E27.42415
G1 X226.590 Y56.950 E27.54982
G1 X225.730 Y58.030 E27.67535
G1 X224.670 Y58.940 E27.80238
G1 X223.470 Y59.620 E27.92780
G1 X222.160 Y60.070 E28.05375
G1 X192.410 Y67.060 E30.83257
G1 X191.580 Y67.200 E30.90911
G1 X190.750 Y67.250 E30.98472
G1 X159.500 Y67.250 E33.82627
G1 X158.090 Y67.110 E33.95511
G1 X156.730 Y66.700 E34.08427
G1 X155.470 Y66.030 E34.21403
G1 X154.370 Y65.130 E34.34327
G1 X153.470 Y64.030 E34.47250
G1 X152.800 Y62.770 E34.60226
G1 X152.390 Y61.410 E34.73142
G1 X152.250 Y60.000 E34.86027
G1 X152.250 Y40.000 E36.67886
G1 X152.381 Y38.683 E36.79918
G1 X153.000 Y38.710 F7800.000
G1 X153.380 Y37.460 E36.91797 F540.000
G1 X153.990 Y36.320 E37.03554
G1 X154.820 Y35.320 E37.15371
G1 X155.820 Y34.490 E37.27188
G1 X156.960 Y33.880 E37.38945
G1 X158.210 Y33.500 E37.50824
G1 X159.500 Y33.380 E37.62605
G1 X184.500 Y33.380 E39.89929
G1 X185.130 Y33.410 E39.95664
G1 X185.760 Y33.500 E40.01451
G1 X221.760 Y40.490 E43.34911
G1 X223.010 Y40.860 E43.46764
G1 X224.160 Y41.470 E43.58601
G1 X225.170 Y42.290 E43.70431
G1 X226.000 Y43.300 E43.82318
G1 X226.620 Y44.450 E43.94198
G1 X227.000 Y45.690 E44.05991
G1 X227.120 Y46.990 E44.17862
G1 X227.120 Y53.010 E44.72601
G1 X227.000 Y54.270 E44.84110
G1 X226.650 Y55.480 E44.95564
G1 X226.060 Y56.610 E45.07155
G1 X225.280 Y57.600 E45.18616
G1 X224.310 Y58.430 E45.30224
G1 X223.210 Y59.050 E45.41706
G1 X222.020 Y59.460 E45.53150
G1 X192.270 Y66.450 E48.31033
G1 X191.510 Y66.580 E48.38044
G1 X190.750 Y66.620 E48.44964
G1 X159.500 Y66.620 E51.29119
G1 X158.210 Y66.500 E51.40899
G1 X156.960 Y66.120 E51.52779
G1 X155.820 Y65.510 E51.64536
G1 X154.820 Y64.680 E51.76353
G1 X153.990 Y63.680 E51.88170
G1 X153.380 Y62.540 E51.99926
G1 X153.000 Y61.290 E52.11806
G1 X152.880 Y60.000 E52.23587
G1 X152.880 Y40.000 E54.05446
G1 X152.991 Y38.803 E54.16374
G1 F1800.000 E53.16374
G92 E0
G1 X159.850 Y40.350 F7800.000
G1 E1.00000 F1800.000
G1 X184.150 Y40.350 E3.20959 F378.000
G1 X184.150 Y47.340 E3.84519
G1 X220.150 Y47.340 E7.11865
G1 X220.150 Y52.660 E7.60240
G1 X190.400 Y52.660 E10.30755
G1 X190.400 Y59.650 E10.94315
G1 X159.850 Y59.650 E13.72105
G1 X159.850 Y40.444 E15.46747
G1 X160.334 Y59.228 F7800.000
G1 X160.272 Y59.166 E15.47552 F1080.000
G1 X160.272 Y58.281 E15.55611
G1 X161.219 Y59.228 E15.67813
G1 X162.104 Y59.228 E15.75871
G1 X160.272 Y57.396 E15.99470
G1 X160.272 Y56.511 E16.07528
G1 X162.989 Y59.228 E16.42523
G1 X163.874 Y59.228 E16.50581
G1 X160.272 Y55.626 E16.96972
G1 X160.272 Y54.741 E17.05031
G1 X164.759 Y59.228 E17.62818
G1 X165.644 Y59.228 E17.70876
G1 X160.272 Y53.856 E18.40060
G1 X160.272 Y52.971 E18.48118
G1 X166.529 Y59.228 E19.28698
G1 X167.414 Y59.228 E19.36757
G1 X160.272 Y52.086 E20.28733
G1 X160.272 Y51.201 E20.36791
G1 X168.299 Y59.228 E21.40163
G1 X169.184 Y59.228 E21.48222
G1 X160.272 Y50.316 E22.62991
G1 X160.272 Y49.431 E22.71049
G1 X170.069 Y59.228 E23.97214
G1 X170.954 Y59.228 E24.05272
G1 X160.272 Y48.546 E25.42834
G1 X160.272 Y47.661 E25.50892
G1 X171.839 Y59.228 E26.99850
G1 X172.724 Y59.228 E27.07908
G1 X160.272 Y46.776 E28.68262
G1 X160.272 Y45.891 E28.76320
G1 X173.609 Y59.228 E30.48070
G1 X174.494 Y59.228 E30.56129
G1 X160.272 Y45.006 E32.39275
G1 X160.272 Y44.121 E32.47334
G1 X175.379 Y59.228 E34.41876
G1 X176.264 Y59.228 E34.49935
G1 X160.272 Y43.236 E36.55874
G1 X160.272 Y42.351 E36.63932
G1 X177.149 Y59.228 E38.81267
G1 X178.034 Y59.228 E38.89326
G1 X160.272 Y41.466 E41.18057
G1 X160.462 Y40.772 E41.24615
G1 X178.919 Y59.228 E43.62289
G1 X179.804 Y59.228 E43.70347
G1 X161.347 Y40.772 E46.08022
G1 X162.232 Y40.772 E46.16080
G1 X180.689 Y59.228 E48.53755
G1 X181.574 Y59.228 E48.61813
G1 X163.117 Y40.772 E50.99488
G1 X164.002 Y40.772 E51.07546
G1 X182.459 Y59.228 E53.45221
G1 X183.344 Y59.228 E53.53279
G1 X164.887 Y40.772 E55.90954
G1 X165.772 Y40.772 E55.99012
G1 X184.229 Y59.228 E58.36687
G1 X185.114 Y59.228 E58.44745
G1 X166.657 Y40.772 E60.82420
G1 X167.542 Y40.772 E60.90478
G1 X185.999 Y59.228 E63.28153
G1 X186.884 Y59.228 E63.36211
G1 X168.427 Y40.772 E65.73885
G1 X169.312 Y40.772 E65.81944
G1 X187.769 Y59.228 E68.19618
G1 X188.653 Y59.228 E68.27677
G1 X170.197 Y40.772 E70.65351
G1 X171.082 Y40.772 E70.73410
G1 X189.538 Y59.228 E73.11084
G1 X189.978 Y58.783 E73.16783
G1 X171.967 Y40.772 E75.48724
G1 X172.852 Y40.772 E75.56783
G1 X189.978 Y57.898 E77.77328
G1 X189.978 Y57.013 E77.85387
G1 X173.737 Y40.772 E79.94536
G1 X174.622 Y40.772 E80.02594
G1 X189.978 Y56.128 E82.00347
G1 X189.978 Y55.243 E82.08406
G1 X175.507 Y40.772 E83.94762
G1 X176.392 Y40.772 E84.02821
G1 X189.978 Y54.358 E85.77781
G1 X189.978 Y53.473 E85.85839
G1 X177.277 Y40.772 E87.49403
G1 X178.162 Y40.772 E87.57462
G1 X183.728 Y46.338 E88.29145
G1 X183.728 Y45.453 E88.37203
G1 X179.047 Y40.772 E88.97490
G1 X179.932 Y40.772 E89.05549
G1 X183.728 Y44.568 E89.54439
G1 X183.728 Y43.683 E89.62498
G1 X180.817 Y40.772 E89.99992
G1 X181.702 Y40.772 E90.08051
G1 X183.728 Y42.798 E90.34149
G1 X183.728 Y41.913 E90.42207
G1 X182.587 Y40.772 E90.56909
G1 X183.472 Y40.772 E90.64967
G1 X183.728 Y41.028 E90.68273
G1 F1800.000 E89.68273
G92 E0
G1 X185.152 Y47.762 F7800.000
G1 E1.00000 F1800.000
G1 X189.978 Y52.588 E1.62154 F1080.000
G1 X190.513 Y52.238 E1.67975
G1 X186.037 Y47.762 E2.25622
G1 X186.922 Y47.762 E2.33680
G1 X191.398 Y52.238 E2.91327
G1 X192.283 Y52.238 E2.99385
G1 X187.807 Y47.762 E3.57032
G1 X188.692 Y47.762 E3.65090
G1 X193.168 Y52.238 E4.22737
G1 X194.053 Y52.238 E4.30795
G1 X189.577 Y47.762 E4.88442
G1 X190.462 Y47.762 E4.96500
G1 X194.938 Y52.238 E5.54147
G1 X195.823 Y52.238 E5.62205
G1 X191.347 Y47.762 E6.19852
G1 X192.232 Y47.762 E6.27910
G1 X196.708 Y52.238 E6.85557
G1 X197.593 Y52.238 E6.93615
G1 X193.116 Y47.762 E7.51262
G1 X194.001 Y47.762 E7.59320
G1 X198.478 Y52.238 E8.16967
G1 X199.363 Y52.238 E8.25025
G1 X194.886 Y47.762 E8.82672
G1 X195.771 Y47.762 E8.90730
G1 X200.248 Y52.238 E9.48377
G1 X201.133 Y52.238 E9.56435
G1 X196.656 Y47.762 E10.14082
G1 X197.541 Y47.762 E10.22140
G1 X202.018 Y52.238 E10.79787
G1 X202.903 Y52.238 E10.87845
G1 X198.426 Y47.762 E11.45492
G1 X199.311 Y47.762 E11.53550
G1 X203.788 Y52.238 E12.11197
G1 X204.673 Y52.238 E12.19255
G1 X200.196 Y47.762 E12.76902
G1 X201.081 Y47.762 E12.84960
G1 X205.558 Y52.238 E13.42607
G1 X206.443 Y52.238 E13.50665
G1 X201.966 Y47.762 E14.08312
G1 X202.851 Y47.762 E14.16370
G1 X207.328 Y52.238 E14.74017
G1 X208.213 Y52.238 E14.82075
G1 X203.736 Y47.762 E15.39722
G1 X204.621 Y47.762 E15.47780
G1 X209.098 Y52.238 E16.05427
G1 X209.983 Y52.238 E16.13485
G1 X205.506 Y47.762 E16.71132
G1 X206.391 Y47.762 E16.79190
G1 X210.868 Y52.238 E17.36837
G1 X211.753 Y52.238 E17.44895
G1 X207.276 Y47.762 E18.02542
G1 X208.161 Y47.762 E18.10600
G1 X212.638 Y52.238 E18.68247
G1 X213.523 Y52.238 E18.76305
G1 X209.046 Y47.762 E19.33952
G1 X209.931 Y47.762 E19.42010
G1 X214.408 Y52.238 E19.99657
G1 X215.293 Y52.238 E20.07715
G1 X210.816 Y47.762 E20.65362
G1 X211.701 Y47.762 E20.73420
G1 X216.177 Y52.238 E21.31067
G1 X217.062 Y52.238 E21.39125
G1 X212.586 Y47.762 E21.96772
G1 X213.471 Y47.762 E22.04830
G1 X217.947 Y52.238 E22.62477
G1 X218.832 Y52.238 E22.70535
G1 X214.356 Y47.762 E23.28182
G1 X215.241 Y47.762 E23.36240
G1 X219.692 Y52.212 E23.93554
G1 X219.728 Y51.364 E24.01285
G1 X216.126 Y47.762 E24.47676
G1 X217.011 Y47.762 E24.55734
G1 X219.728 Y50.479 E24.90728
G1 X219.728 Y49.594 E24.98787
G1 X217.896 Y47.762 E25.22385
G1 X218.781 Y47.762 E25.30443
G1 X219.728 Y48.709 E25.42645
G1 X219.728 Y47.824 E25.50703
G1 X219.666 Y47.762 E25.51508
M106 S255
M104 S220 ; set temperature
G1 F1800.000 E24.51508
G92 E0
G1 Z0.600 F7800.000
G1 X220.325 Y47.165 F7800.000
G1 E1.00000 F1800.000
G1 X220.325 Y52.835 E1.20626 F600.000
G1 X190.575 Y52.835 E2.28852
G1 X190.575 Y59.825 E2.54280
G1 X159.675 Y59.825 E3.66689
G1 X159.675 Y40.175 E4.38172
G1 X184.325 Y40.175 E5.27845
G1 X184.325 Y47.165 E5.53273
G1 X220.272 Y47.165 E6.84044
G1 X215.314 Y47.427 F7800.000
G1 X217.534 Y49.647 E6.96603 F1451.467
G1 X220.063 Y48.969 E7.07077
G1 X220.063 Y49.367 E7.08671
G1 X217.634 Y50.018 E7.18732
G1 X216.949 Y52.573 E7.29313
G1 X197.028 Y52.574 F7800.000
G1 X197.322 Y51.477 E7.33855 F1451.467
G1 X201.829 Y50.269 E7.52519
G1 X204.133 Y52.573 E7.65555
G1 X206.611 Y52.573 E7.75467
G1 X209.164 Y51.889 E7.86038
G1 X210.199 Y48.026 E8.02035
G1 X212.437 Y47.427 E8.11304
G1 X210.950 Y47.427 E8.17251
G1 X210.099 Y47.655 E8.20774
G1 X209.871 Y47.427 E8.22064
G1 X209.576 Y52.573 E8.42685
G1 X209.264 Y52.261 E8.44452
G1 X208.098 Y52.573 E8.49278
G1 X202.391 Y47.427 E8.80017
G1 X201.729 Y49.897 E8.90249
G1 X197.222 Y51.105 E9.08913
G1 X194.394 Y48.277 E9.24911
G1 X189.887 Y49.485 E9.43575
G1 X188.852 Y53.348 E9.59572
G1 X184.345 Y54.555 E9.78236
G1 X181.517 Y51.727 E9.94234
G1 X177.010 Y52.935 E10.12898
G1 X175.975 Y56.798 E10.28896
G1 X171.468 Y58.006 E10.47560
G1 X168.640 Y55.178 E10.63557
G1 X164.133 Y56.385 E10.82221
G1 X163.281 Y59.563 E10.95382
G1 X159.937 Y53.526 E11.22991
G1 X161.205 Y53.186 E11.28245
G1 X164.033 Y56.014 E11.44243
G1 X168.540 Y54.806 E11.62907
G1 X169.575 Y50.943 E11.78904
G1 X174.082 Y49.735 E11.97568
G1 X176.910 Y52.563 E12.13566
G1 X181.417 Y51.356 E12.32230
G1 X182.453 Y47.492 E12.48228
G1 X184.063 Y47.061 E12.54898
G1 X184.063 Y46.662 E12.56492
G1 X182.353 Y47.121 E12.63575
G1 X179.525 Y44.293 E12.79573
G1 X175.018 Y45.500 E12.98237
G1 X173.983 Y49.364 E13.14234
G1 X169.476 Y50.571 E13.32898
G1 X166.648 Y47.743 E13.48896
G1 X162.141 Y48.951 E13.67560
G1 X161.106 Y52.814 E13.83558
G1 X159.937 Y53.127 E13.88399
G1 X159.937 Y46.474 E14.15010
G1 X162.041 Y48.579 E14.26916
G1 X166.548 Y47.371 E14.45580
G1 X167.583 Y43.508 E14.61577
G1 X172.090 Y42.301 E14.80241
G1 X174.918 Y45.129 E14.96239
G1 X179.425 Y43.921 E15.14903
G1 X180.359 Y40.437 E15.29332
G1 X172.391 Y40.437 F7800.000
G1 X171.991 Y41.929 E15.35512 F1451.467
G1 X167.484 Y43.137 E15.54176
G1 X164.784 Y40.437 E15.69450
G1 X164.178 Y40.437 E15.71873
G1 X160.149 Y41.516 E15.88558
G1 X159.937 Y42.308 E15.91837
G1 X159.937 Y41.032 E15.96940
G1 X160.049 Y41.144 E15.97577
G1 X162.691 Y40.437 E16.08517
G1 X171.250 Y59.563 F7800.000
G1 X171.568 Y58.378 E16.13427 F1451.467
G1 X176.075 Y57.170 E16.32091
G1 X178.468 Y59.563 E16.45631
G1 X182.011 Y59.563 F7800.000
G1 X183.509 Y59.162 E16.51835 F1451.467
G1 X183.911 Y59.563 E16.54105
G1 X180.524 Y59.563 E16.67651
G1 X183.410 Y58.790 E16.79600
G1 X184.445 Y54.927 E16.95597
G1 X188.952 Y53.719 E17.14261
G1 X190.314 Y55.081 E17.21964
G1 X188.101 Y47.427 F7800.000
G1 X189.788 Y49.113 E17.31504 F1451.467
G1 X194.295 Y47.905 E17.50168
G1 X194.423 Y47.427 E17.52150
G1 F1800.000 E16.52150
G92 E0
G1 Z0.850 F7800.000
G1 X190.575 Y52.835 F7800.000
G1 E1.00000 F1800.000
G1 X190.575 Y59.825 E1.25428 F600.000
G1 X159.675 Y59.825 E2.37837
G1 X159.675 Y40.175 E3.09321
G1 X184.325 Y40.175 E3.98993
G1 X184.325 Y47.165 E4.24421
G1 X220.325 Y47.165 E5.55383
G1 X220.325 Y52.835 E5.76010
G1 X190.627 Y52.835 E6.84044
G1 X190.313 Y55.081 F7800.000
G1 X188.952 Y53.719 E6.91747 F1445.325
G1 X190.159 Y49.212 E7.10411
G1 X194.023 Y48.177 E7.26409
G1 X194.224 Y47.427 E7.29518
G1 X194.622 Y47.427 E7.31111
G1 X194.394 Y48.277 E7.34633
G1 X197.222 Y51.105 E7.50631
G1 X196.829 Y52.573 E7.56712
G1 X197.227 Y52.573 E7.58305
G1 X197.594 Y51.205 E7.63974
G1 X201.457 Y50.169 E7.79971
G1 X202.192 Y47.427 E7.91330
G1 X204.133 Y52.573 E8.13333
G1 X201.829 Y50.269 E8.26368
G1 X202.591 Y47.427 E8.38139
G1 X209.871 Y47.427 E8.67263
G1 X210.099 Y47.655 E8.68553
G1 X208.892 Y52.162 E8.87217
G1 X207.355 Y52.573 E8.93582
G1 X209.576 Y52.573 E9.02466
G1 X209.264 Y52.261 E9.04233
G1 X210.471 Y47.754 E9.22897
G1 X211.694 Y47.427 E9.27959
G1 X215.314 Y47.427 E9.42441
G1 X217.534 Y49.647 E9.54999
G1 X216.750 Y52.573 E9.67119
G1 X217.148 Y52.573 E9.68713
G1 X217.906 Y49.746 E9.80420
G1 X220.063 Y49.168 E9.89355
G1 X188.101 Y47.426 F7800.000
G1 X189.788 Y49.113 E9.98897 F1445.325
G1 X188.580 Y53.620 E10.17561
G1 X184.717 Y54.655 E10.33558
G1 X183.509 Y59.162 E10.52222
G1 X183.911 Y59.563 E10.54493
G1 X184.064 Y46.862 F7800.000
G1 X182.725 Y47.220 E10.60037 F1445.325
G1 X181.517 Y51.727 E10.78701
G1 X184.345 Y54.555 E10.94699
G1 X183.137 Y59.062 E11.13363
G1 X181.268 Y59.563 E11.21106
G1 X178.468 Y59.563 E11.32304
G1 X176.075 Y57.170 E11.45844
G1 X177.282 Y52.663 E11.64508
G1 X181.145 Y51.628 E11.80506
G1 X182.353 Y47.121 E11.99170
G1 X179.525 Y44.293 E12.15167
G1 X180.558 Y40.437 E12.31136
G1 X180.160 Y40.437 E12.32730
G1 X179.153 Y44.193 E12.48286
G1 X175.290 Y45.228 E12.64284
G1 X174.082 Y49.735 E12.82948
G1 X176.910 Y52.563 E12.98946
G1 X175.703 Y57.070 E13.17610
G1 X171.840 Y58.105 E13.33607
G1 X171.449 Y59.563 E13.39645
G1 X171.051 Y59.563 E13.41239
G1 X171.468 Y58.006 E13.47689
G1 X168.640 Y55.178 E13.63686
G1 X169.848 Y50.671 E13.82350
G1 X173.711 Y49.636 E13.98348
G1 X174.918 Y45.129 E14.17012
G1 X172.090 Y42.301 E14.33010
G1 X172.590 Y40.437 E14.40729
G1 X172.191 Y40.437 E14.42323
G1 X171.719 Y42.201 E14.49630
G1 X167.855 Y43.236 E14.65627
G1 X166.648 Y47.743 E14.84291
G1 X169.476 Y50.571 E15.00289
G1 X168.268 Y55.078 E15.18953
G1 X164.405 Y56.113 E15.34951
G1 X163.481 Y59.563 E15.49238
G1 X163.082 Y59.563 E15.50832
G1 X164.033 Y56.014 E15.65531
G1 X161.205 Y53.186 E15.81529
G1 X162.413 Y48.679 E16.00193
G1 X166.276 Y47.644 E16.16191
G1 X167.484 Y43.137 E16.34855
G1 X164.784 Y40.437 E16.50128
G1 X163.434 Y40.437 E16.55526
