; generated by Slic3r 1.0.0RC2 on 2014-01-04 at 16:31:53

; layer_height = 0.25
; perimeters = 1
; top_solid_layers = 1
; bottom_solid_layers = 1
; fill_density = 0.1
; perimeter_speed = 30
; infill_speed = 60
; travel_speed = 130
; nozzle_diameter = 0.35
; filament_diameter = 1.75
; extrusion_multiplier = 1
; perimeters extrusion width = 0.35mm
; infill extrusion width = 0.39mm
; solid infill extrusion width = 0.39mm
; top infill extrusion width = 0.39mm
; first layer extrusion width = 0.70mm

G21 ; set units to millimeters
M107
M104 S220 ; set temperature
G28 ; home all axes
G1 Z5 F5000 ; lift nozzle

M109 S220 ; wait for temperature to be reached
G90 ; use absolute coordinates
G92 E0
M82 ; use absolute distances for extrusion
G1 F1800.000 E-1.00000
G92 E0
G1 Z0.350 F7800.000
G1 X151.780 Y38.460 F7800.000
G1 E1.00000 F1800.000
G1 X152.220 Y36.990 E1.13953 F540.000
G1 X152.950 Y35.630 E1.27988
G1 X153.930 Y34.430 E1.42076
G1 X155.130 Y33.450 E1.56164
G1 X156.490 Y32.720 E1.70199
G1 X157.960 Y32.280 E1.84152
G1 X159.500 Y32.130 E1.98221
G1 X220.500 Y32.130 E7.52891
G1 X222.040 Y32.280 E7.66961
G1 X223.510 Y32.720 E7.80913
G1 X224.870 Y33.450 E7.94949
G1 X226.070 Y34.430 E8.09037
G1 X227.050 Y35.630 E8.23125
G1 X227.780 Y36.990 E8.37160
G1 X228.220 Y38.460 E8.51113
G1 X228.370 Y40.000 E8.65182
G1 X228.370 Y53.010 E9.83481
G1 X228.230 Y54.510 E9.97180
G1 X227.800 Y55.950 E10.10845
G1 X227.110 Y57.290 E10.24550
G1 X226.180 Y58.470 E10.38212
G1 X225.030 Y59.450 E10.51951
G1 X223.730 Y60.190 E10.65552
G1 X222.300 Y60.680 E10.79298
G1 X192.550 Y67.670 E13.57180
G1 X191.660 Y67.820 E13.65387
G1 X190.750 Y67.870 E13.73674
G1 X159.500 Y67.870 E16.57829
G1 X157.960 Y67.720 E16.71898
G1 X156.490 Y67.280 E16.85851
G1 X155.130 Y66.550 E16.99886
G1 X153.930 Y65.570 E17.13974
G1 X152.950 Y64.370 E17.28062
G1 X152.220 Y63.010 E17.42097
G1 X151.780 Y61.540 E17.56050
G1 X151.630 Y60.000 E17.70119
G1 X151.630 Y40.000 E19.51978
G1 X151.771 Y38.553 E19.65195
G1 X152.390 Y38.590 F7800.000
G1 X152.800 Y37.230 E19.78111 F540.000
G1 X153.470 Y35.970 E19.91088
G1 X154.370 Y34.870 E20.04011
G1 X155.470 Y33.970 E20.16935
G1 X156.730 Y33.300 E20.29911
G1 X158.090 Y32.890 E20.42827
G1 X159.500 Y32.750 E20.55711
G1 X220.500 Y32.750 E26.10382
G1 X221.910 Y32.890 E26.23266
G1 X223.270 Y33.300 E26.36182
G1 X224.530 Y33.970 E26.49158
G1 X225.630 Y34.870 E26.62082
G1 X226.530 Y35.970 E26.75005
G1 X227.200 Y37.230 E26.87981
G1 X227.610 Y38.590 E27.00897
G1 X227.750 Y40.000 E27.13782
G1 X227.750 Y53.010 E28.32081
G1 X227.620 Y54.390 E28.44685
G1 X227.220 Y55.720 E28.57314
G1 X226.590 Y56.950 E28.69880
G1 X225.730 Y58.030 E28.82433
G1 X224.670 Y58.940 E28.95136
G1 X223.470 Y59.620 E29.07678
G1 X222.160 Y60.070 E29.20273
G1 X192.410 Y67.060 E31.98155
G1 X191.580 Y67.200 E32.05809
G1 X190.750 Y67.250 E32.13370
G1 X159.500 Y67.250 E34.97525
G1 X158.090 Y67.110 E35.10409
G1 X156.730 Y66.700 E35.23325
G1 X155.470 Y66.030 E35.36301
G1 X154.370 Y65.130 E35.49225
G1 X153.470 Y64.030 E35.62148
G1 X152.800 Y62.770 E35.75124
G1 X152.390 Y61.410 E35.88041
G1 X152.250 Y60.000 E36.00925
G1 X152.250 Y40.000 E37.82784
G1 X152.381 Y38.683 E37.94816
G1 X153.000 Y38.710 F7800.000
G1 X153.380 Y37.460 E38.06695 F540.000
G1 X153.990 Y36.320 E38.18452
G1 X154.820 Y35.320 E38.30269
G1 X155.820 Y34.490 E38.42086
G1 X156.960 Y33.880 E38.53843
G1 X158.210 Y33.500 E38.65723
G1 X159.500 Y33.380 E38.77503
G1 X220.500 Y33.380 E44.32174
G1 X221.790 Y33.500 E44.43954
G1 X223.040 Y33.880 E44.55834
G1 X224.180 Y34.490 E44.67591
G1 X225.180 Y35.320 E44.79408
G1 X226.010 Y36.320 E44.91225
G1 X226.620 Y37.460 E45.02981
G1 X227.000 Y38.710 E45.14861
G1 X227.120 Y40.000 E45.26642
G1 X227.120 Y53.010 E46.44941
G1 X227.000 Y54.270 E46.56450
G1 X226.650 Y55.480 E46.67904
G1 X226.060 Y56.610 E46.79495
G1 X225.280 Y57.600 E46.90955
G1 X224.310 Y58.430 E47.02564
G1 X223.210 Y59.050 E47.14045
G1 X222.020 Y59.460 E47.25490
G1 X192.270 Y66.450 E50.03372
G1 X191.510 Y66.580 E50.10383
G1 X190.750 Y66.620 E50.17303
G1 X159.500 Y66.620 E53.01458
G1 X158.210 Y66.500 E53.13239
G1 X156.960 Y66.120 E53.25119
G1 X155.820 Y65.510 E53.36875
G1 X154.820 Y64.680 E53.48692
G1 X153.990 Y63.680 E53.60509
G1 X153.380 Y62.540 E53.72266
G1 X153.000 Y61.290 E53.84146
G1 X152.880 Y60.000 E53.95926
G1 X152.880 Y40.000 E55.77786
G1 X152.991 Y38.803 E55.88714
G1 F1800.000 E54.88714
G92 E0
G1 X159.850 Y40.350 F7800.000
G1 E1.00000 F1800.000
G1 X220.150 Y40.350 E6.48305 F378.000
G1 X220.150 Y52.660 E7.60240
G1 X190.400 Y52.660 E10.30755
G1 X190.400 Y59.650 E10.94315
G1 X159.850 Y59.650 E13.72105
G1 X159.850 Y40.444 E15.46747
G1 X160.334 Y59.228 F7800.000
G1 X160.272 Y59.166 E15.47551 F1080.000
G1 X160.272 Y58.282 E15.55590
G1 X161.218 Y59.228 E15.67764
G1 X162.102 Y59.228 E15.75804
G1 X160.272 Y57.398 E15.99348
G1 X160.272 Y56.514 E16.07388
G1 X162.986 Y59.228 E16.42302
G1 X163.870 Y59.228 E16.50342
G1 X160.272 Y55.630 E16.96626
G1 X160.272 Y54.746 E17.04666
G1 X164.754 Y59.228 E17.62320
G1 X165.638 Y59.228 E17.70360
G1 X160.272 Y53.862 E18.39384
G1 X160.272 Y52.978 E18.47424
G1 X166.522 Y59.228 E19.27818
G1 X167.406 Y59.228 E19.35858
G1 X160.272 Y52.094 E20.27622
G1 X160.272 Y51.210 E20.35662
G1 X168.290 Y59.228 E21.38796
G1 X169.174 Y59.228 E21.46836
G1 X160.272 Y50.326 E22.61340
G1 X160.272 Y49.442 E22.69380
G1 X170.058 Y59.228 E23.95254
G1 X170.942 Y59.228 E24.03294
G1 X160.272 Y48.558 E25.40538
G1 X160.272 Y47.674 E25.48578
G1 X171.826 Y59.228 E26.97192
G1 X172.710 Y59.228 E27.05232
G1 X160.272 Y46.790 E28.65216
G1 X160.272 Y45.906 E28.73256
G1 X173.594 Y59.228 E30.44610
G1 X174.478 Y59.228 E30.52650
G1 X160.272 Y45.022 E32.35374
G1 X160.272 Y44.139 E32.43414
G1 X175.361 Y59.228 E34.37509
G1 X176.245 Y59.228 E34.45548
G1 X160.272 Y43.255 E36.51013
G1 X160.272 Y42.371 E36.59053
G1 X177.129 Y59.228 E38.75887
G1 X178.013 Y59.228 E38.83927
G1 X160.272 Y41.487 E41.12131
G1 X160.441 Y40.772 E41.18813
G1 X178.897 Y59.228 E43.56212
G1 X179.781 Y59.228 E43.64252
G1 X161.325 Y40.772 E46.01652
G1 X162.209 Y40.772 E46.09692
G1 X180.665 Y59.228 E48.47091
G1 X181.549 Y59.228 E48.55131
G1 X163.093 Y40.772 E50.92531
G1 X163.977 Y40.772 E51.00570
G1 X182.433 Y59.228 E53.37970
G1 X183.317 Y59.228 E53.46010
G1 X164.861 Y40.772 E55.83409
G1 X165.745 Y40.772 E55.91449
G1 X184.201 Y59.228 E58.28849
G1 X185.085 Y59.228 E58.36889
G1 X166.629 Y40.772 E60.74288
G1 X167.512 Y40.772 E60.82328
G1 X185.969 Y59.228 E63.19728
G1 X186.853 Y59.228 E63.27767
G1 X168.396 Y40.772 E65.65167
G1 X169.280 Y40.772 E65.73207
G1 X187.737 Y59.228 E68.10606
G1 X188.621 Y59.228 E68.18646
G1 X170.164 Y40.772 E70.56046
G1 X171.048 Y40.772 E70.64086
G1 X189.505 Y59.228 E73.01485
G1 X189.978 Y58.818 E73.07185
G1 X171.932 Y40.772 E75.39304
G1 X172.816 Y40.772 E75.47344
G1 X189.978 Y57.934 E77.68094
G1 X189.978 Y57.050 E77.76134
G1 X173.700 Y40.772 E79.85513
G1 X174.584 Y40.772 E79.93553
G1 X189.978 Y56.166 E81.91563
G1 X189.978 Y55.282 E81.99602
G1 X175.468 Y40.772 E83.86242
G1 X176.352 Y40.772 E83.94282
G1 X189.978 Y54.398 E85.69551
G1 X189.978 Y53.514 E85.77591
G1 X177.236 Y40.772 E87.41491
G1 X178.120 Y40.772 E87.49531
G1 X189.978 Y52.630 E89.02060
G1 X190.470 Y52.238 E89.07782
G1 X179.004 Y40.772 E90.55271
G1 X179.888 Y40.772 E90.63311
G1 X191.354 Y52.238 E92.10800
G1 X192.238 Y52.238 E92.18840
G1 X180.772 Y40.772 E93.66329
G1 X181.656 Y40.772 E93.74369
G1 X193.122 Y52.238 E95.21859
G1 X194.006 Y52.238 E95.29898
G1 X182.540 Y40.772 E96.77388
G1 X183.424 Y40.772 E96.85428
G1 X194.890 Y52.238 E98.32917
G1 X195.774 Y52.238 E98.40957
G1 X184.308 Y40.772 E99.88446
G1 X185.192 Y40.772 E99.96486
G1 X196.658 Y52.238 E101.43976
G1 X197.542 Y52.238 E101.52015
G1 X186.076 Y40.772 E102.99505
G1 X186.959 Y40.772 E103.07545
G1 X198.426 Y52.238 E104.55034
G1 X199.310 Y52.238 E104.63074
G1 X187.843 Y40.772 E106.10563
G1 X188.727 Y40.772 E106.18603
G1 X200.194 Y52.238 E107.66092
G1 X201.078 Y52.238 E107.74132
G1 X189.611 Y40.772 E109.21622
G1 X190.495 Y40.772 E109.29662
G1 X201.962 Y52.238 E110.77151
G1 X202.846 Y52.238 E110.85191
G1 X191.379 Y40.772 E112.32680
G1 X192.263 Y40.772 E112.40720
G1 X203.730 Y52.238 E113.88209
G1 X204.614 Y52.238 E113.96249
G1 X193.147 Y40.772 E115.43739
G1 X194.031 Y40.772 E115.51778
G1 X205.498 Y52.238 E116.99268
G1 X206.382 Y52.238 E117.07308
G1 X194.915 Y40.772 E118.54797
G1 X195.799 Y40.772 E118.62837
G1 X207.265 Y52.238 E120.10326
G1 X208.149 Y52.238 E120.18366
G1 X196.683 Y40.772 E121.65856
G1 X197.567 Y40.772 E121.73895
G1 X209.033 Y52.238 E123.21385
G1 X209.917 Y52.238 E123.29425
G1 X198.451 Y40.772 E124.76914
G1 X199.335 Y40.772 E124.84954
G1 X210.801 Y52.238 E126.32443
G1 X211.685 Y52.238 E126.40483
G1 X200.219 Y40.772 E127.87972
G1 X201.103 Y40.772 E127.96012
G1 X212.569 Y52.238 E129.43502
G1 X213.453 Y52.238 E129.51542
G1 X201.987 Y40.772 E130.99031
G1 X202.871 Y40.772 E131.07071
G1 X214.337 Y52.238 E132.54560
G1 X215.221 Y52.238 E132.62600
G1 X203.755 Y40.772 E134.10089
G1 X204.639 Y40.772 E134.18129
G1 X216.105 Y52.238 E135.65619
G1 X216.989 Y52.238 E135.73658
G1 X205.523 Y40.772 E137.21148
G1 X206.406 Y40.772 E137.29188
G1 X217.873 Y52.238 E138.76677
G1 X218.757 Y52.238 E138.84717
G1 X207.290 Y40.772 E140.32206
G1 X208.174 Y40.772 E140.40246
G1 X219.641 Y52.238 E141.87736
G1 X219.728 Y51.442 E141.95024
G1 X209.058 Y40.772 E143.32268
G1 X209.942 Y40.772 E143.40307
G1 X219.728 Y50.558 E144.66181
G1 X219.728 Y49.674 E144.74221
G1 X210.826 Y40.772 E145.88724
G1 X211.710 Y40.772 E145.96764
G1 X219.728 Y48.790 E146.99898
G1 X219.728 Y47.906 E147.07938
G1 X212.594 Y40.772 E147.99701
G1 X213.478 Y40.772 E148.07741
G1 X219.728 Y47.022 E148.88135
G1 X219.728 Y46.138 E148.96174
G1 X214.362 Y40.772 E149.65198
G1 X215.246 Y40.772 E149.73238
G1 X219.728 Y45.254 E150.30891
G1 X219.728 Y44.370 E150.38931
G1 X216.130 Y40.772 E150.85215
G1 X217.014 Y40.772 E150.93254
G1 X219.728 Y43.486 E151.28168
G1 X219.728 Y42.602 E151.36208
G1 X217.898 Y40.772 E151.59751
G1 X218.782 Y40.772 E151.67791
G1 X219.728 Y41.718 E151.79964
G1 X219.728 Y40.834 E151.88004
G1 X219.666 Y40.772 E151.88808
M106 S255
M104 S220 ; set temperature
G1 F1800.000 E150.88808
G92 E0
G1 Z0.600 F7800.000
G1 X220.325 Y40.175 F7800.000
G1 E1.00000 F1800.000
G1 X220.325 Y52.835 E1.46055 F600.000
G1 X190.575 Y52.835 E2.54280
G1 X190.575 Y59.825 E2.79709
G1 X159.675 Y59.825 E3.92118
G1 X159.675 Y40.175 E4.63601
G1 X220.272 Y40.175 E6.84044
G1 X213.767 Y40.437 F7800.000
G1 X215.542 Y42.212 E6.94087 F1604.349
G1 X220.049 Y41.004 E7.12751
G1 X220.063 Y40.950 E7.12975
G1 X220.063 Y41.399 E7.14768
G1 X215.642 Y42.584 E7.33080
G1 X214.606 Y46.447 E7.49077
G1 X210.099 Y47.655 E7.67741
G1 X207.271 Y44.827 E7.83739
G1 X202.764 Y46.034 E8.02403
G1 X201.729 Y49.897 E8.18401
G1 X197.222 Y51.105 E8.37065
G1 X194.394 Y48.277 E8.53062
G1 X189.887 Y49.485 E8.71726
G1 X188.852 Y53.348 E8.87724
G1 X184.345 Y54.555 E9.06388
G1 X181.517 Y51.727 E9.22386
G1 X177.010 Y52.935 E9.41050
G1 X175.975 Y56.798 E9.57047
G1 X171.468 Y58.006 E9.75711
G1 X168.640 Y55.178 E9.91709
G1 X164.133 Y56.385 E10.10373
G1 X163.281 Y59.563 E10.23533
G1 X171.250 Y59.563 F7800.000
G1 X171.568 Y58.378 E10.28444 F1604.349
G1 X176.075 Y57.170 E10.47108
G1 X178.468 Y59.563 E10.60648
G1 X182.011 Y59.563 F7800.000
G1 X183.509 Y59.162 E10.66852 F1604.349
G1 X183.911 Y59.563 E10.69122
G1 X180.524 Y59.563 E10.82668
G1 X183.410 Y58.790 E10.94617
G1 X184.445 Y54.927 E11.10614
G1 X188.952 Y53.719 E11.29278
G1 X190.314 Y55.081 E11.36981
G1 F1800.000 E10.36981
G92 E0
G1 X197.028 Y52.574 F7800.000
G1 E1.00000 F1800.000
G1 X197.322 Y51.477 E1.04542 F1604.349
G1 X201.829 Y50.269 E1.23206
G1 X204.133 Y52.573 E1.36242
G1 X206.611 Y52.573 E1.46154
G1 X209.164 Y51.889 E1.56725
G1 X210.199 Y48.026 E1.72722
G1 X214.706 Y46.819 E1.91386
G1 X217.534 Y49.647 E2.07384
G1 X220.063 Y48.969 E2.17858
G1 X220.063 Y49.367 E2.19452
G1 X217.634 Y50.018 E2.29514
G1 X216.949 Y52.573 E2.40094
G1 X209.576 Y52.573 E2.69588
G1 X209.264 Y52.261 E2.71354
G1 X208.098 Y52.573 E2.76180
G1 X208.786 Y40.437 F7800.000
G1 X208.207 Y40.592 E2.78576 F1604.349
G1 X207.172 Y44.455 E2.94574
G1 X202.665 Y45.662 E3.13238
G1 X199.837 Y42.834 E3.29236
G1 X195.330 Y44.042 E3.47900
G1 X194.295 Y47.905 E3.63897
G1 X189.788 Y49.113 E3.82561
G1 X186.960 Y46.285 E3.98559
G1 X182.453 Y47.492 E4.17223
G1 X181.417 Y51.356 E4.33221
G1 X176.910 Y52.563 E4.51885
G1 X174.082 Y49.735 E4.67882
G1 X169.575 Y50.943 E4.86546
G1 X168.540 Y54.806 E5.02544
G1 X164.033 Y56.014 E5.21208
G1 X161.205 Y53.186 E5.37206
G1 X159.937 Y53.526 E5.42460
G1 X159.937 Y53.127 E5.44053
G1 X161.106 Y52.814 E5.48895
G1 X162.141 Y48.951 E5.64892
G1 X166.648 Y47.743 E5.83556
G1 X169.476 Y50.571 E5.99554
G1 X173.983 Y49.364 E6.18218
G1 X175.018 Y45.500 E6.34216
G1 X179.525 Y44.293 E6.52880
G1 X182.353 Y47.121 E6.68878
G1 X186.860 Y45.913 E6.87542
G1 X187.895 Y42.050 E7.03539
G1 X192.402 Y40.842 E7.22203
G1 X195.230 Y43.670 E7.38201
G1 X199.737 Y42.463 E7.56865
G1 X200.280 Y40.437 E7.65255
G1 X192.312 Y40.437 F7800.000
G1 X192.303 Y40.471 E7.65396 F1604.349
G1 X187.796 Y41.678 E7.84060
G1 X186.554 Y40.437 E7.91084
G1 X180.359 Y40.437 E8.15863
G1 X179.425 Y43.921 E8.30293
G1 X174.918 Y45.129 E8.48957
G1 X172.090 Y42.301 E8.64954
G1 X167.583 Y43.508 E8.83618
G1 X166.548 Y47.371 E8.99616
G1 X162.041 Y48.579 E9.18280
G1 X159.937 Y46.474 E9.30186
G1 X159.937 Y42.308 E9.46852
G1 X160.149 Y41.516 E9.50130
G1 X164.178 Y40.437 E9.66815
G1 X164.784 Y40.437 E9.69239
G1 X167.484 Y43.137 E9.84513
G1 X171.991 Y41.929 E10.03177
G1 X172.391 Y40.437 E10.09356
G1 X162.691 Y40.437 F7800.000
G1 X160.049 Y41.144 E10.20296 F1604.349
G1 X159.937 Y41.032 E10.20933
G1 F1800.000 E9.20933
G92 E0
G1 Z0.850 F7800.000
G1 X159.675 Y40.175 F7800.000
G1 E1.00000 F1800.000
G1 X220.325 Y40.175 E3.20634 F600.000
G1 X220.325 Y52.835 E3.66689
G1 X190.575 Y52.835 E4.74914
G1 X190.575 Y59.825 E5.00343
G1 X159.675 Y59.825 E6.12752
G1 X159.675 Y40.227 E6.84044
G1 X159.937 Y41.564 F7800.000
G1 X160.049 Y41.144 E6.85783 F1688.789
G1 X159.937 Y41.032 E6.86419
G1 X163.434 Y40.437 E7.00612
G1 X160.421 Y41.244 E7.13091
G1 X159.937 Y43.051 E7.20575
G1 X159.937 Y46.474 E7.34268
G1 X162.041 Y48.579 E7.46173
G1 X160.834 Y53.086 E7.64837
G1 X159.937 Y53.326 E7.68552
G1 X163.082 Y59.563 E7.96493
G1 X164.033 Y56.014 E8.11193
G1 X161.205 Y53.186 E8.27190
G1 X162.413 Y48.679 E8.45854
G1 X166.276 Y47.644 E8.61852
G1 X167.484 Y43.137 E8.80516
G1 X164.784 Y40.437 E8.95789
G1 X172.191 Y40.437 E9.25420
G1 X171.719 Y42.201 E9.32727
G1 X167.855 Y43.236 E9.48724
G1 X166.648 Y47.743 E9.67388
G1 X169.476 Y50.571 E9.83386
G1 X168.268 Y55.078 E10.02050
G1 X164.405 Y56.113 E10.18048
G1 X163.481 Y59.563 E10.32335
G1 X171.051 Y59.563 E10.62615
G1 X171.468 Y58.006 E10.69065
G1 X168.640 Y55.178 E10.85063
G1 X169.848 Y50.671 E11.03727
G1 X173.711 Y49.636 E11.19725
G1 X174.918 Y45.129 E11.38388
G1 X172.090 Y42.301 E11.54386
G1 X172.590 Y40.437 E11.62105
G1 X180.160 Y40.437 E11.92385
G1 X179.153 Y44.193 E12.07942
G1 X175.290 Y45.228 E12.23939
G1 X174.082 Y49.735 E12.42603
G1 X176.910 Y52.563 E12.58601
G1 X175.703 Y57.070 E12.77265
G1 X171.840 Y58.105 E12.93263
G1 X171.449 Y59.563 E12.99301
G1 X178.468 Y59.563 E13.27377
G1 X176.075 Y57.170 E13.40916
G1 X177.282 Y52.663 E13.59580
G1 X181.145 Y51.628 E13.75578
G1 X182.353 Y47.121 E13.94242
G1 X179.525 Y44.293 E14.10240
G1 X180.558 Y40.437 E14.26209
G1 X186.554 Y40.437 E14.50191
G1 X187.796 Y41.678 E14.57215
G1 X186.588 Y46.185 E14.75879
G1 X182.725 Y47.220 E14.91877
G1 X181.517 Y51.727 E15.10541
G1 X184.345 Y54.555 E15.26538
G1 X183.137 Y59.062 E15.45202
G1 X181.268 Y59.563 E15.52946
G1 X183.911 Y59.563 E15.63517
G1 X183.509 Y59.162 E15.65788
G1 X184.717 Y54.655 E15.84452
G1 X188.580 Y53.620 E16.00450
G1 X189.788 Y49.113 E16.19114
G1 X186.960 Y46.285 E16.35111
G1 X188.167 Y41.778 E16.53775
G1 X192.030 Y40.743 E16.69773
G1 X192.112 Y40.437 E16.71041
G1 X192.511 Y40.437 E16.72634
G1 X192.402 Y40.842 E16.74315
G1 X195.230 Y43.670 E16.90312
G1 X194.023 Y48.177 E17.08976
G1 X190.159 Y49.212 E17.24974
G1 X188.952 Y53.719 E17.43638
