; generated by Slic3r 1.0.0RC2 on 2014-01-04 at 13:56:07

; layer_height = 0.25
; perimeters = 1
; top_solid_layers = 1
; bottom_solid_layers = 1
; fill_density = 0.1
; perimeter_speed = 30
; infill_speed = 60
; travel_speed = 130
; nozzle_diameter = 0.35
; filament_diameter = 1.75
; extrusion_multiplier = 1
; perimeters extrusion width = 0.35mm
; infill extrusion width = 0.39mm
; solid infill extrusion width = 0.39mm
; top infill extrusion width = 0.39mm
; first layer extrusion width = 0.70mm

G21 ; set units to millimeters
M107
M104 S220 ; set temperature
G28 ; home all axes
G1 Z5 F5000 ; lift nozzle

M109 S220 ; wait for temperature to be reached
G90 ; use absolute coordinates
G92 E0
M82 ; use absolute distances for extrusion
G1 F1800.000 E-1.00000
G92 E0
G1 Z0.350 F7800.000
G1 X152.280 Y38.460 F7800.000
G1 E1.00000 F1800.000
G1 X152.720 Y36.990 E1.13953 F540.000
G1 X153.450 Y35.630 E1.27988
G1 X154.430 Y34.430 E1.42076
G1 X155.630 Y33.450 E1.56164
G1 X156.990 Y32.720 E1.70199
G1 X158.460 Y32.280 E1.84152
G1 X160.000 Y32.130 E1.98221
G1 X220.000 Y32.130 E7.43799
G1 X221.540 Y32.280 E7.57868
G1 X223.010 Y32.720 E7.71821
G1 X224.370 Y33.450 E7.85856
G1 X225.570 Y34.430 E7.99944
G1 X226.550 Y35.630 E8.14032
G1 X227.280 Y36.990 E8.28067
G1 X227.720 Y38.460 E8.42020
G1 X227.870 Y40.000 E8.56089
G1 X227.870 Y52.450 E9.69296
G1 X227.740 Y53.920 E9.82715
G1 X227.330 Y55.340 E9.96155
G1 X226.660 Y56.650 E10.09534
G1 X225.760 Y57.820 E10.22956
G1 X224.650 Y58.800 E10.36420
G1 X223.390 Y59.560 E10.49800
G1 X222.000 Y60.070 E10.63263
G1 X193.250 Y67.620 E13.33550
G1 X192.260 Y67.810 E13.42716
G1 X191.250 Y67.870 E13.51916
G1 X160.000 Y67.870 E16.36071
G1 X158.460 Y67.720 E16.50140
G1 X156.990 Y67.280 E16.64093
G1 X155.630 Y66.550 E16.78128
G1 X154.430 Y65.570 E16.92216
G1 X153.450 Y64.370 E17.06304
G1 X152.720 Y63.010 E17.20340
G1 X152.280 Y61.540 E17.34292
G1 X152.130 Y60.000 E17.48362
G1 X152.130 Y40.000 E19.30221
G1 X152.271 Y38.553 E19.43438
G1 X152.890 Y38.590 F7800.000
G1 X153.300 Y37.230 E19.56354 F540.000
G1 X153.970 Y35.970 E19.69330
G1 X154.870 Y34.870 E19.82254
G1 X155.970 Y33.970 E19.95177
G1 X157.230 Y33.300 E20.08153
G1 X158.590 Y32.890 E20.21070
G1 X160.000 Y32.750 E20.33954
G1 X220.000 Y32.750 E25.79531
G1 X221.410 Y32.890 E25.92415
G1 X222.770 Y33.300 E26.05331
G1 X224.030 Y33.970 E26.18308
G1 X225.130 Y34.870 E26.31231
G1 X226.030 Y35.970 E26.44155
G1 X226.700 Y37.230 E26.57131
G1 X227.110 Y38.590 E26.70047
G1 X227.250 Y40.000 E26.82931
G1 X227.250 Y52.450 E27.96138
G1 X227.120 Y53.800 E28.08471
G1 X226.740 Y55.110 E28.20874
G1 X226.130 Y56.320 E28.33195
G1 X225.300 Y57.400 E28.45581
G1 X224.280 Y58.300 E28.57950
G1 X223.120 Y59.000 E28.70269
G1 X221.840 Y59.460 E28.82637
G1 X193.090 Y67.010 E31.52924
G1 X192.180 Y67.190 E31.61358
G1 X191.250 Y67.250 E31.69832
G1 X160.000 Y67.250 E34.53987
G1 X158.590 Y67.110 E34.66872
G1 X157.230 Y66.700 E34.79788
G1 X155.970 Y66.030 E34.92764
G1 X154.870 Y65.130 E35.05687
G1 X153.970 Y64.030 E35.18611
G1 X153.300 Y62.770 E35.31587
G1 X152.890 Y61.410 E35.44503
G1 X152.750 Y60.000 E35.57387
G1 X152.750 Y40.000 E37.39247
G1 X152.881 Y38.683 E37.51278
G1 X153.500 Y38.710 F7800.000
G1 X153.880 Y37.460 E37.63158 F540.000
G1 X154.490 Y36.320 E37.74915
G1 X155.320 Y35.320 E37.86732
G1 X156.320 Y34.490 E37.98549
G1 X157.460 Y33.880 E38.10306
G1 X158.710 Y33.500 E38.22185
G1 X160.000 Y33.380 E38.33966
G1 X220.000 Y33.380 E43.79543
G1 X221.290 Y33.500 E43.91324
G1 X222.540 Y33.880 E44.03204
G1 X223.680 Y34.490 E44.14960
G1 X224.680 Y35.320 E44.26777
G1 X225.510 Y36.320 E44.38594
G1 X226.120 Y37.460 E44.50351
G1 X226.500 Y38.710 E44.62231
G1 X226.620 Y40.000 E44.74011
G1 X226.620 Y52.450 E45.87219
G1 X226.470 Y53.890 E46.00383
G1 X226.000 Y55.260 E46.13553
G1 X225.250 Y56.500 E46.26731
G1 X224.240 Y57.540 E46.39913
G1 X223.030 Y58.340 E46.53103
G1 X221.680 Y58.860 E46.66257
G1 X192.930 Y66.410 E49.36544
G1 X192.100 Y66.570 E49.44230
G1 X191.250 Y66.620 E49.51973
G1 X160.000 Y66.620 E52.36127
G1 X158.710 Y66.500 E52.47908
G1 X157.460 Y66.120 E52.59788
G1 X156.320 Y65.510 E52.71545
G1 X155.320 Y64.680 E52.83362
G1 X154.490 Y63.680 E52.95179
G1 X153.880 Y62.540 E53.06935
G1 X153.500 Y61.290 E53.18815
G1 X153.380 Y60.000 E53.30596
G1 X153.380 Y40.000 E55.12455
G1 X153.491 Y38.803 E55.23383
G1 F1800.000 E54.23383
G92 E0
G1 X160.350 Y40.350 F7800.000
G1 E1.00000 F1800.000
G1 X219.650 Y40.350 E6.39212 F378.000
G1 X219.650 Y52.100 E7.46055
G1 X190.900 Y52.100 E10.07477
G1 X190.900 Y59.650 E10.76129
G1 X160.350 Y59.650 E13.53919
G1 X160.350 Y40.444 E15.28561
G1 X160.835 Y59.229 F7800.000
G1 X160.771 Y59.165 E15.29381 F1080.000
G1 X160.771 Y58.273 E15.37584
G1 X161.727 Y59.229 E15.50005
G1 X162.620 Y59.229 E15.58208
G1 X160.771 Y57.380 E15.82230
G1 X160.771 Y56.487 E15.90434
G1 X163.513 Y59.229 E16.26057
G1 X164.406 Y59.229 E16.34260
G1 X160.771 Y55.594 E16.81483
G1 X160.771 Y54.701 E16.89687
G1 X165.299 Y59.229 E17.48511
G1 X166.192 Y59.229 E17.56714
G1 X160.771 Y53.808 E18.27140
G1 X160.771 Y52.915 E18.35343
G1 X167.085 Y59.229 E19.17370
G1 X167.978 Y59.229 E19.25573
G1 X160.771 Y52.022 E20.19200
G1 X160.771 Y51.129 E20.27403
G1 X168.871 Y59.229 E21.32632
G1 X169.763 Y59.229 E21.40835
G1 X160.771 Y50.237 E22.57664
G1 X160.771 Y49.344 E22.65867
G1 X170.656 Y59.229 E23.94297
G1 X171.549 Y59.229 E24.02500
G1 X160.771 Y48.451 E25.42531
G1 X160.771 Y47.558 E25.50734
G1 X172.442 Y59.229 E27.02366
G1 X173.335 Y59.229 E27.10569
G1 X160.771 Y46.665 E28.73802
G1 X160.771 Y45.772 E28.82005
G1 X174.228 Y59.229 E30.56838
G1 X175.121 Y59.229 E30.65042
G1 X160.771 Y44.879 E32.51476
G1 X160.771 Y43.986 E32.59679
G1 X176.014 Y59.229 E34.57715
G1 X176.906 Y59.229 E34.65918
G1 X160.771 Y43.094 E36.75554
G1 X160.771 Y42.201 E36.83757
G1 X177.799 Y59.229 E39.04994
G1 X178.692 Y59.229 E39.13197
G1 X160.771 Y41.308 E41.46035
G1 X161.128 Y40.771 E41.51952
G1 X179.585 Y59.229 E43.91758
G1 X180.478 Y59.229 E43.99961
G1 X162.021 Y40.771 E46.39767
G1 X162.914 Y40.771 E46.47970
G1 X181.371 Y59.229 E48.87776
G1 X182.264 Y59.229 E48.95979
G1 X163.807 Y40.771 E51.35785
G1 X164.700 Y40.771 E51.43988
G1 X183.157 Y59.229 E53.83794
G1 X184.050 Y59.229 E53.91997
G1 X165.592 Y40.771 E56.31802
G1 X166.485 Y40.771 E56.40005
G1 X184.942 Y59.229 E58.79811
G1 X185.835 Y59.229 E58.88014
G1 X167.378 Y40.771 E61.27820
G1 X168.271 Y40.771 E61.36023
G1 X186.728 Y59.229 E63.75829
G1 X187.621 Y59.229 E63.84032
G1 X169.164 Y40.771 E66.23838
G1 X170.057 Y40.771 E66.32041
G1 X188.514 Y59.229 E68.71847
G1 X189.407 Y59.229 E68.80050
G1 X170.950 Y40.771 E71.19856
G1 X171.843 Y40.771 E71.28059
G1 X190.300 Y59.229 E73.67865
G1 X190.479 Y58.514 E73.74628
G1 X172.736 Y40.771 E76.05156
G1 X173.628 Y40.771 E76.13359
G1 X190.479 Y57.622 E78.32286
G1 X190.479 Y56.729 E78.40489
G1 X174.521 Y40.771 E80.47816
G1 X175.414 Y40.771 E80.56019
G1 X190.479 Y55.836 E82.51744
G1 X190.479 Y54.943 E82.59947
G1 X176.307 Y40.771 E84.44072
G1 X177.200 Y40.771 E84.52275
G1 X190.479 Y54.050 E86.24799
G1 X190.479 Y53.157 E86.33002
G1 X178.093 Y40.771 E87.93925
G1 X178.986 Y40.771 E88.02128
G1 X190.479 Y52.264 E89.51450
G1 X190.786 Y51.679 E89.57526
G1 X179.879 Y40.771 E90.99237
G1 X180.771 Y40.771 E91.07440
G1 X191.679 Y51.679 E92.49152
G1 X192.571 Y51.679 E92.57355
G1 X181.664 Y40.771 E93.99067
G1 X182.557 Y40.771 E94.07270
G1 X193.464 Y51.679 E95.48981
G1 X194.357 Y51.679 E95.57184
G1 X183.450 Y40.771 E96.98896
G1 X184.343 Y40.771 E97.07099
G1 X195.250 Y51.679 E98.48811
G1 X196.143 Y51.679 E98.57014
G1 X185.236 Y40.771 E99.98725
G1 X186.129 Y40.771 E100.06928
G1 X197.036 Y51.679 E101.48640
G1 X197.929 Y51.679 E101.56843
G1 X187.022 Y40.771 E102.98555
G1 X187.915 Y40.771 E103.06758
G1 X198.822 Y51.679 E104.48469
G1 X199.715 Y51.679 E104.56672
G1 X188.807 Y40.771 E105.98384
G1 X189.700 Y40.771 E106.06587
G1 X200.607 Y51.679 E107.48299
G1 X201.500 Y51.679 E107.56502
G1 X190.593 Y40.771 E108.98213
G1 X191.486 Y40.771 E109.06416
G1 X202.393 Y51.679 E110.48128
G1 X203.286 Y51.679 E110.56331
G1 X192.379 Y40.771 E111.98043
G1 X193.272 Y40.771 E112.06246
G1 X204.179 Y51.679 E113.47957
G1 X205.072 Y51.679 E113.56160
G1 X194.165 Y40.771 E114.97872
G1 X195.058 Y40.771 E115.06075
G1 X205.965 Y51.679 E116.47787
G1 X206.858 Y51.679 E116.55990
G1 X195.950 Y40.771 E117.97701
G1 X196.843 Y40.771 E118.05904
G1 X207.750 Y51.679 E119.47616
G1 X208.643 Y51.679 E119.55819
G1 X197.736 Y40.771 E120.97531
G1 X198.629 Y40.771 E121.05734
G1 X209.536 Y51.679 E122.47445
G1 X210.429 Y51.679 E122.55648
G1 X199.522 Y40.771 E123.97360
G1 X200.415 Y40.771 E124.05563
G1 X211.322 Y51.679 E125.47275
G1 X212.215 Y51.679 E125.55478
G1 X201.308 Y40.771 E126.97189
G1 X202.201 Y40.771 E127.05392
G1 X213.108 Y51.679 E128.47104
G1 X214.001 Y51.679 E128.55307
G1 X203.094 Y40.771 E129.97019
G1 X203.986 Y40.771 E130.05222
G1 X214.894 Y51.679 E131.46933
G1 X215.786 Y51.679 E131.55136
G1 X204.879 Y40.771 E132.96848
G1 X205.772 Y40.771 E133.05051
G1 X216.679 Y51.679 E134.46763
G1 X217.572 Y51.679 E134.54966
G1 X206.665 Y40.771 E135.96677
G1 X207.558 Y40.771 E136.04880
G1 X218.465 Y51.679 E137.46592
G1 X219.229 Y51.549 E137.53706
G1 X208.451 Y40.771 E138.93737
G1 X209.344 Y40.771 E139.01940
G1 X219.229 Y50.656 E140.30369
G1 X219.229 Y49.763 E140.38572
G1 X210.237 Y40.771 E141.55401
G1 X211.130 Y40.771 E141.63604
G1 X219.229 Y48.870 E142.68832
G1 X219.229 Y47.978 E142.77035
G1 X212.022 Y40.771 E143.70662
G1 X212.915 Y40.771 E143.78865
G1 X219.229 Y47.085 E144.60891
G1 X219.229 Y46.192 E144.69094
G1 X213.808 Y40.771 E145.39519
G1 X214.701 Y40.771 E145.47722
G1 X219.229 Y45.299 E146.06546
G1 X219.229 Y44.406 E146.14749
G1 X215.594 Y40.771 E146.61972
G1 X216.487 Y40.771 E146.70175
G1 X219.229 Y43.513 E147.05798
G1 X219.229 Y42.620 E147.14001
G1 X217.380 Y40.771 E147.38022
G1 X218.273 Y40.771 E147.46226
G1 X219.229 Y41.727 E147.58646
G1 X219.229 Y40.835 E147.66849
G1 X219.165 Y40.771 E147.67669
M106 S255
M104 S220 ; set temperature
G1 F1800.000 E146.67669
G92 E0
G1 Z0.600 F7800.000
G1 X219.825 Y40.175 F7800.000
G1 E1.00000 F1800.000
G1 X219.825 Y52.275 E1.44018 F600.000
G1 X191.075 Y52.275 E2.48605
G1 X191.075 Y59.825 E2.76071
G1 X160.175 Y59.825 E3.88480
G1 X160.175 Y40.175 E4.59963
G1 X219.772 Y40.175 E6.76768
G1 X219.563 Y41.268 F7800.000
G1 X216.042 Y42.212 E6.91351 F1593.181
G1 X214.267 Y40.437 E7.01394
G1 X209.286 Y40.437 E7.21318
G1 X208.707 Y40.592 E7.23715
G1 X207.672 Y44.455 E7.39712
G1 X203.165 Y45.662 E7.58376
G1 X200.337 Y42.834 E7.74374
G1 X195.830 Y44.042 E7.93038
G1 X194.795 Y47.905 E8.09036
G1 X190.288 Y49.113 E8.27700
G1 X187.460 Y46.285 E8.43697
G1 X182.953 Y47.492 E8.62361
G1 X181.917 Y51.356 E8.78359
G1 X177.410 Y52.563 E8.97023
G1 X174.582 Y49.735 E9.13021
G1 X170.075 Y50.943 E9.31685
G1 X169.040 Y54.806 E9.47682
G1 X164.533 Y56.014 E9.66346
G1 X161.705 Y53.186 E9.82344
G1 X160.437 Y53.526 E9.87598
G1 X163.781 Y59.563 E10.15207
G1 X164.633 Y56.385 E10.28368
G1 X169.140 Y55.178 E10.47032
G1 X171.968 Y58.006 E10.63029
G1 X176.475 Y56.798 E10.81693
G1 X177.510 Y52.935 E10.97691
G1 X182.017 Y51.727 E11.16355
G1 X184.845 Y54.555 E11.32353
G1 X189.352 Y53.348 E11.51017
G1 X190.387 Y49.485 E11.67014
G1 X194.894 Y48.277 E11.85678
G1 X197.722 Y51.105 E12.01676
G1 X202.229 Y49.897 E12.20340
G1 X203.264 Y46.034 E12.36338
G1 X207.771 Y44.827 E12.55002
G1 X210.599 Y47.655 E12.71000
G1 X215.106 Y46.447 E12.89664
G1 X216.142 Y42.584 E13.05661
G1 X219.563 Y41.667 E13.19831
G1 X217.599 Y52.013 F7800.000
G1 X218.134 Y50.018 E13.28093 F1593.181
G1 X219.563 Y49.635 E13.34014
G1 X219.563 Y49.237 E13.35607
G1 X218.034 Y49.647 E13.41941
G1 X215.206 Y46.819 E13.57938
G1 X210.699 Y48.026 E13.76602
G1 X209.664 Y51.889 E13.92600
G1 X209.201 Y52.013 E13.94516
G1 X204.073 Y52.013 E14.15028
G1 X202.329 Y50.269 E14.24896
G1 X197.822 Y51.477 E14.43560
G1 X197.678 Y52.014 E14.45783
G1 F1800.000 E13.45783
G92 E0
G1 X190.814 Y55.081 F7800.000
G1 E1.00000 F1800.000
G1 X189.452 Y53.719 E1.07703 F1593.181
G1 X184.945 Y54.927 E1.26367
G1 X183.910 Y58.790 E1.42365
G1 X181.024 Y59.563 E1.54313
G1 X184.411 Y59.563 E1.67859
G1 X184.009 Y59.162 E1.70130
G1 X182.511 Y59.563 E1.76333
G1 X178.968 Y59.563 F7800.000
G1 X176.575 Y57.170 E1.89873 F1593.181
G1 X172.068 Y58.378 E2.08537
G1 X171.750 Y59.563 E2.13448
G1 X172.891 Y40.437 F7800.000
G1 X172.491 Y41.929 E2.19628 F1593.181
G1 X167.984 Y43.137 E2.38292
G1 X165.284 Y40.437 E2.53565
G1 X164.678 Y40.437 E2.55989
G1 X160.649 Y41.516 E2.72674
G1 X160.437 Y42.308 E2.75952
G1 X160.437 Y41.032 E2.81056
G1 X160.549 Y41.144 E2.81692
G1 X163.191 Y40.437 E2.92632
G1 X192.812 Y40.437 F7800.000
G1 X192.803 Y40.471 E2.92773 F1593.181
G1 X188.296 Y41.678 E3.11437
G1 X187.054 Y40.437 E3.18461
G1 X180.859 Y40.437 E3.43240
G1 X179.925 Y43.921 E3.57669
G1 X175.418 Y45.129 E3.76333
G1 X172.590 Y42.301 E3.92331
G1 X168.083 Y43.508 E4.10995
G1 X167.048 Y47.371 E4.26993
G1 X162.541 Y48.579 E4.45657
G1 X160.437 Y46.474 E4.57562
G1 X160.437 Y53.127 E4.84173
G1 X161.606 Y52.814 E4.89015
G1 X162.641 Y48.951 E5.05012
G1 X167.148 Y47.743 E5.23676
G1 X169.976 Y50.571 E5.39674
G1 X174.483 Y49.364 E5.58338
G1 X175.518 Y45.500 E5.74336
G1 X180.025 Y44.293 E5.93000
G1 X182.853 Y47.121 E6.08998
G1 X187.360 Y45.913 E6.27662
G1 X188.395 Y42.050 E6.43659
G1 X192.902 Y40.842 E6.62323
G1 X195.730 Y43.670 E6.78321
G1 X200.237 Y42.463 E6.96985
G1 X200.780 Y40.437 E7.05375
G1 F1800.000 E6.05375
G92 E0
G1 Z0.850 F7800.000
G1 X191.075 Y52.275 F7800.000
G1 E1.00000 F1800.000
G1 X191.075 Y59.825 E1.27466 F600.000
G1 X160.175 Y59.825 E2.39874
G1 X160.175 Y40.175 E3.11358
G1 X219.825 Y40.175 E5.28354
G1 X219.825 Y52.275 E5.72372
G1 X191.127 Y52.275 E6.76768
G1 X190.814 Y55.081 F7800.000
G1 X189.452 Y53.719 E6.84471 F1654.223
G1 X190.659 Y49.212 E7.03135
G1 X194.523 Y48.177 E7.19133
G1 X195.730 Y43.670 E7.37797
G1 X192.902 Y40.842 E7.53795
G1 X193.011 Y40.437 E7.55475
G1 X192.612 Y40.437 E7.57069
G1 X192.530 Y40.743 E7.58336
G1 X188.667 Y41.778 E7.74334
G1 X187.460 Y46.285 E7.92998
G1 X190.288 Y49.113 E8.08996
G1 X189.080 Y53.620 E8.27660
G1 X185.217 Y54.655 E8.43658
G1 X184.009 Y59.162 E8.62322
G1 X184.411 Y59.563 E8.64592
G1 X181.768 Y59.563 E8.75164
G1 X183.637 Y59.062 E8.82907
G1 X184.845 Y54.555 E9.01571
G1 X182.017 Y51.727 E9.17569
G1 X183.225 Y47.220 E9.36233
G1 X187.088 Y46.185 E9.52230
G1 X188.296 Y41.678 E9.70894
G1 X187.054 Y40.437 E9.77918
G1 X181.058 Y40.437 E10.01901
G1 X180.025 Y44.293 E10.17870
G1 X182.853 Y47.121 E10.33867
G1 X181.645 Y51.628 E10.52531
G1 X177.782 Y52.663 E10.68529
G1 X176.575 Y57.170 E10.87193
G1 X178.968 Y59.563 E11.00733
G1 X171.949 Y59.563 E11.28809
G1 X172.340 Y58.105 E11.34847
G1 X176.203 Y57.070 E11.50844
G1 X177.410 Y52.563 E11.69508
G1 X174.582 Y49.735 E11.85506
G1 X175.790 Y45.228 E12.04170
G1 X179.653 Y44.193 E12.20168
G1 X180.660 Y40.437 E12.35724
G1 X173.090 Y40.437 E12.66004
G1 X172.590 Y42.301 E12.73723
G1 X175.418 Y45.129 E12.89721
G1 X174.211 Y49.636 E13.08385
G1 X170.348 Y50.671 E13.24383
G1 X169.140 Y55.178 E13.43047
G1 X171.968 Y58.006 E13.59044
G1 X171.551 Y59.563 E13.65495
G1 X163.981 Y59.563 E13.95775
G1 X164.905 Y56.113 E14.10062
G1 X168.768 Y55.078 E14.26059
G1 X169.976 Y50.571 E14.44723
G1 X167.148 Y47.743 E14.60721
G1 X168.355 Y43.236 E14.79385
G1 X172.219 Y42.201 E14.95383
G1 X172.691 Y40.437 E15.02690
G1 X165.284 Y40.437 E15.32320
G1 X167.984 Y43.137 E15.47594
G1 X166.776 Y47.644 E15.66258
G1 X162.913 Y48.679 E15.82255
G1 X161.705 Y53.186 E16.00919
G1 X164.533 Y56.014 E16.16917
G1 X163.582 Y59.563 E16.31617
G1 X160.437 Y53.326 E16.59558
G1 X161.334 Y53.086 E16.63272
G1 X162.541 Y48.579 E16.81936
G1 X160.437 Y46.474 E16.93842
G1 X160.437 Y43.051 E17.07535
G1 X160.921 Y41.244 E17.15018
G1 X163.934 Y40.437 E17.27498
G1 X160.437 Y41.032 E17.41690
G1 X160.549 Y41.144 E17.42327
G1 X160.437 Y41.564 E17.44065
G1 X197.479 Y52.014 F7800.000
G1 X197.722 Y51.105 E17.47828 F1654.223
G1 X194.894 Y48.277 E17.63826
G1 X196.102 Y43.770 E17.82490
G1 X199.965 Y42.735 E17.98487
G1 X200.581 Y40.437 E18.08005
G1 X200.979 Y40.437 E18.09598
G1 X200.337 Y42.834 E18.19528
