; generated by Slic3r 1.0.0RC2 on 2014-01-04 at 13:51:02

; layer_height = 0.25
; perimeters = 1
; top_solid_layers = 1
; bottom_solid_layers = 1
; fill_density = 0.05
; perimeter_speed = 30
; infill_speed = 60
; travel_speed = 130
; nozzle_diameter = 0.35
; filament_diameter = 1.75
; extrusion_multiplier = 1
; perimeters extrusion width = 0.35mm
; infill extrusion width = 0.39mm
; solid infill extrusion width = 0.39mm
; top infill extrusion width = 0.39mm
; first layer extrusion width = 0.70mm

G21 ; set units to millimeters
M107
M104 S220 ; set temperature
G28 ; home all axes
G1 Z5 F5000 ; lift nozzle

M109 S220 ; wait for temperature to be reached
G90 ; use absolute coordinates
G92 E0
M82 ; use absolute distances for extrusion
G1 F1800.000 E-1.00000
G92 E0
G1 Z0.350 F7800.000
G1 X152.280 Y38.460 F7800.000
G1 E1.00000 F1800.000
G1 X152.720 Y36.990 E1.13953 F540.000
G1 X153.450 Y35.630 E1.27988
G1 X154.430 Y34.430 E1.42076
G1 X155.630 Y33.450 E1.56164
G1 X156.990 Y32.720 E1.70199
G1 X158.460 Y32.280 E1.84152
G1 X160.000 Y32.130 E1.98221
G1 X220.000 Y32.130 E7.43799
G1 X221.540 Y32.280 E7.57868
G1 X223.010 Y32.720 E7.71821
G1 X224.370 Y33.450 E7.85856
G1 X225.570 Y34.430 E7.99944
G1 X226.550 Y35.630 E8.14032
G1 X227.280 Y36.990 E8.28067
G1 X227.720 Y38.460 E8.42020
G1 X227.870 Y40.000 E8.56089
G1 X227.870 Y52.450 E9.69296
G1 X227.740 Y53.920 E9.82715
G1 X227.330 Y55.340 E9.96155
G1 X226.660 Y56.650 E10.09534
G1 X225.760 Y57.820 E10.22956
G1 X224.650 Y58.800 E10.36420
G1 X223.390 Y59.560 E10.49800
G1 X222.000 Y60.070 E10.63263
G1 X193.250 Y67.620 E13.33550
G1 X192.260 Y67.810 E13.42716
G1 X191.250 Y67.870 E13.51916
G1 X160.000 Y67.870 E16.36071
G1 X158.460 Y67.720 E16.50140
G1 X156.990 Y67.280 E16.64093
G1 X155.630 Y66.550 E16.78128
G1 X154.430 Y65.570 E16.92216
G1 X153.450 Y64.370 E17.06304
G1 X152.720 Y63.010 E17.20340
G1 X152.280 Y61.540 E17.34292
G1 X152.130 Y60.000 E17.48362
G1 X152.130 Y40.000 E19.30221
G1 X152.271 Y38.553 E19.43438
G1 X152.890 Y38.590 F7800.000
G1 X153.300 Y37.230 E19.56354 F540.000
G1 X153.970 Y35.970 E19.69330
G1 X154.870 Y34.870 E19.82254
G1 X155.970 Y33.970 E19.95177
G1 X157.230 Y33.300 E20.08153
G1 X158.590 Y32.890 E20.21070
G1 X160.000 Y32.750 E20.33954
G1 X220.000 Y32.750 E25.79531
G1 X221.410 Y32.890 E25.92415
G1 X222.770 Y33.300 E26.05331
G1 X224.030 Y33.970 E26.18308
G1 X225.130 Y34.870 E26.31231
G1 X226.030 Y35.970 E26.44155
G1 X226.700 Y37.230 E26.57131
G1 X227.110 Y38.590 E26.70047
G1 X227.250 Y40.000 E26.82931
G1 X227.250 Y52.450 E27.96138
G1 X227.120 Y53.800 E28.08471
G1 X226.740 Y55.110 E28.20874
G1 X226.130 Y56.320 E28.33195
G1 X225.300 Y57.400 E28.45581
G1 X224.280 Y58.300 E28.57950
G1 X223.120 Y59.000 E28.70269
G1 X221.840 Y59.460 E28.82637
G1 X193.090 Y67.010 E31.52924
G1 X192.180 Y67.190 E31.61358
G1 X191.250 Y67.250 E31.69832
G1 X160.000 Y67.250 E34.53987
G1 X158.590 Y67.110 E34.66872
G1 X157.230 Y66.700 E34.79788
G1 X155.970 Y66.030 E34.92764
G1 X154.870 Y65.130 E35.05687
G1 X153.970 Y64.030 E35.18611
G1 X153.300 Y62.770 E35.31587
G1 X152.890 Y61.410 E35.44503
G1 X152.750 Y60.000 E35.57387
G1 X152.750 Y40.000 E37.39247
G1 X152.881 Y38.683 E37.51278
G1 X153.500 Y38.710 F7800.000
G1 X153.880 Y37.460 E37.63158 F540.000
G1 X154.490 Y36.320 E37.74915
G1 X155.320 Y35.320 E37.86732
G1 X156.320 Y34.490 E37.98549
G1 X157.460 Y33.880 E38.10306
G1 X158.710 Y33.500 E38.22185
G1 X160.000 Y33.380 E38.33966
G1 X220.000 Y33.380 E43.79543
G1 X221.290 Y33.500 E43.91324
G1 X222.540 Y33.880 E44.03204
G1 X223.680 Y34.490 E44.14960
G1 X224.680 Y35.320 E44.26777
G1 X225.510 Y36.320 E44.38594
G1 X226.120 Y37.460 E44.50351
G1 X226.500 Y38.710 E44.62231
G1 X226.620 Y40.000 E44.74011
G1 X226.620 Y52.450 E45.87219
G1 X226.470 Y53.890 E46.00383
G1 X226.000 Y55.260 E46.13553
G1 X225.250 Y56.500 E46.26731
G1 X224.240 Y57.540 E46.39913
G1 X223.030 Y58.340 E46.53103
G1 X221.680 Y58.860 E46.66257
G1 X192.930 Y66.410 E49.36544
G1 X192.100 Y66.570 E49.44230
G1 X191.250 Y66.620 E49.51973
G1 X160.000 Y66.620 E52.36127
G1 X158.710 Y66.500 E52.47908
G1 X157.460 Y66.120 E52.59788
G1 X156.320 Y65.510 E52.71545
G1 X155.320 Y64.680 E52.83362
G1 X154.490 Y63.680 E52.95179
G1 X153.880 Y62.540 E53.06935
G1 X153.500 Y61.290 E53.18815
G1 X153.380 Y60.000 E53.30596
G1 X153.380 Y40.000 E55.12455
G1 X153.491 Y38.803 E55.23383
G1 F1800.000 E54.23383
G92 E0
G1 X160.350 Y40.350 F7800.000
G1 E1.00000 F1800.000
G1 X219.650 Y40.350 E6.39212 F378.000
G1 X219.650 Y52.100 E7.46055
G1 X190.900 Y52.100 E10.07477
G1 X190.900 Y59.650 E10.76129
G1 X160.350 Y59.650 E13.53919
G1 X160.350 Y40.444 E15.28561
G1 X160.835 Y59.229 F7800.000
G1 X160.771 Y59.165 E15.29381 F1080.000
G1 X160.771 Y58.273 E15.37584
G1 X161.727 Y59.229 E15.50005
G1 X162.620 Y59.229 E15.58208
G1 X160.771 Y57.380 E15.82230
G1 X160.771 Y56.487 E15.90434
G1 X163.513 Y59.229 E16.26057
G1 X164.406 Y59.229 E16.34260
G1 X160.771 Y55.594 E16.81483
G1 X160.771 Y54.701 E16.89687
G1 X165.299 Y59.229 E17.48511
G1 X166.192 Y59.229 E17.56714
G1 X160.771 Y53.808 E18.27140
G1 X160.771 Y52.915 E18.35343
G1 X167.085 Y59.229 E19.17370
G1 X167.978 Y59.229 E19.25573
G1 X160.771 Y52.022 E20.19200
G1 X160.771 Y51.129 E20.27403
G1 X168.871 Y59.229 E21.32632
G1 X169.763 Y59.229 E21.40835
G1 X160.771 Y50.237 E22.57664
G1 X160.771 Y49.344 E22.65867
G1 X170.656 Y59.229 E23.94297
G1 X171.549 Y59.229 E24.02500
G1 X160.771 Y48.451 E25.42531
G1 X160.771 Y47.558 E25.50734
G1 X172.442 Y59.229 E27.02366
G1 X173.335 Y59.229 E27.10569
G1 X160.771 Y46.665 E28.73802
G1 X160.771 Y45.772 E28.82005
G1 X174.228 Y59.229 E30.56838
G1 X175.121 Y59.229 E30.65042
G1 X160.771 Y44.879 E32.51476
G1 X160.771 Y43.986 E32.59679
G1 X176.014 Y59.229 E34.57715
G1 X176.906 Y59.229 E34.65918
G1 X160.771 Y43.094 E36.75554
G1 X160.771 Y42.201 E36.83757
G1 X177.799 Y59.229 E39.04994
G1 X178.692 Y59.229 E39.13197
G1 X160.771 Y41.308 E41.46035
G1 X161.128 Y40.771 E41.51952
G1 X179.585 Y59.229 E43.91758
G1 X180.478 Y59.229 E43.99961
G1 X162.021 Y40.771 E46.39767
G1 X162.914 Y40.771 E46.47970
G1 X181.371 Y59.229 E48.87776
G1 X182.264 Y59.229 E48.95979
G1 X163.807 Y40.771 E51.35785
G1 X164.700 Y40.771 E51.43988
G1 X183.157 Y59.229 E53.83794
G1 X184.050 Y59.229 E53.91997
G1 X165.592 Y40.771 E56.31802
G1 X166.485 Y40.771 E56.40005
G1 X184.942 Y59.229 E58.79811
G1 X185.835 Y59.229 E58.88014
G1 X167.378 Y40.771 E61.27820
G1 X168.271 Y40.771 E61.36023
G1 X186.728 Y59.229 E63.75829
G1 X187.621 Y59.229 E63.84032
G1 X169.164 Y40.771 E66.23838
G1 X170.057 Y40.771 E66.32041
G1 X188.514 Y59.229 E68.71847
G1 X189.407 Y59.229 E68.80050
G1 X170.950 Y40.771 E71.19856
G1 X171.843 Y40.771 E71.28059
G1 X190.300 Y59.229 E73.67865
G1 X190.479 Y58.514 E73.74628
G1 X172.736 Y40.771 E76.05156
G1 X173.628 Y40.771 E76.13359
G1 X190.479 Y57.622 E78.32286
G1 X190.479 Y56.729 E78.40489
G1 X174.521 Y40.771 E80.47816
G1 X175.414 Y40.771 E80.56019
G1 X190.479 Y55.836 E82.51744
G1 X190.479 Y54.943 E82.59947
G1 X176.307 Y40.771 E84.44072
G1 X177.200 Y40.771 E84.52275
G1 X190.479 Y54.050 E86.24799
G1 X190.479 Y53.157 E86.33002
G1 X178.093 Y40.771 E87.93925
G1 X178.986 Y40.771 E88.02128
G1 X190.479 Y52.264 E89.51450
G1 X190.786 Y51.679 E89.57526
G1 X179.879 Y40.771 E90.99237
G1 X180.771 Y40.771 E91.07440
G1 X191.679 Y51.679 E92.49152
G1 X192.571 Y51.679 E92.57355
G1 X181.664 Y40.771 E93.99067
G1 X182.557 Y40.771 E94.07270
G1 X193.464 Y51.679 E95.48981
G1 X194.357 Y51.679 E95.57184
G1 X183.450 Y40.771 E96.98896
G1 X184.343 Y40.771 E97.07099
G1 X195.250 Y51.679 E98.48811
G1 X196.143 Y51.679 E98.57014
G1 X185.236 Y40.771 E99.98725
G1 X186.129 Y40.771 E100.06928
G1 X197.036 Y51.679 E101.48640
G1 X197.929 Y51.679 E101.56843
G1 X187.022 Y40.771 E102.98555
G1 X187.915 Y40.771 E103.06758
G1 X198.822 Y51.679 E104.48469
G1 X199.715 Y51.679 E104.56672
G1 X188.807 Y40.771 E105.98384
G1 X189.700 Y40.771 E106.06587
G1 X200.607 Y51.679 E107.48299
G1 X201.500 Y51.679 E107.56502
G1 X190.593 Y40.771 E108.98213
G1 X191.486 Y40.771 E109.06416
G1 X202.393 Y51.679 E110.48128
G1 X203.286 Y51.679 E110.56331
G1 X192.379 Y40.771 E111.98043
G1 X193.272 Y40.771 E112.06246
G1 X204.179 Y51.679 E113.47957
G1 X205.072 Y51.679 E113.56160
G1 X194.165 Y40.771 E114.97872
G1 X195.058 Y40.771 E115.06075
G1 X205.965 Y51.679 E116.47787
G1 X206.858 Y51.679 E116.55990
G1 X195.950 Y40.771 E117.97701
G1 X196.843 Y40.771 E118.05904
G1 X207.750 Y51.679 E119.47616
G1 X208.643 Y51.679 E119.55819
G1 X197.736 Y40.771 E120.97531
G1 X198.629 Y40.771 E121.05734
G1 X209.536 Y51.679 E122.47445
G1 X210.429 Y51.679 E122.55648
G1 X199.522 Y40.771 E123.97360
G1 X200.415 Y40.771 E124.05563
G1 X211.322 Y51.679 E125.47275
G1 X212.215 Y51.679 E125.55478
G1 X201.308 Y40.771 E126.97189
G1 X202.201 Y40.771 E127.05392
G1 X213.108 Y51.679 E128.47104
G1 X214.001 Y51.679 E128.55307
G1 X203.094 Y40.771 E129.97019
G1 X203.986 Y40.771 E130.05222
G1 X214.894 Y51.679 E131.46933
G1 X215.786 Y51.679 E131.55136
G1 X204.879 Y40.771 E132.96848
G1 X205.772 Y40.771 E133.05051
G1 X216.679 Y51.679 E134.46763
G1 X217.572 Y51.679 E134.54966
G1 X206.665 Y40.771 E135.96677
G1 X207.558 Y40.771 E136.04880
G1 X218.465 Y51.679 E137.46592
G1 X219.229 Y51.549 E137.53706
G1 X208.451 Y40.771 E138.93737
G1 X209.344 Y40.771 E139.01940
G1 X219.229 Y50.656 E140.30369
G1 X219.229 Y49.763 E140.38572
G1 X210.237 Y40.771 E141.55401
G1 X211.130 Y40.771 E141.63604
G1 X219.229 Y48.870 E142.68832
G1 X219.229 Y47.978 E142.77035
G1 X212.022 Y40.771 E143.70662
G1 X212.915 Y40.771 E143.78865
G1 X219.229 Y47.085 E144.60891
G1 X219.229 Y46.192 E144.69094
G1 X213.808 Y40.771 E145.39519
G1 X214.701 Y40.771 E145.47722
G1 X219.229 Y45.299 E146.06546
G1 X219.229 Y44.406 E146.14749
G1 X215.594 Y40.771 E146.61972
G1 X216.487 Y40.771 E146.70175
G1 X219.229 Y43.513 E147.05798
G1 X219.229 Y42.620 E147.14001
G1 X217.380 Y40.771 E147.38022
G1 X218.273 Y40.771 E147.46226
G1 X219.229 Y41.727 E147.58646
G1 X219.229 Y40.835 E147.66849
G1 X219.165 Y40.771 E147.67669
M106 S255
M104 S220 ; set temperature
G1 F1800.000 E146.67669
G92 E0
G1 Z0.600 F7800.000
G1 X219.825 Y40.175 F7800.000
G1 E1.00000 F1800.000
G1 X219.825 Y52.275 E1.44018 F600.000
G1 X191.075 Y52.275 E2.48605
G1 X191.075 Y59.825 E2.76071
G1 X160.175 Y59.825 E3.88480
G1 X160.175 Y40.175 E4.59963
G1 X219.772 Y40.175 E6.76768
G1 X185.898 Y40.437 F7800.000
G1 X184.924 Y44.072 E6.91825 F1295.690
G1 X176.125 Y46.430 E7.28264
G1 X170.154 Y40.460 E7.62037
G1 X161.355 Y42.818 E7.98476
G1 X160.437 Y46.245 E8.12669
G1 X160.437 Y52.512 E8.37738
G1 X165.240 Y57.315 E8.64908
G1 X174.039 Y54.957 E9.01347
G1 X176.224 Y46.802 E9.35120
G1 X185.024 Y44.444 E9.71559
G1 X190.994 Y50.414 E10.05332
G1 X199.793 Y48.057 E10.41771
G1 X201.835 Y40.437 E10.73327
G1 X213.671 Y40.437 E11.20671
G1 X216.748 Y43.514 E11.38077
G1 X219.563 Y42.759 E11.49736
G1 X219.563 Y43.158 E11.51329
G1 X216.848 Y43.885 E11.62575
G1 X214.670 Y52.013 E11.96234
G1 X203.478 Y52.013 E12.41002
G1 X199.893 Y48.428 E12.61282
G1 X191.093 Y50.786 E12.97722
G1 X188.908 Y58.942 E13.31495
G1 X186.588 Y59.563 E13.41103
G1 X188.075 Y59.563 E13.47051
G1 X189.008 Y59.313 E13.50914
G1 X189.258 Y59.563 E13.52329
G1 X178.373 Y59.563 F7800.000
G1 X174.139 Y55.329 E13.76281 F1295.690
G1 X165.339 Y57.687 E14.12720
G1 X164.836 Y59.563 E14.20490
G1 X160.437 Y41.627 F7800.000
G1 X161.255 Y42.446 E14.25122 F1295.690
G1 X168.755 Y40.437 E14.56177
G1 F1800.000 E13.56177
G92 E0
G1 Z0.850 F7800.000
G1 X160.175 Y40.175 F7800.000
G1 E1.00000 F1800.000
G1 X219.825 Y40.175 E3.16996 F600.000
G1 X219.825 Y52.275 E3.61014
G1 X191.075 Y52.275 E4.65602
G1 X191.075 Y59.825 E4.93067
G1 X160.175 Y59.825 E6.05476
G1 X160.175 Y40.227 E6.76768
G1 X164.637 Y59.563 F7800.000
G1 X165.240 Y57.315 E6.86078 F1347.477
G1 X160.437 Y52.512 E7.13248
G1 X160.437 Y41.627 E7.56788
G1 X161.255 Y42.446 E7.61419
G1 X160.437 Y45.501 E7.74072
G1 X160.437 Y46.988 E7.80020
G1 X161.627 Y42.546 E7.98418
G1 X169.498 Y40.437 E8.31013
G1 X170.161 Y40.437 E8.33663
G1 X170.154 Y40.460 E8.33760
G1 X176.125 Y46.430 E8.67533
G1 X173.767 Y55.230 E9.03972
G1 X165.611 Y57.415 E9.37745
G1 X165.036 Y59.563 E9.46642
G1 X178.373 Y59.563 E9.99991
G1 X174.139 Y55.329 E10.23943
G1 X176.496 Y46.530 E10.60382
G1 X184.652 Y44.345 E10.94155
G1 X185.699 Y40.437 E11.10339
G1 X186.097 Y40.437 E11.11932
G1 X185.024 Y44.444 E11.28528
G1 X190.994 Y50.414 E11.62301
G1 X188.636 Y59.214 E11.98740
G1 X187.331 Y59.563 E12.04143
G1 X189.258 Y59.563 E12.11849
G1 X189.008 Y59.313 E12.13263
G1 X190.814 Y52.574 E12.41170
G1 X190.964 Y52.014 F7800.000
G1 X191.366 Y50.514 E12.47380 F1347.477
G1 X199.521 Y48.329 E12.81153
G1 X201.636 Y40.437 E13.13835
G1 X203.478 Y52.013 E13.60725
G1 X199.893 Y48.428 E13.81005
G1 X202.034 Y40.437 E14.14100
G1 X213.671 Y40.437 E14.60648
G1 X216.748 Y43.514 E14.78054
G1 X214.471 Y52.013 E15.13253
G1 X214.869 Y52.013 E15.14846
G1 X217.120 Y43.613 E15.49632
G1 X219.563 Y42.958 E15.59751
G1 F1800.000 E14.59751
G92 E0
G1 Z1.100 F7800.000
G1 X219.825 Y40.175 F7800.000
G1 E1.00000 F1800.000
G1 X219.825 Y52.275 E1.44018 F600.000
G1 X191.075 Y52.275 E2.48605
G1 X191.075 Y59.825 E2.76071
G1 X160.175 Y59.825 E3.88480
G1 X160.175 Y40.175 E4.59963
G1 X219.772 Y40.175 E6.76768
G1 X219.563 Y42.958 F7800.000
G1 X217.120 Y43.613 E6.86887 F1307.196
G1 X213.943 Y40.437 E7.04857
G1 X213.399 Y40.437 E7.07034
G1 X216.848 Y43.885 E7.26543
G1 X214.670 Y52.013 E7.60202
G1 X203.750 Y52.013 E8.03882
G1 X199.793 Y48.057 E8.26264
G1 X201.835 Y40.437 E8.57820
G1 X203.206 Y52.013 F7800.000
G1 X199.521 Y48.329 E8.78663 F1307.196
G1 X191.366 Y50.514 E9.12436
G1 X184.924 Y44.072 E9.48876
G1 X185.898 Y40.437 E9.63932
G1 X187.331 Y59.563 F7800.000
G1 X188.636 Y59.214 E9.69335 F1307.196
G1 X188.986 Y59.563 E9.71312
G1 X189.530 Y59.563 E9.73489
G1 X188.908 Y58.942 E9.77006
G1 X191.093 Y50.786 E10.10779
G1 X184.652 Y44.345 E10.47219
G1 X176.496 Y46.530 E10.80992
G1 X170.403 Y40.437 E11.15460
G1 X160.437 Y46.245 E11.61602
G1 X161.355 Y42.818 E11.75795
G1 X160.437 Y41.899 E11.80989
G1 X160.437 Y41.355 E11.83167
G1 X161.627 Y42.546 E11.89901
G1 X169.498 Y40.437 E12.22495
G1 X169.859 Y40.437 E12.23938
G1 X176.224 Y46.802 E12.59946
G1 X174.039 Y54.957 E12.93719
G1 X178.645 Y59.563 E13.19774
G1 X178.101 Y59.563 E13.21951
G1 X173.767 Y55.230 E13.46467
G1 X165.611 Y57.415 E13.80240
G1 X160.437 Y52.240 E14.09512
G1 X164.836 Y59.563 E14.43685
G1 X165.339 Y57.687 E14.51456
G1 X160.437 Y52.784 E14.79189
G1 F1800.000 E13.79189
G92 E0
G1 Z1.350 F7800.000
G1 X160.175 Y59.825 F7800.000
G1 E1.00000 F1800.000
G1 X160.175 Y40.175 E1.71483 F600.000
G1 X219.825 Y40.175 E3.88480
G1 X219.825 Y52.275 E4.32497
G1 X191.075 Y52.275 E5.37085
G1 X191.075 Y59.825 E5.64551
G1 X160.227 Y59.825 E6.76768
G1 X164.836 Y59.563 F7800.000
G1 X165.339 Y57.687 E6.84539 F1295.690
G1 X174.139 Y55.329 E7.20978
G1 X178.373 Y59.563 E7.44930
G1 X189.258 Y59.563 F7800.000
G1 X189.008 Y59.313 E7.46344 F1295.690
G1 X188.075 Y59.563 E7.50208
G1 X186.588 Y59.563 E7.56156
G1 X188.908 Y58.942 E7.65764
G1 X191.093 Y50.786 E7.99537
G1 X199.893 Y48.428 E8.35976
G1 X203.478 Y52.013 E8.56256
G1 X214.670 Y52.013 E9.01024
G1 X216.848 Y43.885 E9.34684
G1 X219.563 Y43.158 E9.45929
G1 X219.563 Y42.759 E9.47523
G1 X216.748 Y43.514 E9.59181
G1 X213.671 Y40.437 E9.76587
G1 X201.835 Y40.437 E10.23932
G1 X199.793 Y48.057 E10.55487
G1 X190.994 Y50.414 E10.91927
G1 X185.024 Y44.444 E11.25700
G1 X176.224 Y46.802 E11.62139
G1 X174.039 Y54.957 E11.95912
G1 X165.240 Y57.315 E12.32351
G1 X160.437 Y52.512 E12.59520
G1 X160.437 Y46.245 E12.84590
G1 X161.355 Y42.818 E12.98783
G1 X170.154 Y40.460 E13.35222
G1 X176.125 Y46.430 E13.68995
G1 X184.924 Y44.072 E14.05434
G1 X185.898 Y40.437 E14.20490
G1 X168.755 Y40.437 F7800.000
G1 X161.255 Y42.446 E14.51546 F1295.690
G1 X160.437 Y41.627 E14.56177
G1 F1800.000 E13.56177
G92 E0
G1 Z1.600 F7800.000
G1 X160.175 Y40.175 F7800.000
G1 E1.00000 F1800.000
G1 X219.825 Y40.175 E3.16996 F600.000
G1 X219.825 Y52.275 E3.61014
G1 X191.075 Y52.275 E4.65602
G1 X191.075 Y59.825 E4.93067
G1 X160.175 Y59.825 E6.05476
G1 X160.175 Y40.227 E6.76768
G1 X164.637 Y59.563 F7800.000
G1 X165.240 Y57.315 E6.86078 F1347.477
