; generated by Slic3r 1.0.0RC2 on 2014-01-04 at 16:44:23

; layer_height = 0.25
; perimeters = 1
; top_solid_layers = 1
; bottom_solid_layers = 1
; fill_density = 0.1
; perimeter_speed = 30
; infill_speed = 60
; travel_speed = 130
; nozzle_diameter = 0.35
; filament_diameter = 1.75
; extrusion_multiplier = 1
; perimeters extrusion width = 0.35mm
; infill extrusion width = 0.39mm
; solid infill extrusion width = 0.39mm
; top infill extrusion width = 0.39mm
; first layer extrusion width = 0.70mm

G21 ; set units to millimeters
M107
M104 S220 ; set temperature
G28 ; home all axes
G1 Z5 F5000 ; lift nozzle

M109 S220 ; wait for temperature to be reached
G90 ; use absolute coordinates
G92 E0
M82 ; use absolute distances for extrusion
G1 F1800.000 E-1.00000
G92 E0
G1 Z0.350 F7800.000
G1 X151.780 Y38.460 F7800.000
G1 E1.00000 F1800.000
G1 X152.220 Y36.990 E1.13953 F540.000
G1 X152.950 Y35.630 E1.27988
G1 X153.930 Y34.430 E1.42076
G1 X155.130 Y33.450 E1.56164
G1 X156.490 Y32.720 E1.70199
G1 X157.960 Y32.280 E1.84152
G1 X159.500 Y32.130 E1.98221
G1 X190.750 Y32.130 E4.82376
G1 X191.660 Y32.180 E4.90663
G1 X192.550 Y32.330 E4.98870
G1 X222.300 Y39.320 E7.76752
G1 X223.730 Y39.810 E7.90497
G1 X225.030 Y40.550 E8.04099
G1 X226.180 Y41.530 E8.17838
G1 X227.110 Y42.710 E8.31499
G1 X227.800 Y44.050 E8.45204
G1 X228.230 Y45.490 E8.58870
G1 X228.370 Y46.990 E8.72568
G1 X228.370 Y53.010 E9.27308
G1 X228.220 Y54.550 E9.41377
G1 X227.770 Y56.030 E9.55443
G1 X227.040 Y57.400 E9.69559
G1 X226.050 Y58.590 E9.83634
G1 X224.850 Y59.570 E9.97722
G1 X223.480 Y60.300 E10.11838
G1 X222.000 Y60.740 E10.25877
G1 X186.000 Y67.730 E13.59337
G1 X185.250 Y67.840 E13.66230
G1 X184.500 Y67.870 E13.73055
G1 X159.500 Y67.870 E16.00379
G1 X157.960 Y67.720 E16.14449
G1 X156.490 Y67.280 E16.28401
G1 X155.130 Y66.550 E16.42436
G1 X153.930 Y65.570 E16.56524
G1 X152.950 Y64.370 E16.70612
G1 X152.220 Y63.010 E16.84648
G1 X151.780 Y61.540 E16.98600
G1 X151.630 Y60.000 E17.12670
G1 X151.630 Y40.000 E18.94529
G1 X151.771 Y38.553 E19.07746
G1 X152.390 Y38.590 F7800.000
G1 X152.800 Y37.230 E19.20662 F540.000
G1 X153.470 Y35.970 E19.33638
G1 X154.370 Y34.870 E19.46562
G1 X155.470 Y33.970 E19.59485
G1 X156.730 Y33.300 E19.72462
G1 X158.090 Y32.890 E19.85378
G1 X159.500 Y32.750 E19.98262
G1 X190.750 Y32.750 E22.82417
G1 X191.580 Y32.800 E22.89978
G1 X192.410 Y32.940 E22.97631
G1 X222.160 Y39.930 E25.75513
G1 X223.470 Y40.380 E25.88108
G1 X224.670 Y41.060 E26.00650
G1 X225.730 Y41.970 E26.13353
G1 X226.590 Y43.050 E26.25907
G1 X227.220 Y44.280 E26.38473
G1 X227.620 Y45.610 E26.51102
G1 X227.750 Y46.990 E26.63705
G1 X227.750 Y53.010 E27.18445
G1 X227.610 Y54.430 E27.31420
G1 X227.190 Y55.790 E27.44362
G1 X226.520 Y57.050 E27.57339
G1 X225.610 Y58.150 E27.70320
G1 X224.510 Y59.050 E27.83243
G1 X223.250 Y59.720 E27.96220
G1 X221.880 Y60.130 E28.09223
G1 X185.880 Y67.120 E31.42683
G1 X185.190 Y67.220 E31.49023
G1 X184.500 Y67.250 E31.55303
G1 X159.500 Y67.250 E33.82627
G1 X158.090 Y67.110 E33.95511
G1 X156.730 Y66.700 E34.08427
G1 X155.470 Y66.030 E34.21403
G1 X154.370 Y65.130 E34.34327
G1 X153.470 Y64.030 E34.47250
G1 X152.800 Y62.770 E34.60226
G1 X152.390 Y61.410 E34.73142
G1 X152.250 Y60.000 E34.86027
G1 X152.250 Y40.000 E36.67886
G1 X152.381 Y38.683 E36.79918
G1 X153.000 Y38.710 F7800.000
G1 X153.380 Y37.460 E36.91797 F540.000
G1 X153.990 Y36.320 E37.03554
G1 X154.820 Y35.320 E37.15371
G1 X155.820 Y34.490 E37.27188
G1 X156.960 Y33.880 E37.38945
G1 X158.210 Y33.500 E37.50824
G1 X159.500 Y33.380 E37.62605
G1 X190.750 Y33.380 E40.46760
G1 X191.510 Y33.420 E40.53680
G1 X192.270 Y33.550 E40.60691
G1 X222.020 Y40.540 E43.38573
G1 X223.210 Y40.950 E43.50018
G1 X224.310 Y41.570 E43.61500
G1 X225.280 Y42.400 E43.73108
G1 X226.060 Y43.390 E43.84569
G1 X226.650 Y44.520 E43.96160
G1 X227.000 Y45.730 E44.07613
G1 X227.120 Y46.990 E44.19122
G1 X227.120 Y53.010 E44.73862
G1 X227.000 Y54.310 E44.85733
G1 X226.620 Y55.550 E44.97526
G1 X226.000 Y56.700 E45.09406
G1 X225.170 Y57.710 E45.21293
G1 X224.160 Y58.530 E45.33122
G1 X223.010 Y59.140 E45.44959
G1 X221.760 Y59.510 E45.56813
G1 X185.760 Y66.500 E48.90273
G1 X185.130 Y66.590 E48.96060
G1 X184.500 Y66.620 E49.01795
G1 X159.500 Y66.620 E51.29119
G1 X158.210 Y66.500 E51.40899
G1 X156.960 Y66.120 E51.52779
G1 X155.820 Y65.510 E51.64536
G1 X154.820 Y64.680 E51.76353
G1 X153.990 Y63.680 E51.88170
G1 X153.380 Y62.540 E51.99926
G1 X153.000 Y61.290 E52.11806
G1 X152.880 Y60.000 E52.23587
G1 X152.880 Y40.000 E54.05446
G1 X152.991 Y38.803 E54.16374
G1 F1800.000 E53.16374
G92 E0
G1 X159.850 Y40.350 F7800.000
G1 E1.00000 F1800.000
G1 X190.400 Y40.350 E3.77790 F378.000
G1 X190.400 Y47.340 E4.41350
G1 X220.150 Y47.340 E7.11865
G1 X220.150 Y52.660 E7.60240
G1 X184.150 Y52.660 E10.87586
G1 X184.150 Y59.650 E11.51146
G1 X159.850 Y59.650 E13.72105
G1 X159.850 Y40.444 E15.46747
G1 X160.334 Y59.228 F7800.000
G1 X160.272 Y59.166 E15.47552 F1080.000
G1 X160.272 Y58.281 E15.55611
G1 X161.219 Y59.228 E15.67813
G1 X162.104 Y59.228 E15.75871
G1 X160.272 Y57.396 E15.99470
G1 X160.272 Y56.511 E16.07528
G1 X162.989 Y59.228 E16.42523
G1 X163.874 Y59.228 E16.50581
G1 X160.272 Y55.626 E16.96972
G1 X160.272 Y54.741 E17.05031
G1 X164.759 Y59.228 E17.62818
G1 X165.644 Y59.228 E17.70876
G1 X160.272 Y53.856 E18.40060
G1 X160.272 Y52.971 E18.48118
G1 X166.529 Y59.228 E19.28698
G1 X167.414 Y59.228 E19.36756
G1 X160.272 Y52.086 E20.28733
G1 X160.272 Y51.201 E20.36791
G1 X168.299 Y59.228 E21.40163
G1 X169.184 Y59.228 E21.48222
G1 X160.272 Y50.316 E22.62990
G1 X160.272 Y49.431 E22.71049
G1 X170.069 Y59.228 E23.97214
G1 X170.954 Y59.228 E24.05272
G1 X160.272 Y48.546 E25.42834
G1 X160.272 Y47.661 E25.50892
G1 X171.839 Y59.228 E26.99849
G1 X172.724 Y59.228 E27.07908
G1 X160.272 Y46.776 E28.68262
G1 X160.272 Y45.891 E28.76320
G1 X173.609 Y59.228 E30.48070
G1 X174.494 Y59.228 E30.56129
G1 X160.272 Y45.006 E32.39275
G1 X160.272 Y44.121 E32.47333
G1 X175.379 Y59.228 E34.41876
G1 X176.264 Y59.228 E34.49934
G1 X160.272 Y43.236 E36.55873
G1 X160.272 Y42.351 E36.63932
G1 X177.149 Y59.228 E38.81267
G1 X178.034 Y59.228 E38.89326
G1 X160.272 Y41.466 E41.18057
G1 X160.462 Y40.772 E41.24614
G1 X178.919 Y59.228 E43.62289
G1 X179.804 Y59.228 E43.70347
G1 X161.347 Y40.772 E46.08022
G1 X162.232 Y40.772 E46.16080
G1 X180.689 Y59.228 E48.53755
G1 X181.574 Y59.228 E48.61813
G1 X163.117 Y40.772 E50.99488
G1 X164.002 Y40.772 E51.07546
G1 X182.459 Y59.228 E53.45221
G1 X183.344 Y59.228 E53.53279
G1 X164.887 Y40.772 E55.90954
G1 X165.772 Y40.772 E55.99012
G1 X183.728 Y58.728 E58.30243
G1 X183.728 Y57.843 E58.38301
G1 X166.657 Y40.772 E60.58136
G1 X167.542 Y40.772 E60.66195
G1 X183.728 Y56.958 E62.74633
G1 X183.728 Y56.073 E62.82692
G1 X168.427 Y40.772 E64.79734
G1 X169.312 Y40.772 E64.87793
G1 X183.728 Y55.188 E66.73439
G1 X183.728 Y54.303 E66.81497
G1 X170.197 Y40.772 E68.55747
G1 X171.082 Y40.772 E68.63805
G1 X183.728 Y53.418 E70.26659
G1 X183.728 Y52.533 E70.34717
G1 X171.967 Y40.772 E71.86174
G1 X172.852 Y40.772 E71.94233
G1 X184.318 Y52.238 E73.41893
G1 X185.203 Y52.238 E73.49952
G1 X173.737 Y40.772 E74.97612
G1 X174.622 Y40.772 E75.05671
G1 X186.088 Y52.238 E76.53331
G1 X186.973 Y52.238 E76.61390
G1 X175.507 Y40.772 E78.09050
G1 X176.392 Y40.772 E78.17109
G1 X187.858 Y52.238 E79.64769
G1 X188.743 Y52.238 E79.72828
G1 X177.277 Y40.772 E81.20488
G1 X178.162 Y40.772 E81.28547
G1 X189.628 Y52.238 E82.76207
G1 X190.513 Y52.238 E82.84265
G1 X179.047 Y40.772 E84.31926
G1 X179.932 Y40.772 E84.39984
G1 X191.398 Y52.238 E85.87645
G1 X192.283 Y52.238 E85.95703
G1 X180.817 Y40.772 E87.43364
G1 X181.702 Y40.772 E87.51422
G1 X193.168 Y52.238 E88.99083
G1 X194.053 Y52.238 E89.07141
G1 X182.587 Y40.772 E90.54802
G1 X183.472 Y40.772 E90.62860
G1 X194.938 Y52.238 E92.10521
G1 X195.823 Y52.238 E92.18579
G1 X191.347 Y47.762 E92.76226
G1 X192.232 Y47.762 E92.84284
G1 X196.708 Y52.238 E93.41931
G1 X197.593 Y52.238 E93.49989
G1 X193.116 Y47.762 E94.07636
G1 X194.001 Y47.762 E94.15694
G1 X198.478 Y52.238 E94.73341
G1 X199.363 Y52.238 E94.81399
G1 X194.886 Y47.762 E95.39046
G1 X195.771 Y47.762 E95.47104
G1 X200.248 Y52.238 E96.04751
G1 X201.133 Y52.238 E96.12809
G1 X196.656 Y47.762 E96.70456
G1 X197.541 Y47.762 E96.78514
G1 X202.018 Y52.238 E97.36161
G1 X202.903 Y52.238 E97.44219
G1 X198.426 Y47.762 E98.01866
G1 X199.311 Y47.762 E98.09924
G1 X203.788 Y52.238 E98.67571
G1 X204.673 Y52.238 E98.75629
G1 X200.196 Y47.762 E99.33276
G1 X201.081 Y47.762 E99.41334
G1 X205.558 Y52.238 E99.98981
G1 X206.443 Y52.238 E100.07039
G1 X201.966 Y47.762 E100.64686
G1 X202.851 Y47.762 E100.72744
G1 X207.328 Y52.238 E101.30391
G1 X208.213 Y52.238 E101.38449
G1 X203.736 Y47.762 E101.96096
G1 X204.621 Y47.762 E102.04154
G1 X209.098 Y52.238 E102.61801
G1 X209.983 Y52.238 E102.69859
G1 X205.506 Y47.762 E103.27506
G1 X206.391 Y47.762 E103.35564
G1 X210.868 Y52.238 E103.93211
G1 X211.753 Y52.238 E104.01269
G1 X207.276 Y47.762 E104.58916
G1 X208.161 Y47.762 E104.66974
G1 X212.638 Y52.238 E105.24621
G1 X213.523 Y52.238 E105.32679
G1 X209.046 Y47.762 E105.90326
G1 X209.931 Y47.762 E105.98385
G1 X214.408 Y52.238 E106.56031
G1 X215.293 Y52.238 E106.64090
G1 X210.816 Y47.762 E107.21736
G1 X211.701 Y47.762 E107.29795
G1 X216.177 Y52.238 E107.87441
G1 X217.062 Y52.238 E107.95500
G1 X212.586 Y47.762 E108.53146
G1 X213.471 Y47.762 E108.61205
G1 X217.947 Y52.238 E109.18851
G1 X218.832 Y52.238 E109.26910
G1 X214.356 Y47.762 E109.84556
G1 X215.241 Y47.762 E109.92615
G1 X219.692 Y52.212 E110.49928
G1 X219.728 Y51.364 E110.57660
G1 X216.126 Y47.762 E111.04050
G1 X217.011 Y47.762 E111.12108
G1 X219.728 Y50.479 E111.47103
G1 X219.728 Y49.594 E111.55161
G1 X217.896 Y47.762 E111.78759
G1 X218.781 Y47.762 E111.86817
G1 X219.728 Y48.709 E111.99019
G1 X219.728 Y47.824 E112.07077
G1 X219.666 Y47.762 E112.07882
G1 F1800.000 E111.07882
G92 E0
G1 X189.978 Y46.393 F7800.000
G1 E1.00000 F1800.000
G1 X184.357 Y40.772 E1.72394 F1080.000
G1 X185.242 Y40.772 E1.80452
G1 X189.978 Y45.508 E2.41450
G1 X189.978 Y44.623 E2.49508
G1 X186.126 Y40.772 E2.99109
G1 X187.011 Y40.772 E3.07168
G1 X189.978 Y43.739 E3.45373
G1 X189.978 Y42.854 E3.53431
G1 X187.896 Y40.772 E3.80240
G1 X188.781 Y40.772 E3.88298
G1 X189.978 Y41.969 E4.03710
G1 X189.978 Y41.084 E4.11769
G1 X189.666 Y40.772 E4.15785
M106 S255
M104 S220 ; set temperature
G1 F1800.000 E3.15785
G92 E0
G1 Z0.600 F7800.000
G1 X190.575 Y40.175 F7800.000
G1 E1.00000 F1800.000
G1 X190.575 Y47.165 E1.25428 F600.000
G1 X220.325 Y47.165 E2.33654
G1 X220.325 Y52.835 E2.54280
G1 X184.325 Y52.835 E3.85242
G1 X184.325 Y59.825 E4.10670
G1 X159.675 Y59.825 E5.00343
G1 X159.675 Y40.175 E5.71826
G1 X190.523 Y40.175 E6.84044
G1 X189.059 Y52.574 F7800.000
G1 X189.887 Y49.485 E6.96836 F1458.063
G1 X194.394 Y48.277 E7.15500
G1 X197.222 Y51.105 E7.31498
G1 X201.729 Y49.897 E7.50162
G1 X202.391 Y47.427 E7.60393
G1 X204.133 Y52.573 E7.82128
G1 X201.829 Y50.269 E7.95163
G1 X197.322 Y51.477 E8.13827
G1 X197.028 Y52.573 E8.18369
G1 X194.423 Y47.427 E8.41443
G1 X194.295 Y47.905 E8.43425
G1 X189.788 Y49.113 E8.62089
G1 X186.960 Y46.285 E8.78087
G1 X182.453 Y47.492 E8.96751
G1 X181.417 Y51.356 E9.12749
G1 X176.910 Y52.563 E9.31413
G1 X174.082 Y49.735 E9.47410
G1 X169.575 Y50.943 E9.66074
G1 X168.540 Y54.806 E9.82072
G1 X164.033 Y56.014 E10.00736
G1 X161.205 Y53.186 E10.16734
G1 X159.937 Y53.526 E10.21987
G1 X159.937 Y53.127 E10.23581
G1 X161.106 Y52.814 E10.28423
G1 X162.141 Y48.951 E10.44420
G1 X166.648 Y47.743 E10.63084
G1 X169.476 Y50.571 E10.79082
G1 X173.983 Y49.364 E10.97746
G1 X175.018 Y45.500 E11.13744
G1 X179.525 Y44.293 E11.32408
G1 X182.353 Y47.121 E11.48405
G1 X186.860 Y45.913 E11.67069
G1 X187.895 Y42.050 E11.83067
G1 X190.313 Y41.402 E11.93081
G1 X190.313 Y41.004 E11.94675
G1 X187.796 Y41.678 E12.05102
G1 X186.554 Y40.437 E12.12126
G1 X180.359 Y40.437 E12.36905
G1 X179.425 Y43.921 E12.51335
G1 X174.918 Y45.129 E12.69999
G1 X172.090 Y42.301 E12.85996
G1 X167.583 Y43.508 E13.04660
G1 X166.548 Y47.371 E13.20658
G1 X162.041 Y48.579 E13.39322
G1 X159.937 Y46.474 E13.51227
G1 X159.937 Y42.308 E13.67894
G1 X160.149 Y41.516 E13.71172
G1 X164.178 Y40.437 E13.87857
G1 X164.784 Y40.437 E13.90281
G1 X167.484 Y43.137 E14.05554
G1 X171.991 Y41.929 E14.24218
G1 X172.391 Y40.437 E14.30398
G1 X162.691 Y40.437 F7800.000
G1 X160.049 Y41.144 E14.41338 F1458.063
G1 X159.937 Y41.032 E14.41975
G1 X163.281 Y59.563 F7800.000
G1 X164.133 Y56.385 E14.55135 F1458.063
G1 X168.640 Y55.178 E14.73799
G1 X171.468 Y58.006 E14.89797
G1 X175.975 Y56.798 E15.08461
G1 X177.010 Y52.935 E15.24458
G1 X181.517 Y51.727 E15.43122
G1 X184.064 Y54.274 E15.57527
G1 X182.011 Y59.563 F7800.000
G1 X183.509 Y59.162 E15.63730 F1458.063
G1 X183.911 Y59.563 E15.66001
G1 X184.063 Y56.350 E15.78869
G1 X183.410 Y58.790 E15.88974
G1 X180.524 Y59.563 E16.00922
G1 X178.468 Y59.563 E16.09147
G1 X176.075 Y57.170 E16.22687
G1 X171.568 Y58.378 E16.41351
G1 X171.250 Y59.563 E16.46261
G1 F1800.000 E15.46261
G92 E0
G1 X206.611 Y52.573 F7800.000
G1 E1.00000 F1800.000
G1 X209.164 Y51.889 E1.10571 F1458.063
G1 X210.199 Y48.026 E1.26569
G1 X212.437 Y47.427 E1.35837
G1 X210.950 Y47.427 E1.41785
G1 X210.099 Y47.655 E1.45308
G1 X209.871 Y47.427 E1.46597
G1 X209.576 Y52.573 E1.67219
G1 X209.264 Y52.261 E1.68985
G1 X208.098 Y52.573 E1.73811
G1 X216.949 Y52.573 F7800.000
G1 X217.634 Y50.018 E1.84392 F1458.063
G1 X220.063 Y49.367 E1.94453
G1 X220.063 Y48.969 E1.96047
G1 X217.534 Y49.647 E2.06521
G1 X215.314 Y47.427 E2.19080
G1 F1800.000 E1.19080
G92 E0
G1 Z0.850 F7800.000
G1 X220.325 Y47.165 F7800.000
G1 E1.00000 F1800.000
G1 X220.325 Y52.835 E1.20626 F600.000
G1 X184.325 Y52.835 E2.51588
G1 X184.325 Y59.825 E2.77017
G1 X159.675 Y59.825 E3.66689
G1 X159.675 Y40.175 E4.38172
G1 X190.575 Y40.175 E5.50581
G1 X190.575 Y47.165 E5.76010
G1 X220.272 Y47.165 E6.84044
G1 X220.063 Y49.168 F7800.000
G1 X217.906 Y49.746 E6.92979 F1479.043
G1 X217.148 Y52.573 E7.04687
G1 X216.750 Y52.573 E7.06280
G1 X217.534 Y49.647 E7.18400
G1 X215.314 Y47.427 E7.30959
G1 X211.694 Y47.427 E7.45440
G1 X210.471 Y47.754 E7.50503
G1 X209.264 Y52.261 E7.69167
G1 X209.576 Y52.573 E7.70933
G1 X207.355 Y52.573 E7.79817
G1 X208.892 Y52.162 E7.86183
G1 X210.099 Y47.655 E8.04847
G1 X209.871 Y47.427 E8.06136
G1 X202.591 Y47.427 E8.35260
G1 X201.829 Y50.269 E8.47031
G1 X204.133 Y52.573 E8.60067
G1 X202.192 Y47.427 E8.82069
G1 X201.457 Y50.169 E8.93428
G1 X197.594 Y51.205 E9.09426
G1 X197.227 Y52.573 E9.15094
G1 X196.829 Y52.573 E9.16688
G1 X197.222 Y51.105 E9.22769
G1 X194.394 Y48.277 E9.38767
G1 X194.622 Y47.427 E9.42288
G1 X194.224 Y47.427 E9.43882
G1 X194.023 Y48.177 E9.46991
G1 X190.159 Y49.212 E9.62988
G1 X189.259 Y52.573 E9.76906
G1 X188.860 Y52.573 E9.78500
G1 X189.788 Y49.113 E9.92831
G1 X186.960 Y46.285 E10.08828
G1 X188.167 Y41.778 E10.27492
G1 X190.313 Y41.203 E10.36380
G1 X186.554 Y40.437 E10.51727
G1 X187.796 Y41.678 E10.58751
G1 X186.588 Y46.185 E10.77415
G1 X182.725 Y47.220 E10.93413
G1 X181.517 Y51.727 E11.12077
G1 X184.063 Y54.274 E11.26481
G1 X184.063 Y55.607 E11.31813
G1 X183.137 Y59.062 E11.46123
G1 X181.268 Y59.563 E11.53866
G1 X183.911 Y59.563 E11.64438
G1 X183.509 Y59.162 E11.66709
G1 X184.063 Y57.094 E11.75274
G1 X178.468 Y59.563 E11.99739
G1 X176.075 Y57.170 E12.13279
G1 X177.282 Y52.663 E12.31943
G1 X181.145 Y51.628 E12.47940
G1 X182.353 Y47.121 E12.66604
G1 X179.525 Y44.293 E12.82602
G1 X180.558 Y40.437 E12.98571
G1 X180.160 Y40.437 E13.00165
G1 X179.153 Y44.193 E13.15721
G1 X175.290 Y45.228 E13.31719
G1 X174.082 Y49.735 E13.50383
G1 X176.910 Y52.563 E13.66380
G1 X175.703 Y57.070 E13.85044
G1 X171.840 Y58.105 E14.01042
G1 X171.449 Y59.563 E14.07080
G1 X171.051 Y59.563 E14.08673
G1 X171.468 Y58.006 E14.15124
G1 X168.640 Y55.178 E14.31121
G1 X169.848 Y50.671 E14.49785
G1 X173.711 Y49.636 E14.65783
G1 X174.918 Y45.129 E14.84447
G1 X172.090 Y42.301 E15.00445
G1 X172.590 Y40.437 E15.08164
G1 X172.191 Y40.437 E15.09758
G1 X171.719 Y42.201 E15.17064
G1 X167.855 Y43.236 E15.33062
G1 X166.648 Y47.743 E15.51726
G1 X169.476 Y50.571 E15.67724
G1 X168.268 Y55.078 E15.86388
G1 X164.405 Y56.113 E16.02385
