; generated by Slic3r 1.0.0RC2 on 2014-01-02 at 21:01:23

; layer_height = 0.25
; perimeters = 3
; top_solid_layers = 3
; bottom_solid_layers = 3
; fill_density = 0.5
; perimeter_speed = 30
; infill_speed = 60
; travel_speed = 130
; nozzle_diameter = 0.35
; filament_diameter = 1.75
; extrusion_multiplier = 1
; perimeters extrusion width = 0.35mm
; infill extrusion width = 0.39mm
; solid infill extrusion width = 0.39mm
; top infill extrusion width = 0.39mm
; first layer extrusion width = 0.70mm

G21 ; set units to millimeters
M107
M104 S220 ; set temperature
G28 ; home all axes
G1 Z5 F5000 ; lift nozzle

M109 S220 ; wait for temperature to be reached
G90 ; use absolute coordinates
G92 E0
M82 ; use absolute distances for extrusion
G1 F1800.000 E-1.00000
G92 E0
G1 Z0.350 F7800.000
G1 X168.450 Y115.630 F7800.000
G1 E1.00000 F1800.000
G1 X169.430 Y114.430 E1.14088 F540.000
G1 X170.630 Y113.450 E1.28176
G1 X171.990 Y112.720 E1.42211
G1 X173.460 Y112.280 E1.56164
G1 X175.000 Y112.130 E1.70233
G1 X215.000 Y112.130 E5.33951
G1 X216.540 Y112.280 E5.48021
G1 X218.010 Y112.720 E5.61973
G1 X219.370 Y113.450 E5.76009
G1 X220.570 Y114.430 E5.90097
G1 X221.550 Y115.630 E6.04185
G1 X222.280 Y116.990 E6.18220
G1 X222.720 Y118.460 E6.32173
G1 X222.870 Y120.000 E6.46242
G1 X222.870 Y160.000 E10.09960
G1 X222.720 Y161.540 E10.24030
G1 X222.280 Y163.010 E10.37982
G1 X221.550 Y164.370 E10.52018
G1 X220.570 Y165.570 E10.66105
G1 X219.370 Y166.550 E10.80193
G1 X218.010 Y167.280 E10.94229
G1 X216.540 Y167.720 E11.08181
G1 X215.000 Y167.870 E11.22251
G1 X175.000 Y167.870 E14.85969
G1 X173.460 Y167.720 E15.00038
G1 X171.990 Y167.280 E15.13991
G1 X170.630 Y166.550 E15.28026
G1 X169.430 Y165.570 E15.42114
G1 X168.450 Y164.370 E15.56202
G1 X167.720 Y163.010 E15.70237
G1 X167.280 Y161.540 E15.84190
G1 X167.130 Y160.000 E15.98259
G1 X167.130 Y120.000 E19.61978
G1 X167.280 Y118.460 E19.76047
G1 X167.720 Y116.990 E19.90000
G1 X168.406 Y115.713 E20.03183
G1 X168.970 Y115.970 F7800.000
G1 X169.870 Y114.870 E20.16106 F540.000
G1 X170.970 Y113.970 E20.29030
G1 X172.230 Y113.300 E20.42006
G1 X173.590 Y112.890 E20.54922
G1 X175.000 Y112.750 E20.67806
G1 X215.000 Y112.750 E24.31525
G1 X216.410 Y112.890 E24.44409
G1 X217.770 Y113.300 E24.57325
G1 X219.030 Y113.970 E24.70301
G1 X220.130 Y114.870 E24.83225
G1 X221.030 Y115.970 E24.96148
G1 X221.700 Y117.230 E25.09124
G1 X222.110 Y118.590 E25.22041
G1 X222.250 Y120.000 E25.34925
G1 X222.250 Y160.000 E28.98643
G1 X222.110 Y161.410 E29.11527
G1 X221.700 Y162.770 E29.24443
G1 X221.030 Y164.030 E29.37419
G1 X220.130 Y165.130 E29.50343
G1 X219.030 Y166.030 E29.63266
G1 X217.770 Y166.700 E29.76243
G1 X216.410 Y167.110 E29.89159
G1 X215.000 Y167.250 E30.02043
G1 X175.000 Y167.250 E33.65761
G1 X173.590 Y167.110 E33.78645
G1 X172.230 Y166.700 E33.91562
G1 X170.970 Y166.030 E34.04538
G1 X169.870 Y165.130 E34.17461
G1 X168.970 Y164.030 E34.30385
G1 X168.300 Y162.770 E34.43361
G1 X167.890 Y161.410 E34.56277
G1 X167.750 Y160.000 E34.69161
G1 X167.750 Y120.000 E38.32880
G1 X167.890 Y118.590 E38.45764
G1 X168.300 Y117.230 E38.58680
G1 X168.926 Y116.053 E38.70804
G1 X169.490 Y116.320 F7800.000
G1 X170.320 Y115.320 E38.82621 F540.000
G1 X171.320 Y114.490 E38.94438
G1 X172.460 Y113.880 E39.06194
G1 X173.710 Y113.500 E39.18074
G1 X175.000 Y113.380 E39.29855
G1 X215.000 Y113.380 E42.93573
G1 X216.290 Y113.500 E43.05354
G1 X217.540 Y113.880 E43.17233
G1 X218.680 Y114.490 E43.28990
G1 X219.680 Y115.320 E43.40807
G1 X220.510 Y116.320 E43.52624
G1 X221.120 Y117.460 E43.64381
G1 X221.500 Y118.710 E43.76261
G1 X221.620 Y120.000 E43.88041
G1 X221.620 Y160.000 E47.51760
G1 X221.500 Y161.290 E47.63540
G1 X221.120 Y162.540 E47.75420
G1 X220.510 Y163.680 E47.87177
G1 X219.680 Y164.680 E47.98994
G1 X218.680 Y165.510 E48.10811
G1 X217.540 Y166.120 E48.22567
G1 X216.290 Y166.500 E48.34447
G1 X215.000 Y166.620 E48.46228
G1 X175.000 Y166.620 E52.09946
G1 X173.710 Y166.500 E52.21726
G1 X172.460 Y166.120 E52.33606
G1 X171.320 Y165.510 E52.45363
G1 X170.320 Y164.680 E52.57180
G1 X169.490 Y163.680 E52.68997
G1 X168.880 Y162.540 E52.80754
G1 X168.500 Y161.290 E52.92633
G1 X168.380 Y160.000 E53.04414
G1 X168.380 Y120.000 E56.68132
G1 X168.500 Y118.710 E56.79913
G1 X168.880 Y117.460 E56.91793
G1 X169.446 Y116.403 E57.02697
G1 F1800.000 E56.02697
G92 E0
G1 X176.600 Y121.600 F7800.000
G1 E1.00000 F1800.000
G1 X213.400 Y121.600 E4.34625 F540.000
G1 X213.400 Y158.400 E7.69250
G1 X176.600 Y158.400 E11.03875
G1 X176.600 Y121.694 E14.37647
G1 X175.975 Y120.975 F7800.000
G1 X214.025 Y120.975 E17.83636 F540.000
G1 X214.025 Y159.025 E21.29625
G1 X175.975 Y159.025 E24.75614
G1 X175.975 Y121.069 E28.20751
G1 X175.350 Y120.350 F7800.000
G1 X214.650 Y120.350 E31.78104 F378.000
G1 X214.650 Y159.650 E35.35458
G1 X175.350 Y159.650 E38.92811
G1 X175.350 Y120.444 E42.49312
G1 X175.891 Y120.662 F7800.000
G1 X212.979 Y122.084 F7800.000
G1 X212.916 Y122.021 E42.50120 F1080.000
G1 X212.030 Y122.021 E42.58202
G1 X212.979 Y122.970 E42.70439
G1 X212.979 Y123.857 E42.78522
G1 X211.143 Y122.021 E43.02189
G1 X210.257 Y122.021 E43.10272
G1 X212.979 Y124.743 E43.45369
G1 X212.979 Y125.629 E43.53452
G1 X209.371 Y122.021 E43.99979
G1 X208.484 Y122.021 E44.08061
G1 X212.979 Y126.516 E44.66019
G1 X212.979 Y127.402 E44.74101
G1 X207.598 Y122.021 E45.43489
G1 X206.712 Y122.021 E45.51571
G1 X212.979 Y128.288 E46.32389
G1 X212.979 Y129.174 E46.40471
G1 X205.826 Y122.021 E47.32718
G1 X204.939 Y122.021 E47.40801
G1 X212.979 Y130.061 E48.44478
G1 X212.979 Y130.947 E48.52560
G1 X204.053 Y122.021 E49.67668
G1 X203.167 Y122.021 E49.75750
G1 X212.979 Y131.833 E51.02288
G1 X212.979 Y132.719 E51.10370
G1 X202.281 Y122.021 E52.48338
G1 X201.394 Y122.021 E52.56420
G1 X212.979 Y133.606 E54.05817
G1 X212.979 Y134.492 E54.13900
G1 X200.508 Y122.021 E55.74727
G1 X199.622 Y122.021 E55.82809
G1 X212.979 Y135.378 E57.55067
G1 X212.979 Y136.265 E57.63149
G1 X198.735 Y122.021 E59.46836
G1 X197.849 Y122.021 E59.54919
G1 X212.979 Y137.151 E61.50036
G1 X212.979 Y138.037 E61.58118
G1 X196.963 Y122.021 E63.64666
G1 X196.077 Y122.021 E63.72748
G1 X212.979 Y138.923 E65.90726
G1 X212.979 Y139.810 E65.98808
G1 X195.190 Y122.021 E68.28215
G1 X194.304 Y122.021 E68.36297
G1 X212.979 Y140.696 E70.77135
G1 X212.979 Y141.582 E70.85217
G1 X193.418 Y122.021 E73.37484
G1 X192.531 Y122.021 E73.45567
G1 X212.979 Y142.469 E76.09264
G1 X212.979 Y143.355 E76.17346
G1 X191.645 Y122.021 E78.92474
G1 X190.759 Y122.021 E79.00556
G1 X212.979 Y144.241 E81.87113
G1 X212.979 Y145.127 E81.95195
G1 X189.873 Y122.021 E84.93183
G1 X188.986 Y122.021 E85.01265
G1 X212.979 Y146.014 E88.10682
G1 X212.979 Y146.900 E88.18765
G1 X188.100 Y122.021 E91.39612
G1 X187.214 Y122.021 E91.47694
G1 X212.979 Y147.786 E94.79971
G1 X212.979 Y148.673 E94.88054
G1 X186.327 Y122.021 E98.31761
G1 X185.441 Y122.021 E98.39843
G1 X212.979 Y149.559 E101.94980
G1 X212.979 Y150.445 E102.03063
G1 X184.555 Y122.021 E105.69630
G1 X183.669 Y122.021 E105.77712
G1 X212.979 Y151.331 E109.55709
G1 X212.979 Y152.218 E109.63792
G1 X182.782 Y122.021 E113.53219
G1 X181.896 Y122.021 E113.61301
G1 X212.979 Y153.104 E117.62158
G1 X212.979 Y153.990 E117.70241
G1 X181.010 Y122.021 E121.82528
G1 X180.123 Y122.021 E121.90610
G1 X212.979 Y154.877 E126.14327
G1 X212.979 Y155.763 E126.22409
G1 X179.237 Y122.021 E130.57557
G1 X178.351 Y122.021 E130.65639
G1 X212.979 Y156.649 E135.12216
G1 X212.979 Y157.535 E135.20298
G1 X177.465 Y122.021 E139.78305
G1 X177.021 Y122.465 E139.84020
G1 X212.535 Y157.979 E144.42028
G1 X211.649 Y157.979 E144.50110
G1 X177.021 Y123.351 E148.96688
G1 X177.021 Y124.237 E149.04770
G1 X210.763 Y157.979 E153.39918
G1 X209.877 Y157.979 E153.48000
G1 X177.021 Y125.123 E157.71718
G1 X177.021 Y126.010 E157.79800
G1 X208.990 Y157.979 E161.92088
G1 X208.104 Y157.979 E162.00170
G1 X177.021 Y126.896 E166.01028
G1 X177.021 Y127.782 E166.09110
G1 X207.218 Y157.979 E169.98538
G1 X206.331 Y157.979 E170.06620
G1 X177.021 Y128.669 E173.84618
G1 X177.021 Y129.555 E173.92700
G1 X205.445 Y157.979 E177.59268
G1 X204.559 Y157.979 E177.67350
G1 X177.021 Y130.441 E181.22488
G1 X177.021 Y131.327 E181.30570
G1 X203.673 Y157.979 E184.74278
G1 X202.786 Y157.979 E184.82360
G1 X177.021 Y132.214 E188.14638
G1 X177.021 Y133.100 E188.22720
G1 X201.900 Y157.979 E191.43568
G1 X201.014 Y157.979 E191.51650
G1 X177.021 Y133.986 E194.61068
G1 X177.021 Y134.873 E194.69150
G1 X200.127 Y157.979 E197.67138
G1 X199.241 Y157.979 E197.75221
G1 X177.021 Y135.759 E200.61778
G1 X177.021 Y136.645 E200.69861
G1 X198.355 Y157.979 E203.44989
G1 X197.469 Y157.979 E203.53071
G1 X177.021 Y137.531 E206.16769
G1 X177.021 Y138.418 E206.24851
G1 X196.582 Y157.979 E208.77119
G1 X195.696 Y157.979 E208.85201
G1 X177.021 Y139.304 E211.26039
G1 X177.021 Y140.190 E211.34121
G1 X194.810 Y157.979 E213.63529
G1 X193.923 Y157.979 E213.71612
G1 X177.021 Y141.077 E215.89590
G1 X177.021 Y141.963 E215.97672
G1 X193.037 Y157.979 E218.04220
G1 X192.151 Y157.979 E218.12302
G1 X177.021 Y142.849 E220.07420
G1 X177.021 Y143.735 E220.15502
G1 X191.265 Y157.979 E221.99190
G1 X190.378 Y157.979 E222.07272
G1 X177.021 Y144.622 E223.79530
G1 X177.021 Y145.508 E223.87613
G1 X189.492 Y157.979 E225.48441
G1 X188.606 Y157.979 E225.56523
G1 X177.021 Y146.394 E227.05921
G1 X177.021 Y147.280 E227.14003
G1 X187.720 Y157.979 E228.51971
G1 X186.833 Y157.979 E228.60053
G1 X177.021 Y148.167 E229.86592
G1 X177.021 Y149.053 E229.94674
G1 X185.947 Y157.979 E231.09782
G1 X185.061 Y157.979 E231.17864
G1 X177.021 Y149.939 E232.21542
G1 X177.021 Y150.826 E232.29624
G1 X184.174 Y157.979 E233.21873
G1 X183.288 Y157.979 E233.29955
G1 X177.021 Y151.712 E234.10773
G1 X177.021 Y152.598 E234.18855
G1 X182.402 Y157.979 E234.88243
G1 X181.516 Y157.979 E234.96326
G1 X177.021 Y153.484 E235.54284
G1 X177.021 Y154.371 E235.62366
G1 X180.629 Y157.979 E236.08894
G1 X179.743 Y157.979 E236.16976
G1 X177.021 Y155.257 E236.52075
G1 X177.021 Y156.143 E236.60157
G1 X178.857 Y157.979 E236.83825
G1 X177.970 Y157.979 E236.91907
G1 X177.021 Y157.030 E237.04145
G1 X177.021 Y157.916 E237.12228
G1 X177.084 Y157.979 E237.13036
M104 S220 ; set temperature
G1 F1800.000 E236.13036
G92 E0
G1 Z0.600 F7800.000
G1 X175.875 Y159.125 F7800.000
G1 E1.00000 F1800.000
G1 X175.875 Y120.875 E2.39147 F1800
G1 X214.125 Y120.875 E3.78294
G1 X214.125 Y159.125 E5.17441
G1 X175.928 Y159.125 E6.56397
G1 X175.525 Y159.475 F7800.000
G1 X175.525 Y120.525 E7.98090 F1800
G1 X214.475 Y120.525 E9.39783
G1 X214.475 Y159.475 E10.81477
G1 X175.577 Y159.475 E12.22979
G1 X175.175 Y159.825 F7800.000
G1 X175.175 Y120.175 E13.67219 F1260
G1 X214.825 Y120.175 E15.11459
G1 X214.825 Y159.825 E16.55699
G1 X175.227 Y159.825 E17.99748
G1 X175.350 Y159.522 F7800.000
G1 X176.117 Y121.156 F7800.000
G1 X176.156 Y121.117 E17.99967 F3600
G1 X176.703 Y121.117 E18.02164
G1 X176.117 Y121.703 E18.05491
G1 X176.117 Y122.249 E18.07688
G1 X177.249 Y121.117 E18.14122
G1 X177.796 Y121.117 E18.16320
G1 X176.117 Y122.796 E18.25861
G1 X176.117 Y123.343 E18.28058
G1 X178.343 Y121.117 E18.40707
G1 X178.890 Y121.117 E18.42904
G1 X176.117 Y123.890 E18.58660
G1 X176.117 Y124.436 E18.60857
G1 X179.436 Y121.117 E18.79720
G1 X179.983 Y121.117 E18.81917
G1 X176.117 Y124.983 E19.03888
G1 X176.117 Y125.530 E19.06085
G1 X180.530 Y121.117 E19.31163
G1 X181.077 Y121.117 E19.33360
G1 X176.117 Y126.077 E19.61545
G1 X176.117 Y126.624 E19.63742
G1 X181.624 Y121.117 E19.95034
G1 X182.170 Y121.117 E19.97231
G1 X176.117 Y127.170 E20.31631
G1 X176.117 Y127.717 E20.33828
G1 X182.717 Y121.117 E20.71334
G1 X183.264 Y121.117 E20.73532
G1 X176.117 Y128.264 E21.14146
G1 X176.117 Y128.811 E21.16343
G1 X183.811 Y121.117 E21.60064
G1 X184.357 Y121.117 E21.62261
G1 X176.117 Y129.357 E22.09090
G1 X176.117 Y129.904 E22.11287
G1 X184.904 Y121.117 E22.61222
G1 X185.451 Y121.117 E22.63420
G1 X176.117 Y130.451 E23.16463
G1 X176.117 Y130.998 E23.18660
G1 X185.998 Y121.117 E23.74810
G1 X186.544 Y121.117 E23.77007
G1 X176.117 Y131.544 E24.36265
G1 X176.117 Y132.091 E24.38462
G1 X187.091 Y121.117 E25.00827
G1 X187.638 Y121.117 E25.03024
G1 X176.117 Y132.638 E25.68496
G1 X176.117 Y133.185 E25.70693
G1 X188.185 Y121.117 E26.39272
G1 X188.732 Y121.117 E26.41469
G1 X176.117 Y133.732 E27.13156
G1 X176.117 Y134.278 E27.15353
G1 X189.278 Y121.117 E27.90147
G1 X189.825 Y121.117 E27.92344
G1 X176.117 Y134.825 E28.70245
G1 X176.117 Y135.372 E28.72442
G1 X190.372 Y121.117 E29.53451
G1 X190.919 Y121.117 E29.55648
G1 X176.117 Y135.919 E30.39763
G1 X176.117 Y136.465 E30.41961
G1 X191.465 Y121.117 E31.29183
G1 X192.012 Y121.117 E31.31381
G1 X176.117 Y137.012 E32.21711
G1 X176.117 Y137.559 E32.23908
G1 X192.559 Y121.117 E33.17345
G1 X193.106 Y121.117 E33.19542
G1 X176.117 Y138.106 E34.16087
G1 X176.117 Y138.652 E34.18284
G1 X193.652 Y121.117 E35.17936
G1 X194.199 Y121.117 E35.20133
G1 X176.117 Y139.199 E36.22892
G1 X176.117 Y139.746 E36.25089
G1 X194.746 Y121.117 E37.30956
G1 X195.293 Y121.117 E37.33153
G1 X176.117 Y140.293 E38.42127
G1 X176.117 Y140.839 E38.44324
G1 X195.839 Y121.117 E39.56405
G1 X196.386 Y121.117 E39.58602
G1 X176.117 Y141.386 E40.73790
G1 X176.117 Y141.933 E40.75987
G1 X196.933 Y121.117 E41.94283
G1 X197.480 Y121.117 E41.96480
G1 X176.117 Y142.480 E43.17882
G1 X176.117 Y143.027 E43.20080
G1 X198.027 Y121.117 E44.44589
G1 X198.573 Y121.117 E44.46787
G1 X176.117 Y143.573 E45.74404
G1 X176.117 Y144.120 E45.76601
G1 X199.120 Y121.117 E47.07325
G1 X199.667 Y121.117 E47.09523
G1 X176.117 Y144.667 E48.43354
G1 X176.117 Y145.214 E48.45551
G1 X200.214 Y121.117 E49.82490
G1 X200.760 Y121.117 E49.84688
G1 X176.117 Y145.760 E51.24734
G1 X176.117 Y146.307 E51.26931
G1 X201.307 Y121.117 E52.70084
G1 X201.854 Y121.117 E52.72282
G1 X176.117 Y146.854 E54.18542
G1 X176.117 Y147.401 E54.20740
G1 X202.401 Y121.117 E55.70108
G1 X202.947 Y121.117 E55.72305
G1 X176.117 Y147.947 E57.24780
G1 X176.117 Y148.494 E57.26977
G1 X203.494 Y121.117 E58.82560
G1 X204.041 Y121.117 E58.84757
G1 X176.117 Y149.041 E60.43447
G1 X176.117 Y149.588 E60.45644
G1 X204.588 Y121.117 E62.07441
G1 X205.134 Y121.117 E62.09638
G1 X176.117 Y150.134 E63.74542
G1 X176.117 Y150.681 E63.76739
G1 X205.681 Y121.117 E65.44751
G1 X206.228 Y121.117 E65.46948
G1 X176.117 Y151.228 E67.18067
G1 X176.117 Y151.775 E67.20264
G1 X206.775 Y121.117 E68.94490
G1 X207.322 Y121.117 E68.96687
G1 X176.117 Y152.322 E70.74021
G1 X176.117 Y152.868 E70.76218
G1 X207.868 Y121.117 E72.56658
G1 X208.415 Y121.117 E72.58855
G1 X176.117 Y153.415 E74.42403
G1 X176.117 Y153.962 E74.44600
G1 X208.962 Y121.117 E76.31256
G1 X209.509 Y121.117 E76.33453
G1 X176.117 Y154.509 E78.23215
G1 X176.117 Y155.055 E78.25412
G1 X210.055 Y121.117 E80.18282
G1 X210.602 Y121.117 E80.20479
G1 X176.117 Y155.602 E82.16456
G1 X176.117 Y156.149 E82.18653
G1 X211.149 Y121.117 E84.17737
G1 X211.696 Y121.117 E84.19934
G1 X176.117 Y156.696 E86.22126
G1 X176.117 Y157.242 E86.24323
G1 X212.242 Y121.117 E88.29622
G1 X212.789 Y121.117 E88.31819
G1 X176.117 Y157.789 E90.40225
G1 X176.117 Y158.336 E90.42422
G1 X213.336 Y121.117 E92.53935
G1 X213.863 Y121.137 E92.56056
G1 X176.137 Y158.863 E94.70457
G1 X176.664 Y158.883 E94.72577
G1 X213.883 Y121.664 E96.84091
G1 X213.883 Y122.211 E96.86288
G1 X177.211 Y158.883 E98.94694
G1 X177.758 Y158.883 E98.96891
G1 X213.883 Y122.758 E101.02190
G1 X213.883 Y123.304 E101.04387
G1 X178.304 Y158.883 E103.06579
G1 X178.851 Y158.883 E103.08776
G1 X213.883 Y123.851 E105.07860
G1 X213.883 Y124.398 E105.10057
G1 X179.398 Y158.883 E107.06034
G1 X179.945 Y158.883 E107.08231
G1 X213.883 Y124.945 E109.01101
G1 X213.883 Y125.491 E109.03298
G1 X180.491 Y158.883 E110.93061
G1 X181.038 Y158.883 E110.95258
G1 X213.883 Y126.038 E112.81913
G1 X213.883 Y126.585 E112.84110
G1 X181.585 Y158.883 E114.67658
G1 X182.132 Y158.883 E114.69855
G1 X213.883 Y127.132 E116.50296
G1 X213.883 Y127.678 E116.52493
G1 X182.678 Y158.883 E118.29827
G1 X183.225 Y158.883 E118.32024
G1 X213.883 Y128.225 E120.06250
G1 X213.883 Y128.772 E120.08447
G1 X183.772 Y158.883 E121.79566
G1 X184.319 Y158.883 E121.81763
G1 X213.883 Y129.319 E123.49775
G1 X213.883 Y129.865 E123.51972
