; generated by Slic3r 1.0.0RC2 on 2014-01-07 at 18:27:54

; layer_height = 0.25
; perimeters = 2
; top_solid_layers = 3
; bottom_solid_layers = 3
; fill_density = 0.12
; perimeter_speed = 30
; infill_speed = 60
; travel_speed = 130
; nozzle_diameter = 0.35
; filament_diameter = 1.75
; extrusion_multiplier = 1
; perimeters extrusion width = 0.35mm
; infill extrusion width = 0.39mm
; solid infill extrusion width = 0.39mm
; top infill extrusion width = 0.39mm
; first layer extrusion width = 0.70mm

G21 ; set units to millimeters
M107
M104 S220 ; set temperature
G28 ; home all axes
G1 Z5 F5000 ; lift nozzle

M109 S220 ; wait for temperature to be reached
G90 ; use absolute coordinates
G92 E0
M82 ; use absolute distances for extrusion
G1 F1800.000 E-1.00000
G92 E0
G1 Z0.350 F7800.000
G1 X162.280 Y28.460 F7800.000
G1 E1.00000 F1800.000
G1 X162.720 Y26.990 E1.13953 F540.000
G1 X163.450 Y25.630 E1.27988
G1 X164.430 Y24.430 E1.42076
G1 X165.630 Y23.450 E1.56164
G1 X166.990 Y22.720 E1.70199
G1 X168.460 Y22.280 E1.84152
G1 X170.000 Y22.130 E1.98221
G1 X210.000 Y22.130 E5.61939
G1 X211.540 Y22.280 E5.76009
G1 X213.010 Y22.720 E5.89961
G1 X214.370 Y23.450 E6.03997
G1 X215.570 Y24.430 E6.18085
G1 X216.550 Y25.630 E6.32173
G1 X217.280 Y26.990 E6.46208
G1 X217.720 Y28.460 E6.60160
G1 X217.870 Y30.000 E6.74230
G1 X217.870 Y70.000 E10.37948
G1 X217.720 Y71.540 E10.52018
G1 X217.280 Y73.010 E10.65970
G1 X216.550 Y74.370 E10.80005
G1 X215.570 Y75.570 E10.94093
G1 X214.370 Y76.550 E11.08181
G1 X213.010 Y77.280 E11.22217
G1 X211.540 Y77.720 E11.36169
G1 X210.000 Y77.870 E11.50239
G1 X170.000 Y77.870 E15.13957
G1 X168.460 Y77.720 E15.28026
G1 X166.990 Y77.280 E15.41979
G1 X165.630 Y76.550 E15.56014
G1 X164.430 Y75.570 E15.70102
G1 X163.450 Y74.370 E15.84190
G1 X162.720 Y73.010 E15.98225
G1 X162.280 Y71.540 E16.12178
G1 X162.130 Y70.000 E16.26247
G1 X162.130 Y30.000 E19.89966
G1 X162.271 Y28.553 E20.03183
G1 X162.890 Y28.590 F7800.000
G1 X163.300 Y27.230 E20.16099 F540.000
G1 X163.970 Y25.970 E20.29075
G1 X164.870 Y24.870 E20.41999
G1 X165.970 Y23.970 E20.54922
G1 X167.230 Y23.300 E20.67898
G1 X168.590 Y22.890 E20.80815
G1 X170.000 Y22.750 E20.93699
G1 X210.000 Y22.750 E24.57417
G1 X211.410 Y22.890 E24.70301
G1 X212.770 Y23.300 E24.83217
G1 X214.030 Y23.970 E24.96193
G1 X215.130 Y24.870 E25.09117
G1 X216.030 Y25.970 E25.22041
G1 X216.700 Y27.230 E25.35017
G1 X217.110 Y28.590 E25.47933
G1 X217.250 Y30.000 E25.60817
G1 X217.250 Y70.000 E29.24535
G1 X217.110 Y71.410 E29.37419
G1 X216.700 Y72.770 E29.50336
G1 X216.030 Y74.030 E29.63312
G1 X215.130 Y75.130 E29.76235
G1 X214.030 Y76.030 E29.89159
G1 X212.770 Y76.700 E30.02135
G1 X211.410 Y77.110 E30.15051
G1 X210.000 Y77.250 E30.27935
G1 X170.000 Y77.250 E33.91654
G1 X168.590 Y77.110 E34.04538
G1 X167.230 Y76.700 E34.17454
G1 X165.970 Y76.030 E34.30430
G1 X164.870 Y75.130 E34.43354
G1 X163.970 Y74.030 E34.56277
G1 X163.300 Y72.770 E34.69253
G1 X162.890 Y71.410 E34.82170
G1 X162.750 Y70.000 E34.95054
G1 X162.750 Y30.000 E38.58772
G1 X162.881 Y28.683 E38.70804
G1 X163.500 Y28.710 F7800.000
G1 X163.880 Y27.460 E38.82684 F540.000
G1 X164.490 Y26.320 E38.94440
G1 X165.320 Y25.320 E39.06257
G1 X166.320 Y24.490 E39.18074
G1 X167.460 Y23.880 E39.29831
G1 X168.710 Y23.500 E39.41711
G1 X170.000 Y23.380 E39.53491
G1 X210.000 Y23.380 E43.17210
G1 X211.290 Y23.500 E43.28990
G1 X212.540 Y23.880 E43.40870
G1 X213.680 Y24.490 E43.52627
G1 X214.680 Y25.320 E43.64444
G1 X215.510 Y26.320 E43.76261
G1 X216.120 Y27.460 E43.88017
G1 X216.500 Y28.710 E43.99897
G1 X216.620 Y30.000 E44.11678
G1 X216.620 Y70.000 E47.75396
G1 X216.500 Y71.290 E47.87177
G1 X216.120 Y72.540 E47.99056
G1 X215.510 Y73.680 E48.10813
G1 X214.680 Y74.680 E48.22630
G1 X213.680 Y75.510 E48.34447
G1 X212.540 Y76.120 E48.46204
G1 X211.290 Y76.500 E48.58083
G1 X210.000 Y76.620 E48.69864
G1 X170.000 Y76.620 E52.33582
G1 X168.710 Y76.500 E52.45363
G1 X167.460 Y76.120 E52.57243
G1 X166.320 Y75.510 E52.68999
G1 X165.320 Y74.680 E52.80816
G1 X164.490 Y73.680 E52.92633
G1 X163.880 Y72.540 E53.04390
G1 X163.500 Y71.290 E53.16270
G1 X163.380 Y70.000 E53.28050
G1 X163.380 Y30.000 E56.91769
G1 X163.491 Y28.803 E57.02697
G1 F1800.000 E56.02697
G92 E0
G1 X172.025 Y32.025 F7800.000
G1 E1.00000 F1800.000
G1 X207.975 Y32.025 E4.26890 F540.000
G1 X207.975 Y67.975 E7.53780
G1 X172.025 Y67.975 E10.80670
G1 X172.025 Y32.119 E14.06707
G1 X172.650 Y32.650 F7800.000
G1 X207.350 Y32.650 E17.22233 F378.000
G1 X207.350 Y67.350 E20.37758
G1 X172.650 Y67.350 E23.53284
G1 X172.650 Y32.744 E26.67957
G1 X172.650 Y32.025 F7800.000
G1 X170.975 Y30.975 F7800.000
G1 X209.025 Y30.975 E30.13946 F540.000
G1 X209.025 Y69.025 E33.59935
G1 X170.975 Y69.025 E37.05925
G1 X170.975 Y31.069 E40.51061
G1 X170.350 Y30.350 F7800.000
G1 X209.650 Y30.350 E44.08415 F378.000
G1 X209.650 Y69.650 E47.65768
G1 X170.350 Y69.650 E51.23121
G1 X170.350 Y30.444 E54.79622
G1 X170.891 Y30.662 F7800.000
G1 X171.427 Y31.427 F7800.000
G1 X171.830 Y31.413 E54.81352 F360.000
G1 X172.005 Y31.587 E54.82414 F360.000
G1 X172.247 Y31.413 E54.83698 F360.000
G1 X172.422 Y31.587 E54.84760 F360.000
G1 X172.665 Y31.413 E54.86044 F360.000
G1 X172.840 Y31.587 E54.87106 F360.000
G1 X173.082 Y31.413 E54.88390 F360.000
G1 X173.257 Y31.587 E54.89451 F360.000
G1 X173.499 Y31.413 E54.90735 F360.000
G1 X173.674 Y31.587 E54.91797 F360.000
G1 X173.917 Y31.413 E54.93081 F360.000
G1 X174.092 Y31.587 E54.94143 F360.000
G1 X174.334 Y31.413 E54.95427 F360.000
G1 X174.509 Y31.587 E54.96489 F360.000
G1 X174.751 Y31.413 E54.97773 F360.000
G1 X174.926 Y31.587 E54.98835 F360.000
G1 X175.169 Y31.413 E55.00118 F360.000
G1 X175.344 Y31.587 E55.01180 F360.000
G1 X175.586 Y31.413 E55.02464 F360.000
G1 X175.761 Y31.587 E55.03526 F360.000
G1 X176.004 Y31.413 E55.04810 F360.000
G1 X176.178 Y31.587 E55.05872 F360.000
G1 X176.421 Y31.413 E55.07156 F360.000
G1 X176.596 Y31.587 E55.08218 F360.000
G1 X176.838 Y31.413 E55.09502 F360.000
G1 X177.013 Y31.587 E55.10564 F360.000
G1 X177.256 Y31.413 E55.11847 F360.000
G1 X177.431 Y31.587 E55.12909 F360.000
G1 X177.673 Y31.413 E55.14193 F360.000
G1 X177.848 Y31.587 E55.15255 F360.000
G1 X178.090 Y31.413 E55.16539 F360.000
G1 X178.265 Y31.587 E55.17601 F360.000
G1 X178.508 Y31.413 E55.18885 F360.000
G1 X178.683 Y31.587 E55.19947 F360.000
G1 X178.925 Y31.413 E55.21231 F360.000
G1 X179.100 Y31.587 E55.22292 F360.000
G1 X179.342 Y31.413 E55.23576 F360.000
G1 X179.517 Y31.587 E55.24638 F360.000
G1 X179.760 Y31.413 E55.25922 F360.000
G1 X179.935 Y31.587 E55.26984 F360.000
G1 X180.177 Y31.413 E55.28268 F360.000
G1 X180.352 Y31.587 E55.29330 F360.000
G1 X180.595 Y31.413 E55.30614 F360.000
G1 X180.769 Y31.587 E55.31676 F360.000
G1 X181.012 Y31.413 E55.32960 F360.000
G1 X181.187 Y31.587 E55.34021 F360.000
G1 X181.429 Y31.413 E55.35305 F360.000
G1 X181.604 Y31.587 E55.36367 F360.000
G1 X181.847 Y31.413 E55.37651 F360.000
G1 X182.022 Y31.587 E55.38713 F360.000
G1 X182.264 Y31.413 E55.39997 F360.000
G1 X182.439 Y31.587 E55.41059 F360.000
G1 X182.681 Y31.413 E55.42343 F360.000
G1 X182.856 Y31.587 E55.43405 F360.000
G1 X183.099 Y31.413 E55.44688 F360.000
G1 X183.274 Y31.587 E55.45750 F360.000
G1 X183.516 Y31.413 E55.47034 F360.000
G1 X183.691 Y31.587 E55.48096 F360.000
G1 X183.933 Y31.413 E55.49380 F360.000
G1 X184.108 Y31.587 E55.50442 F360.000
G1 X184.351 Y31.413 E55.51726 F360.000
G1 X184.526 Y31.587 E55.52788 F360.000
G1 X184.768 Y31.413 E55.54072 F360.000
G1 X184.943 Y31.587 E55.55134 F360.000
G1 X185.186 Y31.413 E55.56417 F360.000
G1 X185.360 Y31.587 E55.57479 F360.000
G1 X185.603 Y31.413 E55.58763 F360.000
G1 X185.778 Y31.587 E55.59825 F360.000
G1 X186.020 Y31.413 E55.61109 F360.000
G1 X186.195 Y31.587 E55.62171 F360.000
G1 X186.438 Y31.413 E55.63455 F360.000
G1 X186.613 Y31.587 E55.64517 F360.000
G1 X186.855 Y31.413 E55.65801 F360.000
G1 X187.030 Y31.587 E55.66862 F360.000
G1 X187.272 Y31.413 E55.68146 F360.000
G1 X187.447 Y31.587 E55.69208 F360.000
G1 X187.690 Y31.413 E55.70492 F360.000
G1 X187.865 Y31.587 E55.71554 F360.000
G1 X188.107 Y31.413 E55.72838 F360.000
G1 X188.282 Y31.587 E55.73900 F360.000
G1 X188.524 Y31.413 E55.75184 F360.000
G1 X188.699 Y31.587 E55.76246 F360.000
G1 X188.942 Y31.413 E55.77530 F360.000
G1 X189.117 Y31.587 E55.78591 F360.000
G1 X189.359 Y31.413 E55.79875 F360.000
G1 X189.534 Y31.587 E55.80937 F360.000
G1 X189.777 Y31.413 E55.82221 F360.000
G1 X189.951 Y31.587 E55.83283 F360.000
G1 X190.194 Y31.413 E55.84567 F360.000
G1 X190.369 Y31.587 E55.85629 F360.000
G1 X190.611 Y31.413 E55.86913 F360.000
G1 X190.786 Y31.587 E55.87975 F360.000
G1 X191.029 Y31.413 E55.89258 F360.000
G1 X191.204 Y31.587 E55.90320 F360.000
G1 X191.446 Y31.413 E55.91604 F360.000
G1 X191.621 Y31.587 E55.92666 F360.000
G1 X191.863 Y31.413 E55.93950 F360.000
G1 X192.038 Y31.587 E55.95012 F360.000
G1 X192.281 Y31.413 E55.96296 F360.000
G1 X192.456 Y31.587 E55.97358 F360.000
G1 X192.698 Y31.413 E55.98642 F360.000
G1 X192.873 Y31.587 E55.99704 F360.000
G1 X193.115 Y31.413 E56.00987 F360.000
G1 X193.290 Y31.587 E56.02049 F360.000
G1 X193.533 Y31.413 E56.03333 F360.000
G1 X193.708 Y31.587 E56.04395 F360.000
G1 X193.950 Y31.413 E56.05679 F360.000
G1 X194.125 Y31.587 E56.06741 F360.000
G1 X194.368 Y31.413 E56.08025 F360.000
G1 X194.542 Y31.587 E56.09087 F360.000
G1 X194.785 Y31.413 E56.10371 F360.000
G1 X194.960 Y31.587 E56.11432 F360.000
G1 X195.202 Y31.413 E56.12716 F360.000
G1 X195.377 Y31.587 E56.13778 F360.000
G1 X195.620 Y31.413 E56.15062 F360.000
G1 X195.795 Y31.587 E56.16124 F360.000
G1 X196.037 Y31.413 E56.17408 F360.000
G1 X196.212 Y31.587 E56.18470 F360.000
G1 X196.454 Y31.413 E56.19754 F360.000
G1 X196.629 Y31.587 E56.20816 F360.000
G1 X196.872 Y31.413 E56.22100 F360.000
G1 X197.047 Y31.587 E56.23161 F360.000
G1 X197.289 Y31.413 E56.24445 F360.000
G1 X197.464 Y31.587 E56.25507 F360.000
G1 X197.706 Y31.413 E56.26791 F360.000
G1 X197.881 Y31.587 E56.27853 F360.000
G1 X198.124 Y31.413 E56.29137 F360.000
G1 X198.299 Y31.587 E56.30199 F360.000
G1 X198.541 Y31.413 E56.31483 F360.000
G1 X198.716 Y31.587 E56.32545 F360.000
G1 X198.959 Y31.413 E56.33828 F360.000
G1 X199.133 Y31.587 E56.34890 F360.000
G1 X199.376 Y31.413 E56.36174 F360.000
G1 X199.551 Y31.587 E56.37236 F360.000
G1 X199.793 Y31.413 E56.38520 F360.000
G1 X199.968 Y31.587 E56.39582 F360.000
G1 X200.211 Y31.413 E56.40866 F360.000
G1 X200.386 Y31.587 E56.41928 F360.000
G1 X200.628 Y31.413 E56.43212 F360.000
G1 X200.803 Y31.587 E56.44273 F360.000
G1 X201.045 Y31.413 E56.45557 F360.000
G1 X201.220 Y31.587 E56.46619 F360.000
G1 X201.463 Y31.413 E56.47903 F360.000
G1 X201.638 Y31.587 E56.48965 F360.000
G1 X201.880 Y31.413 E56.50249 F360.000
G1 X202.055 Y31.587 E56.51311 F360.000
G1 X202.297 Y31.413 E56.52595 F360.000
G1 X202.472 Y31.587 E56.53657 F360.000
G1 X202.715 Y31.413 E56.54941 F360.000
G1 X202.890 Y31.587 E56.56002 F360.000
G1 X203.132 Y31.413 E56.57286 F360.000
G1 X203.307 Y31.587 E56.58348 F360.000
G1 X203.550 Y31.413 E56.59632 F360.000
G1 X203.724 Y31.587 E56.60694 F360.000
G1 X203.967 Y31.413 E56.61978 F360.000
G1 X204.142 Y31.587 E56.63040 F360.000
G1 X204.384 Y31.413 E56.64324 F360.000
G1 X204.559 Y31.587 E56.65386 F360.000
G1 X204.802 Y31.413 E56.66669 F360.000
G1 X204.977 Y31.587 E56.67731 F360.000
G1 X205.219 Y31.413 E56.69015 F360.000
G1 X205.394 Y31.587 E56.70077 F360.000
G1 X205.636 Y31.413 E56.71361 F360.000
G1 X205.811 Y31.587 E56.72423 F360.000
G1 X206.054 Y31.413 E56.73707 F360.000
G1 X206.229 Y31.587 E56.74769 F360.000
G1 X206.471 Y31.413 E56.76053 F360.000
G1 X206.646 Y31.587 E56.77115 F360.000
G1 X206.888 Y31.413 E56.78398 F360.000
G1 X207.063 Y31.587 E56.79460 F360.000
G1 X207.306 Y31.413 E56.80744 F360.000
G1 X207.481 Y31.587 E56.81806 F360.000
G1 X207.723 Y31.413 E56.83090 F360.000
G1 X207.898 Y31.587 E56.84152 F360.000
G1 X208.141 Y31.413 E56.85436 F360.000
G1 X208.315 Y31.587 E56.86498 F360.000
G1 X208.413 Y31.685 E56.87088 F360.000
G1 X208.587 Y31.859 E56.88150 F360.000
G1 X208.413 Y32.102 E56.89433 F360.000
G1 X208.587 Y32.277 E56.90495 F360.000
G1 X208.413 Y32.519 E56.91779 F360.000
G1 X208.587 Y32.694 E56.92841 F360.000
G1 X208.413 Y32.937 E56.94125 F360.000
G1 X208.587 Y33.112 E56.95187 F360.000
G1 X208.413 Y33.354 E56.96471 F360.000
G1 X208.587 Y33.529 E56.97533 F360.000
G1 X208.413 Y33.771 E56.98817 F360.000
G1 X208.587 Y33.946 E56.99879 F360.000
G1 X208.413 Y34.189 E57.01162 F360.000
G1 X208.587 Y34.364 E57.02224 F360.000
G1 X208.413 Y34.606 E57.03508 F360.000
G1 X208.587 Y34.781 E57.04570 F360.000
G1 X208.413 Y35.023 E57.05854 F360.000
G1 X208.587 Y35.198 E57.06916 F360.000
G1 X208.413 Y35.441 E57.08200 F360.000
G1 X208.587 Y35.616 E57.09262 F360.000
G1 X208.413 Y35.858 E57.10546 F360.000
G1 X208.587 Y36.033 E57.11607 F360.000
G1 X208.413 Y36.276 E57.12891 F360.000
G1 X208.587 Y36.450 E57.13953 F360.000
G1 X208.413 Y36.693 E57.15237 F360.000
G1 X208.587 Y36.868 E57.16299 F360.000
G1 X208.413 Y37.110 E57.17583 F360.000
G1 X208.587 Y37.285 E57.18645 F360.000
G1 X208.413 Y37.528 E57.19929 F360.000
G1 X208.587 Y37.703 E57.20991 F360.000
G1 X208.413 Y37.945 E57.22275 F360.000
G1 X208.587 Y38.120 E57.23336 F360.000
G1 X208.413 Y38.362 E57.24620 F360.000
G1 X208.587 Y38.537 E57.25682 F360.000
G1 X208.413 Y38.780 E57.26966 F360.000
G1 X208.587 Y38.955 E57.28028 F360.000
G1 X208.413 Y39.197 E57.29312 F360.000
G1 X208.587 Y39.372 E57.30374 F360.000
G1 X208.413 Y39.614 E57.31658 F360.000
G1 X208.587 Y39.789 E57.32720 F360.000
G1 X208.413 Y40.032 E57.34004 F360.000
G1 X208.587 Y40.207 E57.35065 F360.000
G1 X208.413 Y40.449 E57.36349 F360.000
G1 X208.587 Y40.624 E57.37411 F360.000
G1 X208.413 Y40.867 E57.38695 F360.000
G1 X208.587 Y41.041 E57.39757 F360.000
G1 X208.413 Y41.284 E57.41041 F360.000
G1 X208.587 Y41.459 E57.42103 F360.000
G1 X208.413 Y41.701 E57.43387 F360.000
G1 X208.587 Y41.876 E57.44449 F360.000
G1 X208.413 Y42.119 E57.45733 F360.000
G1 X208.587 Y42.294 E57.46794 F360.000
G1 X208.413 Y42.536 E57.48078 F360.000
G1 X208.587 Y42.711 E57.49140 F360.000
G1 X208.413 Y42.953 E57.50424 F360.000
G1 X208.587 Y43.128 E57.51486 F360.000
G1 X208.413 Y43.371 E57.52770 F360.000
G1 X208.587 Y43.546 E57.53832 F360.000
G1 X208.413 Y43.788 E57.55116 F360.000
G1 X208.587 Y43.963 E57.56178 F360.000
G1 X208.413 Y44.205 E57.57461 F360.000
G1 X208.587 Y44.380 E57.58523 F360.000
G1 X208.413 Y44.623 E57.59807 F360.000
G1 X208.587 Y44.798 E57.60869 F360.000
G1 X208.413 Y45.040 E57.62153 F360.000
G1 X208.587 Y45.215 E57.63215 F360.000
G1 X208.413 Y45.458 E57.64499 F360.000
G1 X208.587 Y45.632 E57.65561 F360.000
G1 X208.413 Y45.875 E57.66845 F360.000
G1 X208.587 Y46.050 E57.67907 F360.000
G1 X208.413 Y46.292 E57.69190 F360.000
G1 X208.587 Y46.467 E57.70252 F360.000
G1 X208.413 Y46.710 E57.71536 F360.000
G1 X208.587 Y46.885 E57.72598 F360.000
G1 X208.413 Y47.127 E57.73882 F360.000
G1 X208.587 Y47.302 E57.74944 F360.000
G1 X208.413 Y47.544 E57.76228 F360.000
G1 X208.587 Y47.719 E57.77290 F360.000
G1 X208.413 Y47.962 E57.78574 F360.000
G1 X208.587 Y48.137 E57.79635 F360.000
G1 X208.413 Y48.379 E57.80919 F360.000
G1 X208.587 Y48.554 E57.81981 F360.000
G1 X208.413 Y48.796 E57.83265 F360.000
G1 X208.587 Y48.971 E57.84327 F360.000
G1 X208.413 Y49.214 E57.85611 F360.000
G1 X208.587 Y49.389 E57.86673 F360.000
G1 X208.413 Y49.631 E57.87957 F360.000
G1 X208.587 Y49.806 E57.89019 F360.000
G1 X208.413 Y50.049 E57.90303 F360.000
G1 X208.587 Y50.223 E57.91364 F360.000
G1 X208.413 Y50.466 E57.92648 F360.000
G1 X208.587 Y50.641 E57.93710 F360.000
G1 X208.413 Y50.883 E57.94994 F360.000
G1 X208.587 Y51.058 E57.96056 F360.000
G1 X208.413 Y51.301 E57.97340 F360.000
G1 X208.587 Y51.476 E57.98402 F360.000
G1 X208.413 Y51.718 E57.99686 F360.000
G1 X208.587 Y51.893 E58.00748 F360.000
G1 X208.413 Y52.135 E58.02032 F360.000
G1 X208.587 Y52.310 E58.03093 F360.000
G1 X208.413 Y52.553 E58.04377 F360.000
G1 X208.587 Y52.728 E58.05439 F360.000
G1 X208.413 Y52.970 E58.06723 F360.000
G1 X208.587 Y53.145 E58.07785 F360.000
G1 X208.413 Y53.387 E58.09069 F360.000
G1 X208.587 Y53.562 E58.10131 F360.000
G1 X208.413 Y53.805 E58.11415 F360.000
