; generated by Slic3r 1.0.0RC2 on 2014-01-04 at 19:35:15

; layer_height = 0.25
; perimeters = 1
; top_solid_layers = 1
; bottom_solid_layers = 1
; fill_density = 0.2
; perimeter_speed = 30
; infill_speed = 60
; travel_speed = 130
; nozzle_diameter = 0.35
; filament_diameter = 1.75
; extrusion_multiplier = 1
; perimeters extrusion width = 0.35mm
; infill extrusion width = 0.39mm
; solid infill extrusion width = 0.39mm
; top infill extrusion width = 0.39mm
; first layer extrusion width = 0.70mm

G21 ; set units to millimeters
M107
M104 S220 ; set temperature
G28 ; home all axes
G1 Z5 F5000 ; lift nozzle

M109 S220 ; wait for temperature to be reached
G90 ; use absolute coordinates
G92 E0
M82 ; use absolute distances for extrusion
G1 F1800.000 E-1.00000
G92 E0
G1 Z0.350 F7800.000
G1 X127.390 Y38.090 F7800.000
G1 E1.00000 F1800.000
G1 X127.800 Y36.730 E1.12916 F540.000
G1 X128.470 Y35.480 E1.25812
G1 X138.470 Y20.480 E2.89738
G1 X139.370 Y19.380 E3.02661
G1 X140.470 Y18.470 E3.15643
G1 X141.720 Y17.800 E3.28539
G1 X143.080 Y17.390 E3.41455
G1 X144.500 Y17.250 E3.54429
G1 X175.500 Y17.250 E6.36311
G1 X177.000 Y17.410 E6.50028
G1 X178.430 Y17.870 E6.63687
G1 X179.730 Y18.610 E6.77289
G1 X180.860 Y19.620 E6.91070
G1 X181.750 Y20.830 E7.04728
G1 X182.370 Y22.190 E7.18319
G1 X182.700 Y23.660 E7.32018
G1 X192.700 Y109.660 E15.19282
G1 X192.750 Y110.500 E15.26933
G1 X192.750 Y120.500 E16.17863
G1 X192.610 Y121.910 E16.30747
G1 X192.200 Y123.270 E16.43663
G1 X191.530 Y124.520 E16.56559
G1 X181.530 Y139.520 E18.20485
G1 X180.630 Y140.620 E18.33408
G1 X179.530 Y141.530 E18.46389
G1 X178.280 Y142.200 E18.59285
G1 X176.920 Y142.610 E18.72202
G1 X175.500 Y142.750 E18.85176
G1 X160.500 Y142.750 E20.21571
G1 X159.170 Y142.630 E20.33713
G1 X157.880 Y142.260 E20.45916
G1 X156.690 Y141.670 E20.57994
G1 X155.620 Y140.860 E20.70197
G1 X154.720 Y139.870 E20.82363
G1 X154.010 Y138.740 E20.94497
G1 X153.530 Y137.490 E21.06673
G1 X127.530 Y46.490 E29.67243
G1 X127.320 Y45.510 E29.76357
G1 X127.250 Y44.500 E29.85563
G1 X127.250 Y39.500 E30.31028
G1 X127.381 Y38.183 E30.43059
G1 X128.000 Y38.210 F7800.000
G1 X128.380 Y36.970 E30.54852 F540.000
G1 X128.990 Y35.830 E30.66609
G1 X138.990 Y20.830 E32.30534
G1 X139.810 Y19.820 E32.42364
G1 X140.820 Y18.990 E32.54251
G1 X141.960 Y18.380 E32.66008
G1 X143.210 Y18.000 E32.77888
G1 X144.500 Y17.880 E32.89668
G1 X175.500 Y17.880 E35.71550
G1 X176.870 Y18.020 E35.84072
G1 X178.180 Y18.440 E35.96581
G1 X179.370 Y19.120 E36.09044
G1 X180.400 Y20.040 E36.21602
G1 X181.210 Y21.140 E36.34023
G1 X181.780 Y22.390 E36.46515
G1 X182.080 Y23.730 E36.59001
G1 X192.080 Y109.730 E44.46265
G1 X192.120 Y110.500 E44.53276
G1 X192.120 Y120.500 E45.44205
G1 X192.000 Y121.790 E45.55986
G1 X191.620 Y123.030 E45.67779
G1 X191.010 Y124.170 E45.79535
G1 X181.010 Y139.170 E47.43461
G1 X180.190 Y140.180 E47.55291
G1 X179.180 Y141.010 E47.67178
G1 X178.040 Y141.620 E47.78934
G1 X176.790 Y142.000 E47.90814
G1 X175.500 Y142.120 E48.02595
G1 X160.500 Y142.120 E49.38989
G1 X159.080 Y141.970 E49.51973
G1 X157.730 Y141.520 E49.64912
G1 X156.510 Y140.790 E49.77840
G1 X155.470 Y139.810 E49.90834
G1 X154.670 Y138.640 E50.03722
G1 X154.130 Y137.320 E50.16690
G1 X128.130 Y46.320 E58.77261
G1 X127.940 Y45.420 E58.85625
G1 X127.880 Y44.500 E58.94008
G1 X127.880 Y39.500 E59.39473
G1 X127.991 Y38.303 E59.50401
G1 F1800.000 E58.50401
G92 E0
G1 X134.850 Y39.850 F7800.000
G1 E1.00000 F1800.000
G1 X165.150 Y39.850 E3.75517 F378.000
G1 X165.150 Y130.850 E12.02976
G1 X171.850 Y130.850 E12.63899
G1 X171.850 Y125.850 E13.09363
G1 X175.150 Y125.850 E13.39370
G1 X175.150 Y135.150 E14.23935
G1 X160.850 Y135.150 E15.53964
G1 X160.850 Y44.150 E23.81423
G1 X134.850 Y44.150 E26.17840
G1 X134.850 Y39.944 E26.56088
G1 F1800.000 E25.56088
G92 E0
G1 X144.850 Y29.150 F7800.000
G1 E1.00000 F1800.000
G1 X144.850 Y24.850 E1.39100 F378.000
G1 X175.150 Y24.850 E4.14616
G1 X175.150 Y115.850 E12.42076
G1 X181.850 Y115.850 E13.02998
G1 X181.850 Y110.850 E13.48463
G1 X185.150 Y110.850 E13.78470
G1 X185.150 Y120.150 E14.63034
G1 X170.850 Y120.150 E15.93064
G1 X170.850 Y29.150 E24.20523
G1 X144.944 Y29.150 E26.56088
G1 F1800.000 E25.56088
G92 E0
G1 X136.119 Y43.728 F7800.000
G1 E1.00000 F1800.000
G1 X135.272 Y42.881 E1.10963 F1080.000
G1 X135.272 Y41.992 E1.19094
G1 X137.008 Y43.728 E1.41557
G1 X137.897 Y43.728 E1.49689
G1 X135.272 Y41.103 E1.83651
G1 X135.332 Y40.274 E1.91252
G1 X138.786 Y43.728 E2.35934
G1 X139.675 Y43.728 E2.44066
G1 X136.218 Y40.272 E2.88783
G1 X137.107 Y40.272 E2.96914
G1 X140.564 Y43.728 E3.41631
G1 X141.453 Y43.728 E3.49763
G1 X137.996 Y40.272 E3.94479
G1 X138.885 Y40.272 E4.02611
G1 X142.342 Y43.728 E4.47328
G1 X143.231 Y43.728 E4.55459
G1 X139.774 Y40.272 E5.00176
G1 X140.663 Y40.272 E5.08308
G1 X144.120 Y43.728 E5.53024
G1 X145.009 Y43.728 E5.61156
G1 X141.552 Y40.272 E6.05873
G1 X142.441 Y40.272 E6.14004
G1 X145.898 Y43.728 E6.58721
G1 X146.787 Y43.728 E6.66853
G1 X143.330 Y40.272 E7.11569
G1 X144.219 Y40.272 E7.19701
G1 X147.676 Y43.728 E7.64418
G1 X148.565 Y43.728 E7.72549
G1 X145.108 Y40.272 E8.17266
G1 X145.997 Y40.272 E8.25397
G1 X149.454 Y43.728 E8.70114
G1 X150.343 Y43.728 E8.78246
G1 X146.886 Y40.272 E9.22963
G1 X147.775 Y40.272 E9.31094
G1 X151.232 Y43.728 E9.75811
G1 X152.121 Y43.728 E9.83942
G1 X148.664 Y40.272 E10.28659
G1 X149.553 Y40.272 E10.36791
G1 X153.010 Y43.728 E10.81507
G1 X153.899 Y43.728 E10.89639
G1 X150.442 Y40.272 E11.34356
G1 X151.331 Y40.272 E11.42487
G1 X154.788 Y43.728 E11.87204
G1 X155.677 Y43.728 E11.95336
G1 X152.220 Y40.272 E12.40052
G1 X153.109 Y40.272 E12.48184
G1 X156.566 Y43.728 E12.92901
G1 X157.455 Y43.728 E13.01032
G1 X153.998 Y40.272 E13.45749
G1 X154.887 Y40.272 E13.53880
G1 X158.344 Y43.728 E13.98597
G1 X159.233 Y43.728 E14.06729
G1 X155.776 Y40.272 E14.51446
G1 X156.665 Y40.272 E14.59577
G1 X160.122 Y43.728 E15.04294
G1 X164.666 Y40.272 F7800.000
G1 X164.728 Y40.334 E15.05106 F1080.000
G1 X164.728 Y41.223 E15.13238
G1 X163.777 Y40.272 E15.25550
G1 X162.888 Y40.272 E15.33681
G1 X164.728 Y42.112 E15.57493
G1 X164.728 Y43.001 E15.65625
G1 X161.999 Y40.272 E16.00936
G1 X161.110 Y40.272 E16.09068
G1 X164.728 Y43.890 E16.55879
G1 X164.728 Y44.779 E16.64011
G1 X160.221 Y40.272 E17.22322
G1 X159.332 Y40.272 E17.30453
G1 X164.728 Y45.668 E18.00264
G1 X164.728 Y46.557 E18.08396
G1 X158.443 Y40.272 E18.89706
G1 X157.554 Y40.272 E18.97838
G1 X164.728 Y47.446 E19.90648
G1 X164.728 Y48.335 E19.98780
G1 X161.272 Y44.878 E20.43496
G1 X161.272 Y45.767 E20.51628
G1 X164.728 Y49.224 E20.96345
G1 X164.728 Y50.113 E21.04476
G1 X161.272 Y46.656 E21.49193
G1 X161.272 Y47.545 E21.57324
G1 X164.728 Y51.002 E22.02041
G1 X164.728 Y51.891 E22.10173
G1 X161.272 Y48.434 E22.54890
G1 X161.272 Y49.323 E22.63021
G1 X164.728 Y52.780 E23.07738
G1 X164.728 Y53.669 E23.15869
G1 X161.272 Y50.212 E23.60586
G1 X161.272 Y51.101 E23.68718
G1 X164.728 Y54.558 E24.13434
G1 X164.728 Y55.447 E24.21566
G1 X161.272 Y51.990 E24.66283
G1 X161.272 Y52.879 E24.74414
G1 X164.728 Y56.336 E25.19131
G1 X164.728 Y57.225 E25.27263
G1 X161.272 Y53.768 E25.71979
G1 X161.272 Y54.657 E25.80111
G1 X164.728 Y58.114 E26.24828
G1 X164.728 Y59.003 E26.32959
G1 X161.272 Y55.546 E26.77676
G1 X161.272 Y56.435 E26.85807
G1 X164.728 Y59.892 E27.30524
G1 X164.728 Y60.781 E27.38656
G1 X161.272 Y57.324 E27.83373
G1 X161.272 Y58.213 E27.91504
G1 X164.728 Y61.670 E28.36221
G1 X164.728 Y62.559 E28.44352
G1 X161.272 Y59.102 E28.89069
G1 X161.272 Y59.991 E28.97201
G1 X164.728 Y63.448 E29.41917
G1 X164.728 Y64.337 E29.50049
G1 X161.272 Y60.880 E29.94766
G1 X161.272 Y61.769 E30.02897
G1 X164.728 Y65.226 E30.47614
G1 X164.728 Y66.115 E30.55746
G1 X161.272 Y62.658 E31.00462
G1 X161.272 Y63.547 E31.08594
G1 X164.728 Y67.004 E31.53311
G1 X164.728 Y67.893 E31.61442
G1 X161.272 Y64.436 E32.06159
G1 X161.272 Y65.325 E32.14290
G1 X164.728 Y68.782 E32.59007
G1 X164.728 Y69.671 E32.67139
G1 X161.272 Y66.214 E33.11855
G1 X161.272 Y67.103 E33.19987
G1 X164.728 Y70.560 E33.64704
G1 X164.728 Y71.449 E33.72835
G1 X161.272 Y67.992 E34.17552
G1 X161.272 Y68.881 E34.25684
G1 X164.728 Y72.338 E34.70400
G1 X164.728 Y73.227 E34.78532
G1 X161.272 Y69.770 E35.23249
G1 X161.272 Y70.659 E35.31380
G1 X164.728 Y74.116 E35.76097
G1 X164.728 Y75.005 E35.84229
G1 X161.272 Y71.548 E36.28945
G1 X161.272 Y72.437 E36.37077
G1 X164.728 Y75.894 E36.81794
G1 X164.728 Y76.783 E36.89925
G1 X161.272 Y73.326 E37.34642
G1 X161.272 Y74.215 E37.42773
G1 X164.728 Y77.672 E37.87490
G1 X164.728 Y78.561 E37.95622
G1 X161.272 Y75.104 E38.40338
G1 X161.272 Y75.993 E38.48470
G1 X164.728 Y79.450 E38.93187
G1 X164.728 Y80.339 E39.01318
G1 X161.272 Y76.882 E39.46035
G1 X161.272 Y77.771 E39.54167
G1 X164.728 Y81.228 E39.98883
G1 X164.728 Y82.117 E40.07015
G1 X161.272 Y78.660 E40.51732
G1 X161.272 Y79.549 E40.59863
G1 X164.728 Y83.006 E41.04580
G1 X164.728 Y83.894 E41.12711
G1 X161.272 Y80.438 E41.57428
G1 X161.272 Y81.327 E41.65560
G1 X164.728 Y84.783 E42.10277
G1 X164.728 Y85.672 E42.18408
G1 X161.272 Y82.216 E42.63125
G1 X161.272 Y83.105 E42.71256
G1 X164.728 Y86.561 E43.15973
G1 X164.728 Y87.450 E43.24105
G1 X161.272 Y83.994 E43.68821
G1 X161.272 Y84.883 E43.76953
G1 X164.728 Y88.339 E44.21670
G1 X164.728 Y89.228 E44.29801
G1 X161.272 Y85.772 E44.74518
G1 X161.272 Y86.661 E44.82650
G1 X164.728 Y90.117 E45.27366
G1 X164.728 Y91.006 E45.35498
G1 X161.272 Y87.550 E45.80215
G1 X161.272 Y88.439 E45.88346
G1 X164.728 Y91.895 E46.33063
G1 X164.728 Y92.784 E46.41194
G1 X161.272 Y89.327 E46.85911
G1 X161.272 Y90.216 E46.94043
G1 X164.728 Y93.673 E47.38760
G1 X164.728 Y94.562 E47.46891
G1 X161.272 Y91.105 E47.91608
G1 X161.272 Y91.994 E47.99739
G1 X164.728 Y95.451 E48.44456
G1 X164.728 Y96.340 E48.52588
G1 X161.272 Y92.883 E48.97304
G1 X161.272 Y93.772 E49.05436
G1 X164.728 Y97.229 E49.50153
G1 X164.728 Y98.118 E49.58284
G1 X161.272 Y94.661 E50.03001
G1 X161.272 Y95.550 E50.11133
G1 X164.728 Y99.007 E50.55849
G1 X164.728 Y99.896 E50.63981
G1 X161.272 Y96.439 E51.08698
G1 X161.272 Y97.328 E51.16829
G1 X164.728 Y100.785 E51.61546
G1 X164.728 Y101.674 E51.69677
G1 X161.272 Y98.217 E52.14394
G1 X161.272 Y99.106 E52.22526
G1 X164.728 Y102.563 E52.67243
G1 X164.728 Y103.452 E52.75374
G1 X161.272 Y99.995 E53.20091
G1 X161.272 Y100.884 E53.28222
G1 X164.728 Y104.341 E53.72939
G1 X164.728 Y105.230 E53.81071
G1 X161.272 Y101.773 E54.25787
G1 X161.272 Y102.662 E54.33919
G1 X164.728 Y106.119 E54.78636
G1 X164.728 Y107.008 E54.86767
G1 X161.272 Y103.551 E55.31484
G1 X161.272 Y104.440 E55.39616
G1 X164.728 Y107.897 E55.84332
G1 X164.728 Y108.786 E55.92464
G1 X161.272 Y105.329 E56.37181
G1 X161.272 Y106.218 E56.45312
G1 X164.728 Y109.675 E56.90029
G1 X164.728 Y110.564 E56.98160
G1 X161.272 Y107.107 E57.42877
G1 X161.272 Y107.996 E57.51009
G1 X164.728 Y111.453 E57.95726
G1 X164.728 Y112.342 E58.03857
G1 X161.272 Y108.885 E58.48574
G1 X161.272 Y109.774 E58.56705
G1 X164.728 Y113.231 E59.01422
G1 X164.728 Y114.120 E59.09554
G1 X161.272 Y110.663 E59.54270
G1 X161.272 Y111.552 E59.62402
G1 X164.728 Y115.009 E60.07119
G1 X164.728 Y115.898 E60.15250
G1 X161.272 Y112.441 E60.59967
G1 X161.272 Y113.330 E60.68099
G1 X164.728 Y116.787 E61.12815
G1 X164.728 Y117.676 E61.20947
G1 X161.272 Y114.219 E61.65664
G1 X161.272 Y115.108 E61.73795
G1 X164.728 Y118.565 E62.18512
G1 X164.728 Y119.454 E62.26643
G1 X161.272 Y115.997 E62.71360
G1 X161.272 Y116.886 E62.79492
G1 X164.728 Y120.343 E63.24208
G1 X164.728 Y121.232 E63.32340
G1 X161.272 Y117.775 E63.77057
G1 X161.272 Y118.664 E63.85188
G1 X164.728 Y122.121 E64.29905
G1 X164.728 Y123.010 E64.38037
G1 X161.272 Y119.553 E64.82753
G1 X161.272 Y120.442 E64.90885
G1 X164.728 Y123.899 E65.35602
G1 X164.728 Y124.788 E65.43733
G1 X161.272 Y121.331 E65.88450
G1 X161.272 Y122.220 E65.96582
G1 X164.728 Y125.677 E66.41298
G1 X164.728 Y126.566 E66.49430
G1 X161.272 Y123.109 E66.94147
G1 X161.272 Y123.998 E67.02278
G1 X164.728 Y127.455 E67.46995
G1 X164.728 Y128.344 E67.55126
G1 X161.272 Y124.887 E67.99843
G1 X161.272 Y125.776 E68.07975
G1 X164.728 Y129.233 E68.52691
G1 X164.728 Y130.122 E68.60823
G1 X161.272 Y126.665 E69.05540
G1 X161.272 Y127.554 E69.13671
G1 X168.446 Y134.728 E70.06482
G1 X167.557 Y134.728 E70.14614
G1 X161.272 Y128.443 E70.95925
G1 X161.272 Y129.332 E71.04057
G1 X166.668 Y134.728 E71.73868
G1 X165.779 Y134.728 E71.82000
G1 X161.272 Y130.221 E72.40311
G1 X161.272 Y131.110 E72.48443
G1 X164.890 Y134.728 E72.95255
G1 X164.001 Y134.728 E73.03387
G1 X161.272 Y131.999 E73.38699
G1 X161.272 Y132.888 E73.46830
G1 X163.112 Y134.728 E73.70643
G1 X162.223 Y134.728 E73.78775
G1 X161.272 Y133.777 E73.91087
G1 X161.272 Y134.666 E73.99219
G1 X161.334 Y134.728 E74.00032
G1 X169.335 Y134.728 F7800.000
G1 X165.878 Y131.272 E74.44749 F1080.000
G1 X166.767 Y131.272 E74.52880
G1 X170.224 Y134.728 E74.97597
G1 X171.113 Y134.728 E75.05729
G1 X167.656 Y131.272 E75.50445
G1 X168.545 Y131.272 E75.58577
G1 X172.002 Y134.728 E76.03294
G1 X172.891 Y134.728 E76.11425
G1 X169.434 Y131.272 E76.56142
G1 X170.323 Y131.272 E76.64274
G1 X173.780 Y134.728 E77.08990
G1 X174.667 Y134.727 E77.17105
G1 X171.212 Y131.272 E77.61799
G1 X172.101 Y131.272 E77.69930
G1 X174.728 Y133.899 E78.03913
G1 X174.728 Y133.010 E78.12045
G1 X172.272 Y130.553 E78.43826
G1 X172.272 Y129.664 E78.51957
G1 X174.728 Y132.121 E78.83738
G1 X174.728 Y131.232 E78.91870
G1 X172.272 Y128.775 E79.23651
G1 X172.272 Y127.886 E79.31782
G1 X174.728 Y130.343 E79.63563
G1 X174.728 Y129.454 E79.71695
G1 X172.272 Y126.997 E80.03476
G1 X172.435 Y126.272 F7800.000
G1 X174.728 Y128.565 E80.33140 F1080.000
G1 X174.728 Y127.676 E80.41271
G1 X173.324 Y126.272 E80.59436
G1 X174.213 Y126.272 E80.67567
G1 X174.728 Y126.787 E80.74232
G1 F1800.000 E79.74232
G92 E0
G1 X171.334 Y119.728 F7800.000
G1 E1.00000 F1800.000
G1 X171.272 Y119.666 E1.00813 F1080.000
G1 X171.272 Y118.777 E1.08945
G1 X172.223 Y119.728 E1.21258
G1 X173.112 Y119.728 E1.29389
G1 X171.272 Y117.888 E1.53202
G1 X171.272 Y116.999 E1.61333
G1 X174.001 Y119.728 E1.96646
G1 X174.890 Y119.728 E2.04777
G1 X171.272 Y116.110 E2.51589
G1 X171.272 Y115.221 E2.59721
G1 X175.779 Y119.728 E3.18033
G1 X176.668 Y119.728 E3.26164
G1 X171.272 Y114.332 E3.95976
G1 X171.272 Y113.443 E4.04107
G1 X177.557 Y119.728 E4.85418
G1 X178.446 Y119.728 E4.93550
G1 X171.272 Y112.554 E5.86361
G1 X171.272 Y111.665 E5.94492
G1 X174.728 Y115.122 E6.39209
G1 X174.728 Y114.233 E6.47341
G1 X171.272 Y110.776 E6.92057
G1 X171.272 Y109.887 E7.00189
G1 X174.728 Y113.344 E7.44906
G1 X174.728 Y112.455 E7.53037
G1 X171.272 Y108.998 E7.97754
G1 X171.272 Y108.109 E8.05886
G1 X174.728 Y111.566 E8.50602
G1 X174.728 Y110.677 E8.58734
G1 X171.272 Y107.220 E9.03451
G1 X171.272 Y106.331 E9.11582
G1 X174.728 Y109.788 E9.56299
G1 X174.728 Y108.899 E9.64431
G1 X171.272 Y105.442 E10.09147
G1 X171.272 Y104.553 E10.17279
G1 X174.728 Y108.010 E10.61996
G1 X174.728 Y107.121 E10.70127
G1 X171.272 Y103.664 E11.14844
G1 X171.272 Y102.775 E11.22975
G1 X174.728 Y106.232 E11.67692
G1 X174.728 Y105.343 E11.75824
G1 X171.272 Y101.886 E12.20540
G1 X171.272 Y100.997 E12.28672
G1 X174.728 Y104.454 E12.73389
G1 X174.728 Y103.565 E12.81520
G1 X171.272 Y100.108 E13.26237
G1 X171.272 Y99.219 E13.34369
G1 X174.728 Y102.676 E13.79085
G1 X174.728 Y101.787 E13.87217
G1 X171.272 Y98.330 E14.31934
G1 X171.272 Y97.441 E14.40065
G1 X174.728 Y100.898 E14.84782
G1 X174.728 Y100.009 E14.92914
G1 X171.272 Y96.552 E15.37630
G1 X171.272 Y95.663 E15.45762
G1 X174.728 Y99.120 E15.90479
G1 X174.728 Y98.231 E15.98610
G1 X171.272 Y94.774 E16.43327
G1 X171.272 Y93.885 E16.51458
G1 X174.728 Y97.342 E16.96175
G1 X174.728 Y96.453 E17.04307
G1 X171.272 Y92.996 E17.49024
G1 X171.272 Y92.107 E17.57155
G1 X174.728 Y95.564 E18.01872
G1 X174.728 Y94.675 E18.10003
G1 X171.272 Y91.218 E18.54720
G1 X171.272 Y90.329 E18.62852
G1 X174.728 Y93.786 E19.07568
G1 X174.728 Y92.897 E19.15700
G1 X171.272 Y89.440 E19.60417
G1 X171.272 Y88.551 E19.68548
G1 X174.728 Y92.008 E20.13265
G1 X174.728 Y91.119 E20.21397
G1 X171.272 Y87.662 E20.66113
G1 X171.272 Y86.773 E20.74245
G1 X174.728 Y90.230 E21.18962
G1 X174.728 Y89.341 E21.27093
