; generated by Slic3r 1.0.0RC2 on 2014-01-04 at 17:14:57

; layer_height = 0.25
; perimeters = 1
; top_solid_layers = 1
; bottom_solid_layers = 1
; fill_density = 0.1
; perimeter_speed = 30
; infill_speed = 60
; travel_speed = 130
; nozzle_diameter = 0.35
; filament_diameter = 1.75
; extrusion_multiplier = 1
; perimeters extrusion width = 0.35mm
; infill extrusion width = 0.39mm
; solid infill extrusion width = 0.39mm
; top infill extrusion width = 0.39mm
; first layer extrusion width = 0.70mm

G21 ; set units to millimeters
M107
M104 S220 ; set temperature
G28 ; home all axes
G1 Z5 F5000 ; lift nozzle

M109 S220 ; wait for temperature to be reached
G90 ; use absolute coordinates
G92 E0
M82 ; use absolute distances for extrusion
G1 F1800.000 E-1.00000
G92 E0
G1 Z0.350 F7800.000
G1 X162.250 Y2.000 F7800.000
G1 E1.00000 F1800.000
G1 X162.390 Y0.590 E1.12884 F540.000
G1 X162.800 Y-0.770 E1.25800
G1 X163.470 Y-2.030 E1.38776
G1 X164.370 Y-3.130 E1.51700
G1 X165.470 Y-4.030 E1.64624
G1 X166.730 Y-4.700 E1.77600
G1 X168.090 Y-5.110 E1.90516
G1 X169.500 Y-5.250 E2.03400
G1 X200.500 Y-5.250 E4.85282
G1 X202.000 Y-5.090 E4.98999
G1 X203.430 Y-4.630 E5.12658
G1 X204.730 Y-3.890 E5.26259
G1 X205.860 Y-2.880 E5.40041
G1 X206.750 Y-1.670 E5.53699
G1 X207.370 Y-0.310 E5.67290
G1 X207.700 Y1.160 E5.80989
G1 X217.700 Y87.160 E13.68252
G1 X217.750 Y88.000 E13.75904
G1 X217.750 Y98.000 E14.66833
G1 X217.610 Y99.410 E14.79718
G1 X217.200 Y100.770 E14.92634
G1 X216.530 Y102.030 E15.05610
G1 X215.630 Y103.130 E15.18533
G1 X214.530 Y104.030 E15.31457
G1 X213.270 Y104.700 E15.44433
G1 X211.910 Y105.110 E15.57349
G1 X210.500 Y105.250 E15.70233
G1 X195.500 Y105.250 E17.06628
G1 X194.170 Y105.130 E17.18771
G1 X192.880 Y104.760 E17.30973
G1 X191.690 Y104.170 E17.43051
G1 X190.620 Y103.360 E17.55254
G1 X189.720 Y102.370 E17.67420
G1 X189.010 Y101.240 E17.79555
G1 X188.530 Y99.990 E17.91730
G1 X162.530 Y8.990 E26.52301
G1 X162.320 Y8.010 E26.61414
G1 X162.250 Y7.000 E26.70620
G1 X162.250 Y2.094 E27.15232
G1 X162.880 Y2.000 F7800.000
G1 X163.000 Y0.710 E27.27013 F540.000
G1 X163.380 Y-0.540 E27.38893
G1 X163.990 Y-1.680 E27.50649
G1 X164.820 Y-2.680 E27.62466
G1 X165.820 Y-3.510 E27.74283
G1 X166.960 Y-4.120 E27.86040
G1 X168.210 Y-4.500 E27.97920
G1 X169.500 Y-4.620 E28.09700
G1 X200.500 Y-4.620 E30.91582
G1 X201.870 Y-4.480 E31.04104
G1 X203.180 Y-4.060 E31.16613
G1 X204.370 Y-3.380 E31.29076
G1 X205.400 Y-2.460 E31.41634
G1 X206.210 Y-1.360 E31.54055
G1 X206.780 Y-0.110 E31.66548
G1 X207.080 Y1.230 E31.79034
G1 X217.080 Y87.230 E39.66297
G1 X217.120 Y88.000 E39.73308
G1 X217.120 Y98.000 E40.64238
G1 X217.000 Y99.290 E40.76018
G1 X216.620 Y100.540 E40.87898
G1 X216.010 Y101.680 E40.99655
G1 X215.180 Y102.680 E41.11472
G1 X214.180 Y103.510 E41.23289
G1 X213.040 Y104.120 E41.35045
G1 X211.790 Y104.500 E41.46925
G1 X210.500 Y104.620 E41.58706
G1 X195.500 Y104.620 E42.95100
G1 X194.080 Y104.470 E43.08084
G1 X192.730 Y104.020 E43.21023
G1 X191.510 Y103.290 E43.33951
G1 X190.470 Y102.310 E43.46945
G1 X189.670 Y101.140 E43.59833
G1 X189.130 Y99.820 E43.72801
G1 X163.130 Y8.820 E52.33371
G1 X162.940 Y7.920 E52.41736
G1 X162.880 Y7.000 E52.50119
G1 X162.880 Y2.094 E52.94731
G1 F1800.000 E51.94731
G92 E0
G1 X169.850 Y2.350 F7800.000
G1 E1.00000 F1800.000
G1 X200.150 Y2.350 E3.75517 F378.000
G1 X200.150 Y93.350 E12.02976
G1 X206.850 Y93.350 E12.63899
G1 X206.850 Y88.350 E13.09363
G1 X210.150 Y88.350 E13.39370
G1 X210.150 Y97.650 E14.23935
G1 X195.850 Y97.650 E15.53964
G1 X195.850 Y6.650 E23.81423
G1 X169.850 Y6.650 E26.17840
G1 X169.850 Y2.444 E26.56088
G1 X171.119 Y6.228 F7800.000
G1 X170.272 Y5.381 E26.67050 F1080.000
G1 X170.272 Y4.492 E26.75182
G1 X172.008 Y6.228 E26.97645
G1 X172.897 Y6.228 E27.05776
G1 X170.272 Y3.603 E27.39739
G1 X170.332 Y2.774 E27.47339
G1 X173.786 Y6.228 E27.92022
G1 X174.675 Y6.228 E28.00154
G1 X171.218 Y2.772 E28.44870
G1 X172.107 Y2.772 E28.53002
G1 X175.564 Y6.228 E28.97719
G1 X176.453 Y6.228 E29.05850
G1 X172.996 Y2.772 E29.50567
G1 X173.885 Y2.772 E29.58698
G1 X177.342 Y6.228 E30.03415
G1 X178.231 Y6.228 E30.11547
G1 X174.774 Y2.772 E30.56264
G1 X175.663 Y2.772 E30.64395
G1 X179.120 Y6.228 E31.09112
G1 X180.009 Y6.228 E31.17243
G1 X176.552 Y2.772 E31.61960
G1 X177.441 Y2.772 E31.70092
G1 X180.898 Y6.228 E32.14808
G1 X181.787 Y6.228 E32.22940
G1 X178.330 Y2.772 E32.67657
G1 X179.219 Y2.772 E32.75788
G1 X182.676 Y6.228 E33.20505
G1 X183.565 Y6.228 E33.28637
G1 X180.108 Y2.772 E33.73353
G1 X180.997 Y2.772 E33.81485
G1 X184.454 Y6.228 E34.26202
G1 X185.343 Y6.228 E34.34333
G1 X181.886 Y2.772 E34.79050
G1 X182.775 Y2.772 E34.87181
G1 X186.232 Y6.228 E35.31898
G1 X187.121 Y6.228 E35.40030
G1 X183.664 Y2.772 E35.84747
G1 X184.553 Y2.772 E35.92878
G1 X188.010 Y6.228 E36.37595
G1 X188.899 Y6.228 E36.45726
G1 X185.442 Y2.772 E36.90443
G1 X186.331 Y2.772 E36.98575
G1 X189.788 Y6.228 E37.43291
G1 X190.677 Y6.228 E37.51423
G1 X187.220 Y2.772 E37.96140
G1 X188.109 Y2.772 E38.04271
G1 X191.566 Y6.228 E38.48988
G1 X192.455 Y6.228 E38.57120
G1 X188.998 Y2.772 E39.01836
G1 X189.887 Y2.772 E39.09968
G1 X193.344 Y6.228 E39.54685
G1 X194.233 Y6.228 E39.62816
G1 X190.776 Y2.772 E40.07533
G1 X191.665 Y2.772 E40.15664
G1 X195.122 Y6.228 E40.60381
G1 X199.666 Y2.772 F7800.000
G1 X199.728 Y2.834 E40.61194 F1080.000
G1 X199.728 Y3.723 E40.69325
G1 X198.777 Y2.772 E40.81637
G1 X197.888 Y2.772 E40.89769
G1 X199.728 Y4.612 E41.13581
G1 X199.728 Y5.501 E41.21712
G1 X196.999 Y2.772 E41.57024
G1 X196.110 Y2.772 E41.65155
G1 X199.728 Y6.390 E42.11967
G1 X199.728 Y7.279 E42.20098
G1 X195.221 Y2.772 E42.78409
G1 X194.332 Y2.772 E42.86541
G1 X199.728 Y8.168 E43.56352
G1 X199.728 Y9.057 E43.64483
G1 X193.443 Y2.772 E44.45794
G1 X192.554 Y2.772 E44.53925
G1 X199.728 Y9.946 E45.46735
G1 X199.728 Y10.835 E45.54867
G1 X196.272 Y7.378 E45.99584
G1 X196.272 Y8.267 E46.07715
G1 X199.728 Y11.724 E46.52432
G1 X199.728 Y12.613 E46.60564
G1 X196.272 Y9.156 E47.05280
G1 X196.272 Y10.045 E47.13412
G1 X199.728 Y13.502 E47.58129
G1 X199.728 Y14.391 E47.66260
G1 X196.272 Y10.934 E48.10977
G1 X196.272 Y11.823 E48.19108
G1 X199.728 Y15.280 E48.63825
G1 X199.728 Y16.169 E48.71957
G1 X196.272 Y12.712 E49.16673
G1 X196.272 Y13.601 E49.24805
G1 X199.728 Y17.058 E49.69522
G1 X199.728 Y17.947 E49.77653
G1 X196.272 Y14.490 E50.22370
G1 X196.272 Y15.379 E50.30502
G1 X199.728 Y18.836 E50.75218
G1 X199.728 Y19.725 E50.83350
G1 X196.272 Y16.268 E51.28067
G1 X196.272 Y17.157 E51.36198
G1 X199.728 Y20.614 E51.80915
G1 X199.728 Y21.503 E51.89046
G1 X196.272 Y18.046 E52.33763
G1 X196.272 Y18.935 E52.41895
G1 X199.728 Y22.392 E52.86611
G1 X199.728 Y23.281 E52.94743
G1 X196.272 Y19.824 E53.39460
G1 X196.272 Y20.713 E53.47591
G1 X199.728 Y24.170 E53.92308
G1 X199.728 Y25.059 E54.00440
G1 X196.272 Y21.602 E54.45156
G1 X196.272 Y22.491 E54.53288
G1 X199.728 Y25.948 E54.98005
G1 X199.728 Y26.837 E55.06136
G1 X196.272 Y23.380 E55.50853
G1 X196.272 Y24.269 E55.58984
G1 X199.728 Y27.726 E56.03701
G1 X199.728 Y28.615 E56.11833
G1 X196.272 Y25.158 E56.56550
G1 X196.272 Y26.047 E56.64681
G1 X199.728 Y29.504 E57.09398
G1 X199.728 Y30.393 E57.17529
G1 X196.272 Y26.936 E57.62246
G1 X196.272 Y27.825 E57.70378
G1 X199.728 Y31.282 E58.15094
G1 X199.728 Y32.171 E58.23226
G1 X196.272 Y28.714 E58.67943
G1 X196.272 Y29.603 E58.76074
G1 X199.728 Y33.060 E59.20791
G1 X199.728 Y33.949 E59.28922
G1 X196.272 Y30.492 E59.73639
G1 X196.272 Y31.381 E59.81771
G1 X199.728 Y34.838 E60.26488
G1 X199.728 Y35.727 E60.34619
G1 X196.272 Y32.270 E60.79336
G1 X196.272 Y33.159 E60.87467
G1 X199.728 Y36.616 E61.32184
G1 X199.728 Y37.505 E61.40316
G1 X196.272 Y34.048 E61.85032
G1 X196.272 Y34.937 E61.93164
G1 X199.728 Y38.394 E62.37881
G1 X199.728 Y39.283 E62.46012
G1 X196.272 Y35.826 E62.90729
G1 X196.272 Y36.715 E62.98861
G1 X199.728 Y40.172 E63.43577
G1 X199.728 Y41.061 E63.51709
G1 X196.272 Y37.604 E63.96426
G1 X196.272 Y38.493 E64.04557
G1 X199.728 Y41.950 E64.49274
G1 X199.728 Y42.839 E64.57405
G1 X196.272 Y39.382 E65.02122
G1 X196.272 Y40.271 E65.10254
G1 X199.728 Y43.728 E65.54970
G1 X199.728 Y44.617 E65.63102
G1 X196.272 Y41.160 E66.07819
G1 X196.272 Y42.049 E66.15950
G1 X199.728 Y45.506 E66.60667
G1 X199.728 Y46.394 E66.68799
G1 X196.272 Y42.938 E67.13515
G1 X196.272 Y43.827 E67.21647
G1 X199.728 Y47.283 E67.66364
G1 X199.728 Y48.172 E67.74495
G1 X196.272 Y44.716 E68.19212
G1 X196.272 Y45.605 E68.27343
G1 X199.728 Y49.061 E68.72060
G1 X199.728 Y49.950 E68.80192
G1 X196.272 Y46.494 E69.24909
G1 X196.272 Y47.383 E69.33040
G1 X199.728 Y50.839 E69.77757
G1 X199.728 Y51.728 E69.85888
G1 X196.272 Y48.272 E70.30605
G1 X196.272 Y49.161 E70.38737
G1 X199.728 Y52.617 E70.83453
G1 X199.728 Y53.506 E70.91585
G1 X196.272 Y50.050 E71.36302
G1 X196.272 Y50.939 E71.44433
G1 X199.728 Y54.395 E71.89150
G1 X199.728 Y55.284 E71.97282
G1 X196.272 Y51.827 E72.41998
G1 X196.272 Y52.716 E72.50130
G1 X199.728 Y56.173 E72.94847
G1 X199.728 Y57.062 E73.02978
G1 X196.272 Y53.605 E73.47695
G1 X196.272 Y54.494 E73.55826
G1 X199.728 Y57.951 E74.00543
G1 X199.728 Y58.840 E74.08675
G1 X196.272 Y55.383 E74.53391
G1 X196.272 Y56.272 E74.61523
G1 X199.728 Y59.729 E75.06240
G1 X199.728 Y60.618 E75.14371
G1 X196.272 Y57.161 E75.59088
G1 X196.272 Y58.050 E75.67220
G1 X199.728 Y61.507 E76.11936
G1 X199.728 Y62.396 E76.20068
G1 X196.272 Y58.939 E76.64785
G1 X196.272 Y59.828 E76.72916
G1 X199.728 Y63.285 E77.17633
G1 X199.728 Y64.174 E77.25764
G1 X196.272 Y60.717 E77.70481
G1 X196.272 Y61.606 E77.78613
G1 X199.728 Y65.063 E78.23330
G1 X199.728 Y65.952 E78.31461
G1 X196.272 Y62.495 E78.76178
G1 X196.272 Y63.384 E78.84309
G1 X199.728 Y66.841 E79.29026
G1 X199.728 Y67.730 E79.37158
G1 X196.272 Y64.273 E79.81874
G1 X196.272 Y65.162 E79.90006
G1 X199.728 Y68.619 E80.34723
G1 X199.728 Y69.508 E80.42854
G1 X196.272 Y66.051 E80.87571
G1 X196.272 Y66.940 E80.95703
G1 X199.728 Y70.397 E81.40419
G1 X199.728 Y71.286 E81.48551
G1 X196.272 Y67.829 E81.93268
G1 X196.272 Y68.718 E82.01399
G1 X199.728 Y72.175 E82.46116
G1 X199.728 Y73.064 E82.54247
G1 X196.272 Y69.607 E82.98964
G1 X196.272 Y70.496 E83.07096
G1 X199.728 Y73.953 E83.51812
G1 X199.728 Y74.842 E83.59944
G1 X196.272 Y71.385 E84.04661
G1 X196.272 Y72.274 E84.12792
G1 X199.728 Y75.731 E84.57509
G1 X199.728 Y76.620 E84.65641
G1 X196.272 Y73.163 E85.10357
G1 X196.272 Y74.052 E85.18489
G1 X199.728 Y77.509 E85.63206
G1 X199.728 Y78.398 E85.71337
G1 X196.272 Y74.941 E86.16054
G1 X196.272 Y75.830 E86.24186
G1 X199.728 Y79.287 E86.68902
G1 X199.728 Y80.176 E86.77034
G1 X196.272 Y76.719 E87.21751
G1 X196.272 Y77.608 E87.29882
G1 X199.728 Y81.065 E87.74599
G1 X199.728 Y81.954 E87.82730
G1 X196.272 Y78.497 E88.27447
G1 X196.272 Y79.386 E88.35579
G1 X199.728 Y82.843 E88.80295
G1 X199.728 Y83.732 E88.88427
G1 X196.272 Y80.275 E89.33144
G1 X196.272 Y81.164 E89.41275
G1 X199.728 Y84.621 E89.85992
G1 X199.728 Y85.510 E89.94124
G1 X196.272 Y82.053 E90.38840
G1 X196.272 Y82.942 E90.46972
G1 X199.728 Y86.399 E90.91689
G1 X199.728 Y87.288 E90.99820
G1 X196.272 Y83.831 E91.44537
G1 X196.272 Y84.720 E91.52668
G1 X199.728 Y88.177 E91.97385
G1 X199.728 Y89.066 E92.05517
G1 X196.272 Y85.609 E92.50234
G1 X196.272 Y86.498 E92.58365
G1 X199.728 Y89.955 E93.03082
G1 X199.728 Y90.844 E93.11213
G1 X196.272 Y87.387 E93.55930
G1 X196.272 Y88.276 E93.64062
G1 X199.728 Y91.733 E94.08778
G1 X199.728 Y92.622 E94.16910
G1 X196.272 Y89.165 E94.61627
G1 X196.272 Y90.054 E94.69758
G1 X203.446 Y97.228 E95.62569
G1 X202.557 Y97.228 E95.70701
G1 X196.272 Y90.943 E96.52012
G1 X196.272 Y91.832 E96.60144
G1 X201.668 Y97.228 E97.29955
G1 X200.779 Y97.228 E97.38087
G1 X196.272 Y92.721 E97.96398
G1 X196.272 Y93.610 E98.04530
G1 X199.890 Y97.228 E98.51342
G1 X199.001 Y97.228 E98.59473
G1 X196.272 Y94.499 E98.94786
G1 X196.272 Y95.388 E99.02917
G1 X198.112 Y97.228 E99.26730
G1 X197.223 Y97.228 E99.34861
G1 X196.272 Y96.277 E99.47174
G1 X196.272 Y97.166 E99.55306
G1 X196.334 Y97.228 E99.56119
G1 X204.335 Y97.228 F7800.000
G1 X200.878 Y93.772 E100.00836 F1080.000
G1 X201.767 Y93.772 E100.08967
G1 X205.224 Y97.228 E100.53684
G1 X206.113 Y97.228 E100.61816
G1 X202.656 Y93.772 E101.06532
G1 X203.545 Y93.772 E101.14664
G1 X207.002 Y97.228 E101.59381
G1 X207.891 Y97.228 E101.67512
G1 X204.434 Y93.772 E102.12229
G1 X205.323 Y93.772 E102.20361
G1 X208.780 Y97.228 E102.65077
G1 X209.667 Y97.227 E102.73192
G1 X206.212 Y93.772 E103.17886
G1 X207.101 Y93.772 E103.26017
G1 X209.728 Y96.399 E103.60000
G1 X209.728 Y95.510 E103.68132
G1 X207.272 Y93.053 E103.99913
G1 X207.272 Y92.164 E104.08044
G1 X209.728 Y94.621 E104.39825
G1 X209.728 Y93.732 E104.47957
G1 X207.272 Y91.275 E104.79738
G1 X207.272 Y90.386 E104.87869
G1 X209.728 Y92.843 E105.19650
G1 X209.728 Y91.954 E105.27782
G1 X207.272 Y89.497 E105.59563
G1 X207.435 Y88.772 F7800.000
G1 X209.728 Y91.065 E105.89227 F1080.000
G1 X209.728 Y90.176 E105.97358
G1 X208.324 Y88.772 E106.15523
G1 X209.213 Y88.772 E106.23654
G1 X209.728 Y89.287 E106.30319
M106 S255
M104 S220 ; set temperature
G1 F1800.000 E105.30319
G92 E0
G1 Z0.600 F7800.000
G1 X210.325 Y88.175 F7800.000
G1 E1.00000 F1800.000
G1 X210.325 Y97.825 E1.35105 F757.826
G1 X195.675 Y97.825 E1.88399
G1 X195.675 Y6.825 E5.19441
G1 X169.675 Y6.825 E6.14025
G1 X169.675 Y2.175 E6.30941
G1 X200.325 Y2.175 E7.42440
G1 X200.325 Y93.175 E10.73483
G1 X206.675 Y93.175 E10.96583
G1 X206.675 Y88.175 E11.14772
G1 X210.273 Y88.175 E11.27859
G1 X206.936 Y88.881 F7800.000
G1 X208.597 Y88.437 E11.34736 F2165.217
G1 X210.063 Y88.442 E11.40601
G1 X206.936 Y89.280 E11.53550
G1 F1800.000 E10.53550
G92 E0
G1 X204.806 Y93.436 F7800.000
G1 E1.00000 F1800.000
G1 X201.389 Y94.352 E1.14151 F2165.217
G1 X200.473 Y93.437 E1.19330
G1 X200.728 Y97.563 E1.35869
G1 X201.489 Y94.724 E1.47628
G1 X205.996 Y93.516 E1.66292
G1 X208.824 Y96.344 E1.82289
G1 X210.063 Y96.012 E1.87423
G1 X210.063 Y96.411 E1.89017
G1 X208.923 Y96.716 E1.93739
G1 X208.696 Y97.563 E1.97248
G1 F1800.000 E0.97248
G92 E0
G1 X200.064 Y87.137 F7800.000
G1 E1.00000 F1800.000
G1 X199.496 Y87.289 E1.02348 F2165.217
G1 X198.461 Y91.152 E1.18346
G1 X195.937 Y91.829 E1.28801
G1 X195.937 Y92.227 E1.30395
G1 X198.561 Y91.524 E1.41263
G1 X200.063 Y93.027 E1.49762
G1 X200.063 Y86.739 E1.74913
G1 X199.397 Y86.918 E1.77673
G1 X196.569 Y84.090 E1.93670
G1 X195.937 Y84.259 E1.96289
G1 X195.937 Y83.861 E1.97882
G1 X196.469 Y83.718 E2.00088
G1 X197.504 Y79.855 E2.16086
G1 X200.063 Y79.169 E2.26683
G1 X200.063 Y78.771 E2.28277
G1 X197.405 Y79.483 E2.39287
G1 X195.937 Y78.015 E2.47592
G1 X195.937 Y72.306 E2.70426
G1 X200.019 Y71.212 E2.87333
G1 X200.063 Y71.256 E2.87582
G1 X200.063 Y70.304 E2.91391
G1 X199.920 Y70.841 E2.93613
G1 X195.937 Y71.908 E3.10107
G1 X200.063 Y65.814 E3.39546
G1 X198.027 Y63.778 E3.51065
G1 X195.937 Y64.338 E3.59723
G1 X195.937 Y63.939 E3.61316
G1 X197.928 Y63.406 E3.69561
G1 X198.963 Y59.543 E3.85559
G1 X200.063 Y59.248 E3.90117
G1 X200.063 Y58.849 E3.91711
G1 X198.863 Y59.171 E3.96681
G1 X196.035 Y56.343 E4.12679
G1 X195.937 Y56.369 E4.13087
G1 X195.937 Y55.967 E4.14696
G1 X196.971 Y52.108 E4.30677
G1 X200.063 Y51.279 E4.43484
G1 X200.063 Y50.881 E4.45078
G1 X196.871 Y51.736 E4.58298
G1 X195.937 Y50.802 E4.63584
G1 X195.937 Y44.417 E4.89125
G1 X199.486 Y43.466 E5.03821
G1 X200.063 Y44.044 E5.07090
G1 X200.063 Y40.566 E5.21003
G1 X199.386 Y43.094 E5.31474
G1 X195.937 Y44.018 E5.45758
G1 X200.063 Y38.601 E5.72998
G1 X197.493 Y36.031 E5.87536
G1 X195.937 Y36.448 E5.93983
G1 X195.937 Y36.050 E5.95577
G1 X197.394 Y35.660 E6.01611
G1 X198.429 Y31.796 E6.17609
G1 X200.063 Y31.358 E6.24378
G1 X200.063 Y30.960 E6.25971
G1 X198.329 Y31.425 E6.33153
G1 X195.937 Y29.032 E6.46688
G1 X195.937 Y26.229 E6.57901
G1 X196.437 Y24.362 E6.65632
G1 X200.063 Y23.390 E6.80650
G1 X200.063 Y22.992 E6.82244
G1 X196.337 Y23.990 E6.97674
G1 X195.937 Y23.589 E6.99941
G1 X195.937 Y16.527 E7.28189
G1 X198.952 Y15.719 E7.40675
G1 X200.063 Y16.831 E7.46964
G1 X195.937 Y16.129 E7.63708
G1 X198.852 Y15.348 E7.75782
G1 X199.887 Y11.485 E7.91779
G1 X200.063 Y11.437 E7.92509
G1 X200.063 Y11.039 E7.94103
G1 X199.788 Y11.113 E7.95245
